!!!!SEGMENT: pl-cz--iii-456--001_kuci-mateusz--symfonia-d-allegro.krn
!!!cenid: 17xx:229
!!!COM: Kuci, Mateusz
!!!COM-rismid: pe30017582
!!!CDT:
!!!CNT:
!!!OPR: Symfonia D
!!!OTL: Allegro
!!!OMV: 001
!!!PDT:
!!!AGN: Secular
!!!SMS-siglum: PL-CZ
!!!SMS-shelfmark: III-456
!!!SMS-shelfwork: 001-001 M
!!!NIFC-rismid:
!!!URL-scan: http://repozytorium.nifc.pl/skany/pl-cz-nut--iii-456
!!!ONB-nifc:
!!!key:
**kern	**dynam	**kern	**dynam	**kern	**dynam	**kern	**dynam	**kern	**dynam	**kern	**dynam	**kern	**dynam	**kern	**dynam
*part8	*part8	*part7	*part7	*part6	*part6	*part5	*part5	*part4	*part4	*part3	*part3	*part2	*part2	*part1	*part1
*staff8	*	*staff7	*	*staff6	*	*staff5	*	*staff4	*	*staff3	*	*staff2	*	*staff1	*
*group4	*	*group3	*	*group3	*	*group3	*	*group2	*	*group2	*	*group1	*	*group1	*
*Iempty	*	*Iviola	*	*Ivioln	*	*Ivioln	*	*Iempty	*	*Iempty	*	*Ioboe	*	*Ioboe	*
*I"Baſso	*	*I"Viola	*	*I"Violino Secondo.	*	*I"Violino Primo	*	*I"Cornu Secondo Toni D#	*	*I"Cornu Primo Toni D#	*	*I"Oboe Secondo	*	*I"Oboe Primo	*
*I'B	*	*I'Vla	*	*I'Vn II	*	*I'Vn I	*	*I'Cor II	*	*I'Cor I	*	*I'Ob II	*	*I'Ob I	*
*clefF4	*	*clefC3	*	*clefG2	*	*clefG2	*	*clefG2	*	*clefG2	*	*clefG2	*	*clefG2	*
*	*	*	*	*	*	*	*	*ITrd-1c-2	*	*ITrd-1c-2	*	*	*	*	*
*k[f#c#]	*	*k[f#c#]	*	*k[f#c#]	*	*k[f#c#]	*	*k[f#c#]	*	*k[f#c#]	*	*k[f#c#]	*	*k[f#c#]	*
*D:	*	*D:	*	*D:	*	*D:	*	*	*	*	*	*D:	*	*D:	*
*M2/2	*	*M2/2	*	*M2/2	*	*M2/2	*	*M2/2	*	*M2/2	*	*M2/2	*	*M2/2	*
*met(c|)	*	*met(c|)	*	*met(c|)	*	*met(c|)	*	*met(c|)	*	*met(c|)	*	*met(c|)	*	*met(c|)	*
*>[AABB]	*	*>[AABB]	*	*>[AABB]	*	*>[AABB]	*	*>[AABB]	*	*>[AABB]	*	*>[AABB]	*	*>[AABB]	*
=1	=1	=1	=1	=1	=1	=1	=1	=1	=1	=1	=1	=1	=1	=1	=1
*>A	*	*>A	*	*>A	*	*>A	*	*>A	*	*>A	*	*>A	*	*>A	*
!	!	!	!	!	!	!LO:TX:a:t=Sinphonia	!	!LO:TX:a:t=Sinphonia	!	!LO:TX:a:t=Sinphonia	!	!LO:TX:a:t=Sinphonia	!	!LO:TX:a:t=Sinphonia	!
!	!	!LO:TX:a:t=Allegro Maestoso	!	!LO:TX:a:t=Allegro Maestoso	!	!LO:TX:a:t=Allegro Maestoso	!	!LO:TX:a:t=Allegro Maestoso	!	!LO:TX:a:t=Allegro Maestoso	!	!LO:TX:a:t=Allegro Maestoso	!	!LO:TX:a:t=Allegro Maestoso	!
4D\	.	4d\	.	4d/	.	4d/	f	4d/	.	4dd\	f	4dd\	.	4dd\	.
8.D\L	.	8.d\L	.	8.d/L	.	8.d/L	.	8.d/L	.	8.dd\L	.	8.dd\L	.	8.dd\L	.
16D\Jk	.	16d\Jk	.	16d/Jk	.	16d/Jk	.	16d/Jk	.	16dd\Jk	.	16dd\Jk	.	16dd\Jk	.
4D\	.	4d\	.	4d/	.	4d/	.	4.d/	.	4dd\	.	4dd\	.	4dd\	.
4D\	.	4d\	.	4d/	.	4d/	.	.	.	4dd\	.	4dd\	.	4dd\	.
.	.	.	.	.	.	.	.	8d/	.	.	.	.	.	.	.
=2	=2	=2	=2	=2	=2	=2	=2	=2	=2	=2	=2	=2	=2	=2	=2
4.D/	.	4.d\	.	4.d/	.	4.d/	.	4.d/	.	4.dd\	.	4.dd\	.	4.dd\	.
8AA/	.	8A/	.	8A/	.	8A/	.	8A/	.	8a/	.	8a/	.	8a/	.
4.D/	.	4.d\	.	4.d/	.	4.d/	.	4.d/	.	4.dd\	.	4.dd\	.	4.dd\	.
8AA/	.	8A/	.	8A/	.	8A/	.	8A/	.	8a/	.	8a/	.	8a/	.
=3	=3	=3	=3	=3	=3	=3	=3	=3	=3	=3	=3	=3	=3	=3	=3
8D\L	.	8d\L	.	8d/L	.	8d/L	.	8d/L	.	8dd'\L	.	8dd\L	.	8dd\L	.
8AA\	.	8A\	.	8A/	.	8A/	.	8A/	.	8a'\	.	8a\	.	8a\	.
8D\	.	8d\	.	8d/	.	8d/	.	8d/	.	8dd'\	.	8dd\	.	8dd\	.
8F#\J	.	8f#\J	.	8f#/J	.	8f#/J	.	8f#/J	.	8ff#'\J	.	8ff#\J	.	8ff#\J	.
4D\	.	4d\	.	8d/L	.	8d/L	.	4d/	.	4dd\	.	4dd\	.	4dd\	.
.	.	.	.	8a/	.	8a/	.	.	.	.	.	.	.	.	.
4r	.	4r	.	8f#/	.	8f#/	.	4r	.	4r	.	4r	.	4r	.
.	.	.	.	8dd/J	.	8dd/J	.	.	.	.	.	.	.	.	.
=4	=4	=4	=4	=4	=4	=4	=4	=4	=4	=4	=4	=4	=4	=4	=4
4.AA/	.	8a\	.	8a/	.	8a/	.	1a	.	(<1ee	.	(<1ee	.	1gg	.
.	.	4a\	.	4a/ 4ee	.	4gg\	.	.	.	.	.	.	.	.	.
16C#/LL	.	4a\	.	4a/ 4ee	.	4gg\	.	.	.	.	.	.	.	.	.
16E/JJ	.	.	.	.	.	.	.	.	.	.	.	.	.	.	.
8A\L	.	.	.	.	.	.	.	.	.	.	.	.	.	.	.
8E\	.	4a\	.	4a/ 4ee	.	4gg\	.	.	.	.	.	.	.	.	.
8C#\	.	.	.	.	.	.	.	.	.	.	.	.	.	.	.
8AA\J	.	8a\	.	8a/ 8ee	.	8gg\	.	.	.	.	.	.	.	.	.
=5	=5	=5	=5	=5	=5	=5	=5	=5	=5	=5	=5	=5	=5	=5	=5
4D\	.	4a\	.	4dd\	.	4d/ 4a 4ff#	.	4dd\	.	4ff#\)	.	4dd\)	.	4ff#\	.
8.D\L	p	8.d\L	p	8.d/L	p	8.d/L	p	4r	.	4r	.	4r	.	4r	.
16D\Jk	.	16d\Jk	.	16d/Jk	.	16d/Jk	.	.	.	.	.	.	.	.	.
4D\	.	4d\	.	4d/	.	4d/	.	2r	.	2r	.	2r	.	2r	.
4D\	.	4d\	.	4d/	.	4d/	.	.	.	.	.	.	.	.	.
!LO:LB:g=original	!	!	!	!	!	!	!	!	!	!	!	!	!	!	!
=6	=6	=6	=6	=6	=6	=6	=6	=6	=6	=6	=6	=6	=6	=6	=6
!	!	!	!	!	!	!	!	!LO:TX:a:t=2	!	!LO:TX:a:t=2	!	!LO:TX:a:t=2	!	!LO:TX:a:t=2	!
4.D/	.	4.d\	.	4.d/	.	4.d/	.	0r	.	0r	.	0r	.	0r	.
8AA/	.	8A/	.	8A/	.	8A/	.	.	.	.	.	.	.	.	.
!	!	!	!	!	!	!LO:LB:g=original	!	!	!	!	!	!	!	!	!
4.D/	.	4.d\	.	4.d/	.	4.d/	.	.	.	.	.	.	.	.	.
8AA/	.	8A/	.	8A/	.	8A/	.	.	.	.	.	.	.	.	.
!	!	!LO:LB:g=original	!	!LO:LB:g=original	!	!	!	!	!	!	!	!	!	!	!
=7	=7	=7	=7	=7	=7	=7	=7	=7	=7	=7	=7	=7	=7	=7	=7
8D/L	.	8d\L	.	8d/L	.	8d/L	.	.	.	.	.	.	.	.	.
8AA/	.	8A\	.	8A/	.	8A/	.	.	.	.	.	.	.	.	.
8D/	.	8d\	.	8d/	.	8d/	.	.	.	.	.	.	.	.	.
8F#/J	.	8f#\J	.	8f#/J	.	8f#/J	.	.	.	.	.	.	.	.	.
4D/	.	4d\	.	8d/L	.	8d/L	.	.	.	.	.	.	.	.	.
.	.	.	.	8a/	.	8a/	.	.	.	.	.	.	.	.	.
4r	.	4r	.	8f#/	.	8f#/	.	.	.	.	.	.	.	.	.
.	.	.	.	8dd/J	.	8dd/J	.	.	.	.	.	.	.	.	.
=8	=8	=8	=8	=8	=8	=8	=8	=8	=8	=8	=8	=8	=8	=8	=8
!	!	!	!	!	!	!	!	!	!	!	!	!	!LO:HP:t=cres.	!	!LO:HP:t=cres.
4.AA/	<	8a\	<	8a/	<	8a/	<	(<1a	<	1ee	p <	1ee	<	1gg	<
.	.	4a\	.	4a/ 4ee	.	4gg\	.	.	.	.	.	.	.	.	.
16C#/LL	.	4a\	.	4a/ 4ee	.	4gg\	.	.	.	.	.	.	.	.	.
16E/JJ	.	.	.	.	.	.	.	.	.	.	.	.	.	.	.
8A\L	.	.	.	.	.	.	.	.	.	.	.	.	.	.	.
8E\	.	4a\	.	4a/ 4ee	.	4gg\	.	.	.	.	.	.	.	.	.
8C#\	.	.	.	.	.	.	.	.	.	.	.	.	.	.	.
8AA\J	.	8a\	.	8a/ 8ee	.	8gg\	.	.	.	.	.	.	.	.	.
!	!	!	!	!	!	!	!	!LO:LB:g=original	!	!	!	!	!	!	!
=9	=9	=9	=9	=9	=9	=9	=9	=9	=9	=9	=9	=9	=9	=9	=9
*2\right	*	*2\right	*	*	*	*	*	*	*	*	*	*	*	*	*
*tremolo	*	*tremolo	*	*	*	*	*	*	*	*	*	*	*	*	*
!	!	!	!	!	!	!	!LO:DY:t=fortiſs:	!	!	!	!	!	!	!	!LO:DY:t=fortiſ
8D\L	f	8d\L	f	16f#/LL 16a	f	4d/ 4a 4ff#	ff	[1d)	.	[<1dd	f	1dd	f	1ff#	ff
.	.	.	.	16f#/ 16a	.	.	.	.	.	.	.	.	.	.	.
8D\	.	8d\	.	16f#/ 16a	.	.	.	.	.	.	.	.	.	.	.
.	.	.	.	16f#/JJ 16a	.	.	.	.	.	.	.	.	.	.	.
*	*	*	*	*tremolo	*	*	*	*	*	*	*	*	*	*	*
8D\	.	8d\	.	16f#/LL 16a	.	(16dd\LL	.	.	.	.	.	.	.	.	.
.	.	.	.	16f#/ 16a	.	16ee\	.	.	.	.	.	.	.	.	.
8D\J	.	8d\J	.	16f#/ 16a	.	16ff#\	.	.	.	.	.	.	.	.	.
.	.	.	.	16f#/JJ 16a	.	16ee\JJ)	.	.	.	.	.	.	.	.	.
8D\L	.	8d\L	.	16f#/LL 16a	.	4dd\	.	.	.	.	.	.	.	.	.
.	.	.	.	16f#/ 16a	.	.	.	.	.	.	.	.	.	.	.
8D\	.	8f#\	.	16f#/ 16a	.	.	.	.	.	.	.	.	.	.	.
.	.	.	.	16f#/ 16a	.	.	.	.	.	.	.	.	.	.	.
8D\	.	8a\	.	16f#/ 16a	.	4r	.	.	.	.	.	.	.	.	.
.	.	.	.	16f#/ 16a	.	.	.	.	.	.	.	.	.	.	.
8D\J	.	8f#\J	.	16f#/ 16a	.	.	.	.	.	.	.	.	.	.	.
.	.	.	.	16f#/JJ 16a	.	.	.	.	.	.	.	.	.	.	.
!	!	!	!	!	!	!	!	!	!	!LO:LB:g=original	!	!LO:LB:g=original	!	!	!
=10	=10	=10	=10	=10	=10	=10	=10	=10	=10	=10	=10	=10	=10	=10	=10
8D\L	.	8d\L	.	16f#/LL 16a	.	4ddd\	.	1d_	f	1dd_<	.	1ff#	.	1aa	.
.	.	.	.	16f#/ 16a	.	.	.	.	.	.	.	.	.	.	.
8D\	.	8f#\	.	16f#/ 16a	.	.	.	.	.	.	.	.	.	.	.
.	.	.	.	16f#/ 16a	.	.	.	.	.	.	.	.	.	.	.
8D\	.	8a\	.	16f#/ 16a	.	4aa\	.	.	.	.	.	.	.	.	.
.	.	.	.	16f#/ 16a	.	.	.	.	.	.	.	.	.	.	.
8D\J	.	8f#\J	.	16f#/ 16a	.	.	.	.	.	.	.	.	.	.	.
.	.	.	.	16f#/JJ 16a	.	.	.	.	.	.	.	.	.	.	.
8D\L	.	8d\L	.	16f#/LL 16a	.	4ff#\	.	.	.	.	.	.	.	.	.
.	.	.	.	16f#/ 16a	.	.	.	.	.	.	.	.	.	.	.
8D\	.	8f#\	.	16f#/ 16a	.	.	.	.	.	.	.	.	.	.	.
.	.	.	.	16f#/ 16a	.	.	.	.	.	.	.	.	.	.	.
8D\	.	8a\	.	16f#/ 16a	.	4dd\	.	.	.	.	.	.	.	.	.
.	.	.	.	16f#/ 16a	.	.	.	.	.	.	.	.	.	.	.
8D\J	.	8f#\J	.	16f#/ 16a	.	.	.	.	.	.	.	.	.	.	.
.	.	.	.	16f#/JJ 16a	.	.	.	.	.	.	.	.	.	.	.
!	!	!	!	!	!	!	!	!	!	!	!	!	!	!LO:LB:g=original	!
=11	=11	=11	=11	=11	=11	=11	=11	=11	=11	=11	=11	=11	=11	=11	=11
*	*	*	*	*^	*	*	*	*	*	*	*	*	*	*	*
*	*	*	*	*	*2\right	*	*	*	*	*	*	*	*	*	*	*
8D\L	.	8d\L	.	16b/LL	16g\LL	.	4bb\	.	1d_	.	1dd_<	.	1gg	.	[1bb<	.
.	.	.	.	16b/	16g\	.	.	.	.	.	.	.	.	.	.	.
8D\	.	8g\	.	16b/	16g\	.	.	.	.	.	.	.	.	.	.	.
.	.	.	.	16b/	16g\	.	.	.	.	.	.	.	.	.	.	.
8D\	.	8b\	.	16b/	16g\	.	16Gv/LL	.	.	.	.	.	.	.	.	.
.	.	.	.	16b/	16g\	.	16A/	.	.	.	.	.	.	.	.	.
8D\J	.	8g\J	.	16b/	16g\	.	16B/	.	.	.	.	.	.	.	.	.
.	.	.	.	16b/JJ	16g\JJ	.	16A/JJ	.	.	.	.	.	.	.	.	.
8D\L	.	8d\L	.	16b/LL	16g\LL	.	4G/	.	.	.	.	.	.	.	.	.
.	.	.	.	16b/	16g\	.	.	.	.	.	.	.	.	.	.	.
8D\	.	8g\	.	16b/	16g\	.	.	.	.	.	.	.	.	.	.	.
.	.	.	.	16b/	16g\	.	.	.	.	.	.	.	.	.	.	.
8D\	.	8b\	.	16b/	16g\	.	4r	.	.	.	.	.	.	.	.	.
.	.	.	.	16b/	16g\	.	.	.	.	.	.	.	.	.	.	.
8D\J	.	8g\J	.	16b/	16g\	.	.	.	.	.	.	.	.	.	.	.
.	.	.	.	16b/JJ	16g\JJ	.	.	.	.	.	.	.	.	.	.	.
!	!	!	!	!	!	!	!LO:LB:g=original	!	!	!	!	!	!	!	!	!
=12	=12	=12	=12	=12	=12	=12	=12	=12	=12	=12	=12	=12	=12	=12	=12	=12
8D\L	.	8d\L	.	16b/LL	16g\LL	.	4ddd\	.	1d_	.	1dd_<	.	(<1gg	.	&(<1bb]	.
.	.	.	.	16b/	16g\	.	.	.	.	.	.	.	.	.	.	.
8D\	.	8g\	.	16b/	16g\	.	.	.	.	.	.	.	.	.	.	.
.	.	.	.	16b/	16g\	.	.	.	.	.	.	.	.	.	.	.
8D\	.	8b\	.	16b/	16g\	.	4bb\	.	.	.	.	.	.	.	.	.
.	.	.	.	16b/	16g\	.	.	.	.	.	.	.	.	.	.	.
8D\J	.	8g\J	.	16b/	16g\	.	.	.	.	.	.	.	.	.	.	.
.	.	.	.	16b/JJ	16g\JJ	.	.	.	.	.	.	.	.	.	.	.
8D\L	.	8d\L	.	16b/LL	16g\LL	.	4gg\	.	.	.	.	.	.	.	.	.
.	.	.	.	16b/	16g\	.	.	.	.	.	.	.	.	.	.	.
8D\	.	8g\	.	16b/	16g\	.	.	.	.	.	.	.	.	.	.	.
.	.	.	.	16b/	16g\	.	.	.	.	.	.	.	.	.	.	.
8D\	.	8b\	.	16b/	16g\	.	4dd\	.	.	.	.	.	.	.	.	.
.	.	.	.	16b/	16g\	.	.	.	.	.	.	.	.	.	.	.
8D\J	.	8g\J	.	16b/	16g\	.	.	.	.	.	.	.	.	.	.	.
.	.	.	.	16b/JJ	16g\JJ	.	.	.	.	.	.	.	.	.	.	.
*	*	*	*	*v	*v	*	*	*	*	*	*	*	*	*	*	*
!	!	!LO:LB:g=original	!	!LO:LB:g=original	!	!	!	!	!	!	!	!	!	!	!
=13	=13	=13	=13	=13	=13	=13	=13	=13	=13	=13	=13	=13	=13	=13	=13
8D\L	.	8d\L	.	16f#/LL	.	4aa\	.	4d/]	.	4dd\]	.	[<1ff#)	.	1aa&)[<	.
.	.	.	.	16a/	.	.	.	.	.	.	.	.	.	.	.
8D\	.	8f#\	.	16f#/	.	.	.	.	.	.	.	.	.	.	.
.	.	.	.	16a/	.	.	.	.	.	.	.	.	.	.	.
8D\	.	8a\	.	16f#/	.	(16dd\LL	.	8.d/L	.	8.dd\L	.	.	.	.	.
.	.	.	.	16a/	.	16ee\	.	.	.	.	.	.	.	.	.
8D\J	.	8f#\J	.	16f#/	.	16ff#\	.	.	.	.	.	.	.	.	.
.	.	.	.	16a/JJ	.	16ee\JJ)	.	16d/Jk	.	16dd\Jk	.	.	.	.	.
8D\L	.	8d\L	.	16f#/LL	.	4dd\	.	4d/	.	4dd\	.	.	.	.	.
.	.	.	.	16a/	.	.	.	.	.	.	.	.	.	.	.
8D\	.	8f#\	.	16f#/	.	.	.	.	.	.	.	.	.	.	.
.	.	.	.	16a/	.	.	.	.	.	.	.	.	.	.	.
8D\	.	8a\	.	16f#/	.	4r	.	4d/	.	4dd\	.	.	.	.	.
.	.	.	.	16a/	.	.	.	.	.	.	.	.	.	.	.
8D\J	.	8f#\J	.	16f#/	.	.	.	.	.	.	.	.	.	.	.
.	.	.	.	16a/JJ	.	.	.	.	.	.	.	.	.	.	.
=14	=14	=14	=14	=14	=14	=14	=14	=14	=14	=14	=14	=14	=14	=14	=14
8D\L	.	8d\L	.	16f#/LL	.	4ddd\	.	1d	.	1dd	.	(<1ff#]	.	(<1aa]	.
.	.	.	.	16a/	.	.	.	.	.	.	.	.	.	.	.
8D\	.	8f#\	.	16f#/	.	.	.	.	.	.	.	.	.	.	.
.	.	.	.	16a/	.	.	.	.	.	.	.	.	.	.	.
8D\	.	8a\	.	16f#/	.	4aa\	.	.	.	.	.	.	.	.	.
.	.	.	.	16a/	.	.	.	.	.	.	.	.	.	.	.
8D\J	.	8f#\J	.	16f#/	.	.	.	.	.	.	.	.	.	.	.
.	.	.	.	16a/JJ	.	.	.	.	.	.	.	.	.	.	.
8D\L	.	8d\L	.	16f#/LL	.	4ff#\	.	.	.	.	.	.	.	.	.
.	.	.	.	16a/	.	.	.	.	.	.	.	.	.	.	.
8D\	.	8f#\	.	16f#/	.	.	.	.	.	.	.	.	.	.	.
.	.	.	.	16a/	.	.	.	.	.	.	.	.	.	.	.
8D\	.	8a\	.	16f#/	.	4dd\	.	.	.	.	.	.	.	.	.
.	.	.	.	16a/	.	.	.	.	.	.	.	.	.	.	.
8D\J	.	8f#\J	.	16f#/	.	.	.	.	.	.	.	.	.	.	.
.	.	.	.	16a/JJ	.	.	.	.	.	.	.	.	.	.	.
!LO:LB:g=original	!	!	!	!	!	!	!	!	!	!	!	!	!	!	!
=15	=15	=15	=15	=15	=15	=15	=15	=15	=15	=15	=15	=15	=15	=15	=15
!	!	!LO:TX:a:t=bis	!	!	!	!	!	!LO:TX:a:t=bis	!	!	!	!	!	!	!
8AA/L	.	8c#X\L	.	16e/LL	.	4gg\	.	1a	.	[<1ee	.	[<1ee)	.	[<1gg)	.
.	.	.	.	16a/	.	.	.	.	.	.	.	.	.	.	.
8AA/	.	8e\	.	16e/	.	.	.	.	.	.	.	.	.	.	.
.	.	.	.	16a/	.	.	.	.	.	.	.	.	.	.	.
8AA/	.	8a\	.	16e/	.	(16Av/LL	.	.	.	.	.	.	.	.	.
.	.	.	.	16a/	.	16B/	.	.	.	.	.	.	.	.	.
8AA/J	.	8e\J	.	16e/	.	16c#/	.	.	.	.	.	.	.	.	.
.	.	.	.	16a/JJ	.	16B/JJ)	.	.	.	.	.	.	.	.	.
8A\L	.	8c#\L	.	16e/LL	.	4A/	.	.	.	.	.	.	.	.	.
.	.	.	.	16a/	.	.	.	.	.	.	.	.	.	.	.
8A\	.	8e\	.	16e/	.	.	.	.	.	.	.	.	.	.	.
.	.	.	.	16a/	.	.	.	.	.	.	.	.	.	.	.
8A\	.	8a\	.	16e/	.	4r	.	.	.	.	.	.	.	.	.
.	.	.	.	16a/	.	.	.	.	.	.	.	.	.	.	.
8A\J	.	8e\J	.	16e/	.	.	.	.	.	.	.	.	.	.	.
.	.	.	.	16a/JJ	.	.	.	.	.	.	.	.	.	.	.
=16	=16	=16	=16	=16	=16	=16	=16	=16	=16	=16	=16	=16	=16	=16	=16
!	!	!	!	!	!	!	!	!LO:TX:a:t=problem:repetycja tt.15	!	!	!	!	!	!	!
8A\L	.	8c#\L	.	16e/LL	.	4eee\	.	1ayy	.	(<1ee]	.	(<1ee]	.	(<1gg]	.
.	.	.	.	16a/	.	.	.	.	.	.	.	.	.	.	.
8A\	.	8e\	.	16e/	.	.	.	.	.	.	.	.	.	.	.
.	.	.	.	16a/	.	.	.	.	.	.	.	.	.	.	.
8A\	.	8a\	.	16e/	.	4ccc#\	.	.	.	.	.	.	.	.	.
.	.	.	.	16a/	.	.	.	.	.	.	.	.	.	.	.
8A\J	.	8e\J	.	16e/	.	.	.	.	.	.	.	.	.	.	.
.	.	.	.	16a/JJ	.	.	.	.	.	.	.	.	.	.	.
8AA/L	.	8c#\L	.	16e/LL	.	4gg\	.	.	.	.	.	.	.	.	.
.	.	.	.	16a/	.	.	.	.	.	.	.	.	.	.	.
8AA/	.	8e\	.	16e/	.	.	.	.	.	.	.	.	.	.	.
.	.	.	.	16a/	.	.	.	.	.	.	.	.	.	.	.
8AA/	.	8a\	.	16e/	.	4ee\	.	.	.	.	.	.	.	.	.
.	.	.	.	16a/	.	.	.	.	.	.	.	.	.	.	.
8AA/J	.	8e\J	.	16e/	.	.	.	.	.	.	.	.	.	.	.
.	.	.	.	16a/JJ	.	.	.	.	.	.	.	.	.	.	.
=17	=17	=17	=17	=17	=17	=17	=17	=17	=17	=17	=17	=17	=17	=17	=17
*	*	*	*	*	*	*	*	*	*	*	*	*2\right	*	*	*
!	!	!LO:TX:a:t=problem:repetycja tt. 13-16	!	!	!	!	!	!	!	!	!	!	!	!	!
8D\L	.	8d\Lyy	.	16f#/LL	.	4d/ 4a 4ff#	.	4d/	.	4dd\)	.	2dd\)	.	[<1aa)	.
.	.	.	.	16a/	.	.	.	.	.	.	.	.	.	.	.
8D\	.	8f#\yy	.	16f#/	.	.	.	.	.	.	.	.	.	.	.
.	.	.	.	16a/	.	.	.	.	.	.	.	.	.	.	.
8D\	.	8a\yy	.	16f#/	.	16dd\LL	.	8.d/L	.	8.dd\L	.	.	.	.	.
.	.	.	.	16a/	.	16ee\	.	.	.	.	.	.	.	.	.
8D\J	.	8f#\Jyy	.	16f#/	.	16ff#\	.	.	.	.	.	.	.	.	.
.	.	.	.	16a/JJ	.	16ee\JJ	.	16d/Jk	.	16dd\Jk	.	.	.	.	.
8D\L	.	8d\Lyy	.	16f#/LL	.	4dd\	.	4d/	.	4dd\	.	[<2ff#\	.	.	.
.	.	.	.	16a/	.	.	.	.	.	.	.	.	.	.	.
8D\	.	8f#\yy	.	16f#/	.	.	.	.	.	.	.	.	.	.	.
.	.	.	.	16a/	.	.	.	.	.	.	.	.	.	.	.
8D\	.	8a\yy	.	16f#/	.	4r	.	4d/	.	4dd\	.	.	.	.	.
.	.	.	.	16a/	.	.	.	.	.	.	.	.	.	.	.
8D\J	.	8f#\Jyy	.	16f#/	.	.	.	.	.	.	.	.	.	.	.
.	.	.	.	16a/JJ	.	.	.	.	.	.	.	.	.	.	.
!	!	!	!	!	!	!LO:LB:g=original	!	!	!	!	!	!	!	!	!
=18	=18	=18	=18	=18	=18	=18	=18	=18	=18	=18	=18	=18	=18	=18	=18
8D\L	.	8d\Lyy	.	16f#/LL	.	4ddd\	.	1d	.	(<1dd	.	(<1ff#]	.	(<1aa]	.
.	.	.	.	16a/	.	.	.	.	.	.	.	.	.	.	.
8D\	.	8f#\yy	.	16f#/	.	.	.	.	.	.	.	.	.	.	.
.	.	.	.	16a/	.	.	.	.	.	.	.	.	.	.	.
8D\	.	8a\yy	.	16f#/	.	4aa\	.	.	.	.	.	.	.	.	.
.	.	.	.	16a/	.	.	.	.	.	.	.	.	.	.	.
8D\J	.	8f#\Jyy	.	16f#/	.	.	.	.	.	.	.	.	.	.	.
.	.	.	.	16a/JJ	.	.	.	.	.	.	.	.	.	.	.
8D\L	.	8d\Lyy	.	16f#/LL	.	4ff#\	.	.	.	.	.	.	.	.	.
.	.	.	.	16a/	.	.	.	.	.	.	.	.	.	.	.
8D\	.	8f#\yy	.	16f#/	.	.	.	.	.	.	.	.	.	.	.
.	.	.	.	16a/	.	.	.	.	.	.	.	.	.	.	.
8D\	.	8a\yy	.	16f#/	.	4dd\	.	.	.	.	.	.	.	.	.
.	.	.	.	16a/	.	.	.	.	.	.	.	.	.	.	.
8D\J	.	8f#\Jyy	.	16f#/	.	.	.	.	.	.	.	.	.	.	.
.	.	.	.	16a/JJ	.	.	.	.	.	.	.	.	.	.	.
!	!	!	!	!	!	!	!	!LO:LB:g=original	!	!	!	!	!	!	!
=19	=19	=19	=19	=19	=19	=19	=19	=19	=19	=19	=19	=19	=19	=19	=19
8AA/L	.	8c#X\Lyy	.	16e/LL	.	4gg\	.	[1a	.	[<1ee)	.	[<1ee)	.	[<1gg)	.
.	.	.	.	16a/	.	.	.	.	.	.	.	.	.	.	.
8AA/	.	8e\yy	.	16e/	.	.	.	.	.	.	.	.	.	.	.
.	.	.	.	16a/	.	.	.	.	.	.	.	.	.	.	.
8AA/	.	8a\yy	.	16e/	.	16A/LL	.	.	.	.	.	.	.	.	.
.	.	.	.	16a/	.	16B/	.	.	.	.	.	.	.	.	.
8AA/J	.	8e\Jyy	.	16e/	.	16c#/	.	.	.	.	.	.	.	.	.
.	.	.	.	16a/JJ	.	16B/JJ	.	.	.	.	.	.	.	.	.
8A\L	.	8c#\Lyy	.	16e/LL	.	4A/	.	.	.	.	.	.	.	.	.
.	.	.	.	16a/	.	.	.	.	.	.	.	.	.	.	.
8A\	.	8e\yy	.	16e/	.	.	.	.	.	.	.	.	.	.	.
.	.	.	.	16a/	.	.	.	.	.	.	.	.	.	.	.
8A\	.	8a\yy	.	16e/	.	4r	.	.	.	.	.	.	.	.	.
.	.	.	.	16a/	.	.	.	.	.	.	.	.	.	.	.
8A\J	.	8e\Jyy	.	16e/	.	.	.	.	.	.	.	.	.	.	.
.	.	.	.	16a/JJ	.	.	.	.	.	.	.	.	.	.	.
!	!	!	!	!LO:LB:g=original	!	!	!	!	!	!	!	!	!	!	!
=20	=20	=20	=20	=20	=20	=20	=20	=20	=20	=20	=20	=20	=20	=20	=20
8A\L	.	8c#\Lyy	.	16e/LL	.	4eee\	.	(1a]	.	(<1ee]	.	(<1ee]	.	(<1gg]	.
.	.	.	.	16a/	.	.	.	.	.	.	.	.	.	.	.
8A\	.	8e\yy	.	16e/	.	.	.	.	.	.	.	.	.	.	.
.	.	.	.	16a/	.	.	.	.	.	.	.	.	.	.	.
8A\	.	8a\yy	.	16e/	.	4ccc#\	.	.	.	.	.	.	.	.	.
.	.	.	.	16a/	.	.	.	.	.	.	.	.	.	.	.
8A\J	.	8e\Jyy	.	16e/	.	.	.	.	.	.	.	.	.	.	.
.	.	.	.	16a/JJ	.	.	.	.	.	.	.	.	.	.	.
8AA/L	.	8c#\Lyy	.	16e/LL	.	4gg\	.	.	.	.	.	.	.	.	.
.	.	.	.	16a/	.	.	.	.	.	.	.	.	.	.	.
8AA/	.	8e\yy	.	16e/	.	.	.	.	.	.	.	.	.	.	.
.	.	.	.	16a/	.	.	.	.	.	.	.	.	.	.	.
8AA/	.	8a\yy	.	16e/	.	4ee\	.	.	.	.	.	.	.	.	.
.	.	.	.	16a/	.	.	.	.	.	.	.	.	.	.	.
8AA/J	.	8e\Jyy	.	16e/	.	.	.	.	.	.	.	.	.	.	.
.	.	.	.	16a/JJ	.	.	.	.	.	.	.	.	.	.	.
!	!	!	!	!	!	!	!	!	!	!LO:LB:g=original	!	!	!	!	!
=21	=21	=21	=21	=21	=21	=21	=21	=21	=21	=21	=21	=21	=21	=21	=21
.	.	.	.	8qqd/	.	.	.	.	.	.	.	.	.	.	.
4D\	.	4d\	.	16dd\LL	.	16ff#\LL	.	4d/)	.	4dd\)	.	4dd\)	.	4ff#\)	.
.	.	.	.	16dd\	.	16ff#\	.	.	.	.	.	.	.	.	.
.	.	.	.	16dd\	.	16ff#\	.	.	.	.	.	.	.	.	.
.	.	.	.	16dd\	.	16ff#\JJ	.	.	.	.	.	.	.	.	.
*	*	*	*	*	*	*tremolo	*	*	*	*	*	*	*	*2\right	*
4r	.	4r	.	16dd\	.	16ff#\LL	.	8.d/L	.	8.dd\L	.	2dd\	.	2ff#\	.
.	.	.	.	16dd\	.	16ff#\	.	.	.	.	.	.	.	.	.
.	.	.	.	16dd\	.	16ff#\	.	.	.	.	.	.	.	.	.
.	.	.	.	16dd\JJ	.	16ff#\JJ	.	16d/Jk	.	16dd\Jk	.	.	.	.	.
*	*	*	*	*	*	*2\right	*	*	*	*	*	*	*	*	*
4D\	.	4d\	.	16dd\LL	.	16ff#\LL	.	4d/	.	4dd\	.	.	.	.	.
.	.	.	.	16dd\	.	16ff#\	.	.	.	.	.	.	.	.	.
.	.	.	.	16dd\	.	16ff#\	.	.	.	.	.	.	.	.	.
.	.	.	.	16dd\	.	16ff#\	.	.	.	.	.	.	.	.	.
4C#/	.	4c#\	.	16dd\	.	16ff#\	.	4r	.	4r	.	4dd\	.	4ff#\	.
.	.	.	.	16dd\	.	16ff#\	.	.	.	.	.	.	.	.	.
.	.	.	.	16dd\	.	16ff#\	.	.	.	.	.	.	.	.	.
.	.	.	.	16dd\JJ	.	16ff#\JJ	.	.	.	.	.	.	.	.	.
=22	=22	=22	=22	=22	=22	=22	=22	=22	=22	=22	=22	=22	=22	=22	=22
4BB/	.	4B/	.	16ff#\LL	.	16ddd\LL	.	4d/	.	4dd\	.	4dd\	.	4ff#\	.
.	.	.	.	16ff#\	.	16ddd\	.	.	.	.	.	.	.	.	.
.	.	.	.	16ff#\	.	16ddd\	.	.	.	.	.	.	.	.	.
.	.	.	.	16ff#\	.	16ddd\	.	.	.	.	.	.	.	.	.
4r	.	4r	.	16ff#\	.	16ddd\	.	8.d/L	.	8.dd\L	.	2dd\	.	2ff#\	.
.	.	.	.	16ff#\	.	16ddd\	.	.	.	.	.	.	.	.	.
.	.	.	.	16ff#\	.	16ddd\	.	.	.	.	.	.	.	.	.
.	.	.	.	16ff#\JJ	.	16ddd\JJ	.	16d/Jk	.	16dd\Jk	.	.	.	.	.
4BB/	.	4B/	.	16ff#\LL	.	16ddd\LL	.	4d/	.	4dd\	.	.	.	.	.
.	.	.	.	16ff#\	.	16ddd\	.	.	.	.	.	.	.	.	.
.	.	.	.	16ff#\	.	16ddd\	.	.	.	.	.	.	.	.	.
.	.	.	.	16ff#\	.	16ddd\	.	.	.	.	.	.	.	.	.
4AA/	.	4A/	.	16ff#\	.	16ddd\	.	4r	.	4r	.	4dd\	.	4ff#\	.
.	.	.	.	16ff#\	.	16ddd\	.	.	.	.	.	.	.	.	.
.	.	.	.	16ff#\	.	16ddd\	.	.	.	.	.	.	.	.	.
.	.	.	.	16ff#\JJ	.	16ddd\JJ	.	.	.	.	.	.	.	.	.
!	!	!	!	!	!	!	!	!	!	!	!	!LO:LB:g=original	!	!	!
=23	=23	=23	=23	=23	=23	=23	=23	=23	=23	=23	=23	=23	=23	=23	=23
4GG#X/	.	4G#X/	.	16ee\LL	.	16ddd\LL	.	4d/	.	4dd\	.	1ee	.	(<1ddd	.
.	.	.	.	16ee\	.	16ddd\	.	.	.	.	.	.	.	.	.
.	.	.	.	16ee\	.	16ddd\	.	.	.	.	.	.	.	.	.
.	.	.	.	16ee\	.	16ddd\	.	.	.	.	.	.	.	.	.
4GG#/	.	4B/	.	16ee\	.	16ddd\	.	4d/	.	4dd\	.	.	.	.	.
.	.	.	.	16ee\	.	16ddd\	.	.	.	.	.	.	.	.	.
.	.	.	.	16ee\	.	16ddd\	.	.	.	.	.	.	.	.	.
.	.	.	.	16ee\JJ	.	16ddd\JJ	.	.	.	.	.	.	.	.	.
4GG#/	.	4B/	.	16ee\LL	.	16ddd\LL	.	4d/	.	4dd\	.	.	.	.	.
.	.	.	.	16ee\	.	16ddd\	.	.	.	.	.	.	.	.	.
.	.	.	.	16ee\	.	16ddd\	.	.	.	.	.	.	.	.	.
.	.	.	.	16ee\	.	16ddd\	.	.	.	.	.	.	.	.	.
4GG#/	.	4B/	.	16ee\	.	16ddd\	.	4d/	.	4dd\	.	.	.	.	.
.	.	.	.	16ee\	.	16ddd\	.	.	.	.	.	.	.	.	.
.	.	.	.	16ee\	.	16ddd\	.	.	.	.	.	.	.	.	.
.	.	.	.	16ee\JJ	.	16ddd\JJ	.	.	.	.	.	.	.	.	.
!	!	!LO:LB:g=original	!	!	!	!LO:LB:g=original	!	!	!	!	!	!	!	!LO:LB:g=original	!
=24	=24	=24	=24	=24	=24	=24	=24	=24	=24	=24	=24	=24	=24	=24	=24
*	*	*	*	*	*	*	*	*2\right	*	*2\right	*	*	*	*	*
4.AA/	.	4.A/	.	16ee\LL	.	16ccc#\LL	.	2a\	.	2ee\	.	2ee\	.	2ccc#\)	.
.	.	.	.	16ee\	.	16ccc#\	.	.	.	.	.	.	.	.	.
.	.	.	.	16ee\	.	16ccc#\	.	.	.	.	.	.	.	.	.
.	.	.	.	16ee\	.	16ccc#\	.	.	.	.	.	.	.	.	.
.	.	.	.	16ee\	.	16ccc#\	.	.	.	.	.	.	.	.	.
.	.	.	.	16ee\	.	16ccc#\	.	.	.	.	.	.	.	.	.
8A\	.	8a\	.	16ee\	.	16ccc#\	.	.	.	.	.	.	.	.	.
.	.	.	.	16ee\JJ	.	16ccc#\JJ	.	.	.	.	.	.	.	.	.
!LO:LB:g=original	!	!	!	!	!	!	!	!	!	!	!	!	!	!	!
8F#\L	.	8dd\L	.	16ff#\LL	.	16ddd\LL	.	2dd\	.	2ff#\	.	2ff#\	.	2ddd\	.
.	.	.	.	16ff#\	.	16ddd\	.	.	.	.	.	.	.	.	.
8A\	.	8a\	.	16ff#\	.	16ddd\	.	.	.	.	.	.	.	.	.
.	.	.	.	16ff#\	.	16ddd\	.	.	.	.	.	.	.	.	.
8F#\	.	8f#\	.	16ff#\	.	16ddd\	.	.	.	.	.	.	.	.	.
.	.	.	.	16ff#\	.	16ddd\	.	.	.	.	.	.	.	.	.
8D\J	.	8d\J	.	16ff#\	.	16ddd\	.	.	.	.	.	.	.	.	.
.	.	.	.	16ff#\JJ	.	16ddd\JJ	.	.	.	.	.	.	.	.	.
=25	=25	=25	=25	=25	=25	=25	=25	=25	=25	=25	=25	=25	=25	=25	=25
4.AA/	.	4.A/	.	16ee\LL	.	16ccc#\LL	.	2a\	.	2ee\	.	2ee\	.	2ccc#\	.
.	.	.	.	16ee\	.	16ccc#\	.	.	.	.	.	.	.	.	.
.	.	.	.	16ee\	.	16ccc#\	.	.	.	.	.	.	.	.	.
.	.	.	.	16ee\	.	16ccc#\	.	.	.	.	.	.	.	.	.
.	.	.	.	16ee\	.	16ccc#\	.	.	.	.	.	.	.	.	.
.	.	.	.	16ee\	.	16ccc#\	.	.	.	.	.	.	.	.	.
8A\	.	8a\	.	16ee\	.	16ccc#\	.	.	.	.	.	.	.	.	.
.	.	.	.	16ee\JJ	.	16ccc#\JJ	.	.	.	.	.	.	.	.	.
8F#\L	.	8dd\L	.	16ff#\LL	.	16ddd\LL	.	2dd\	.	2ff#\	.	2ff#\	.	2ddd\	.
.	.	.	.	16ff#\	.	16ddd\	.	.	.	.	.	.	.	.	.
8A\	.	8a\	.	16ff#\	.	16ddd\	.	.	.	.	.	.	.	.	.
.	.	.	.	16ff#\	.	16ddd\	.	.	.	.	.	.	.	.	.
8F#\	.	8f#\	.	16ff#\	.	16ddd\	.	.	.	.	.	.	.	.	.
.	.	.	.	16ff#\	.	16ddd\	.	.	.	.	.	.	.	.	.
8D\J	.	8d\J	.	16ff#\	.	16ddd\	.	.	.	.	.	.	.	.	.
.	.	.	.	16ff#\JJ	.	16ddd\JJ	.	.	.	.	.	.	.	.	.
*	*	*Xtremolo	*	*Xtremolo	*	*Xtremolo	*	*	*	*	*	*	*	*	*
=26	=26	=26	=26	=26	=26	=26	=26	=26	=26	=26	=26	=26	=26	=26	=26
!LO:TX:a:t=problem:mixed beam	!	!LO:TX:a:t=problem:mixed beam	!	!	!	!	!	!	!	!	!	!	!	!	!
8AA/L	.	8A/L	.	4a\ 4ee	.	4ccc#\	.	4a/	.	4ee\	.	4ee\	.	4ccc#\	.
8A\	.	8a\	.	.	.	.	.	.	.	.	.	.	.	.	.
8E\	.	8e\	.	4a\ 4ee	.	4ccc#\	.	4a/	.	4ee\	.	4ee\	.	4ccc#\	.
8C#\J	.	8c#\J	.	.	.	.	.	.	.	.	.	.	.	.	.
4AA/	.	4A/	.	4a\ 4ee	.	4ccc#\	.	4a/	.	4ee\	.	4ee\	.	4ccc#\	.
4r	.	4r	.	4r	.	4r	.	4r	.	4r	.	4r	.	4r	.
!	!	!	!	!LO:LB:g=original	!	!	!	!LO:LB:g=original	!	!	!	!	!	!	!
=27	=27	=27	=27	=27	=27	=27	=27	=27	=27	=27	=27	=27	=27	=27	=27
!LO:TX:a:t=6	!	!	!	!LO:TX:b:t=dolce	!	!LO:TX:b:t=dolce	!	!LO:TX:a:t=21	!	!LO:TX:a:t=21	!	!LO:TX:a:t=10	!	!LO:TX:a:t=10	!
00r	.	8a\L	p	4cc#\	.	4ee\	.	00r	.	00r	.	00r	.	00r	.
.	.	8a\	.	.	.	.	.	.	.	.	.	.	.	.	.
.	.	8a\	.	2cc#\	.	2ee\	.	.	.	.	.	.	.	.	.
.	.	8a\J	.	.	.	.	.	.	.	.	.	.	.	.	.
*	*	*tremolo	*	*	*	*	*	*	*	*	*	*	*	*	*
.	.	8a\L	.	.	.	.	.	.	.	.	.	.	.	.	.
.	.	8a\	.	.	.	.	.	.	.	.	.	.	.	.	.
!	!	!	!	!	!LO:DY:t=p:	!	!	!	!	!	!	!	!	!	!
.	.	8a\	.	(8dd\L	p	8ff#\L	.	.	.	.	.	.	.	.	.
.	.	8a\J	.	8b\J)	.	8dd\J	.	.	.	.	.	.	.	.	.
=28	=28	=28	=28	=28	=28	=28	=28	=28	=28	=28	=28	=28	=28	=28	=28
.	.	8a\L	.	(8b/L	.	8dd\L	p	.	.	.	.	.	.	.	.
.	.	8a\	.	8a/J)	.	8cc#\J	.	.	.	.	.	.	.	.	.
.	.	8a\	.	2a/	.	2cc#\	.	.	.	.	.	.	.	.	.
.	.	8a\J	.	.	.	.	.	.	.	.	.	.	.	.	.
.	.	8a\L	.	.	.	.	.	.	.	.	.	.	.	.	.
.	.	8a\	.	.	.	.	.	.	.	.	.	.	.	.	.
.	.	8a\	.	(8e/L	.	8aa\L	.	.	.	.	.	.	.	.	.
.	.	8a\J	.	8a/J)	.	8cc#\J	.	.	.	.	.	.	.	.	.
=29	=29	=29	=29	=29	=29	=29	=29	=29	=29	=29	=29	=29	=29	=29	=29
.	.	8e\L	.	8a/L	.	8cc#\L	.	.	.	.	.	.	.	.	.
.	.	8e\	.	8g#X/J	.	8b\J	.	.	.	.	.	.	.	.	.
.	.	8e\	.	2g#/	.	2b\	.	.	.	.	.	.	.	.	.
.	.	8e\J	.	.	.	.	.	.	.	.	.	.	.	.	.
.	.	8e\L	.	.	.	.	.	.	.	.	.	.	.	.	.
.	.	8e\	.	.	.	.	.	.	.	.	.	.	.	.	.
.	.	8e\	.	(8cc#\L	.	8ee\L	.	.	.	.	.	.	.	.	.
.	.	8e\J	.	8b\J)	.	8dd\J	.	.	.	.	.	.	.	.	.
=30	=30	=30	=30	=30	=30	=30	=30	=30	=30	=30	=30	=30	=30	=30	=30
.	.	8a\L	.	8b\L	.	(8dd\L	.	.	.	.	.	.	.	.	.
.	.	8a\	.	8a\J	.	8cc#\J)	.	.	.	.	.	.	.	.	.
.	.	8a\	.	4.a\	.	4.cc#\	.	.	.	.	.	.	.	.	.
.	.	8a\J	.	.	.	.	.	.	.	.	.	.	.	.	.
.	.	8a\L	.	.	.	.	.	.	.	.	.	.	.	.	.
.	.	8a\	.	8cc#\	.	8ee\	.	.	.	.	.	.	.	.	.
.	.	8a\	.	16dd\L	.	(16ff#\LL	.	.	.	.	.	.	.	.	.
.	.	.	.	16cc#\	.	16ee\	.	.	.	.	.	.	.	.	.
.	.	8a\J	.	16b\	.	16dd\	.	.	.	.	.	.	.	.	.
.	.	.	.	16a\J	.	16cc#\JJ)	.	.	.	.	.	.	.	.	.
!	!	!	!	!	!	!LO:LB:g=original	!	!	!	!	!	!	!	!	!
=31	=31	=31	=31	=31	=31	=31	=31	=31	=31	=31	=31	=31	=31	=31	=31
0r	.	8e\L	.	4a/	.	4cc#\	.	00r	.	00r	.	00r	.	00r	.
.	.	8e\	.	.	.	.	.	.	.	.	.	.	.	.	.
.	.	8e\	.	8g#X/L	.	8b\L	.	.	.	.	.	.	.	.	.
.	.	8e\J	.	8f#/J	.	8a\J	.	.	.	.	.	.	.	.	.
.	.	8e\L	.	8e/L	.	8g#X'/L	.	.	.	.	.	.	.	.	.
.	.	8e\	.	8f#/	.	8a'/	.	.	.	.	.	.	.	.	.
.	.	8e\	.	8g#/	.	8b'/	.	.	.	.	.	.	.	.	.
.	.	8e\J	.	8a/J	.	8cc#'/J	.	.	.	.	.	.	.	.	.
!	!	!LO:LB:g=original	!	!	!	!	!	!	!	!	!	!	!	!	!
=32	=32	=32	=32	=32	=32	=32	=32	=32	=32	=32	=32	=32	=32	=32	=32
*	*	*	*	*^	*	*	*	*	*	*	*	*	*	*	*
.	.	8r	.	(2b/	2e\	.	(2dd\	.	.	.	.	.	.	.	.	.
.	.	8e\L	.	.	.	.	.	.	.	.	.	.	.	.	.	.
.	.	8f#\	.	.	.	.	.	.	.	.	.	.	.	.	.	.
.	.	8g#X\J	.	.	.	.	.	.	.	.	.	.	.	.	.	.
.	.	8a\L	.	4a/)	2ryy	.	4cc#\)	.	.	.	.	.	.	.	.	.
.	.	8e\	.	.	.	.	.	.	.	.	.	.	.	.	.	.
.	.	8c#\	.	4r	.	.	4r	.	.	.	.	.	.	.	.	.
.	.	8A\J	.	.	.	.	.	.	.	.	.	.	.	.	.	.
*	*	*	*	*v	*v	*	*	*	*	*	*	*	*	*	*	*
!	!	!	!	!LO:LB:g=original	!	!	!	!	!	!	!	!	!	!	!
=33	=33	=33	=33	=33	=33	=33	=33	=33	=33	=33	=33	=33	=33	=33	=33
(2D\	p	(2d\	.	(2f#/	.	8r	.	.	.	.	.	.	.	.	.
.	.	.	.	.	.	(8bn\L	.	.	.	.	.	.	.	.	.
.	.	.	.	.	.	8a#X\	.	.	.	.	.	.	.	.	.
.	.	.	.	.	.	8b\J)	.	.	.	.	.	.	.	.	.
2C#X/	.	2c#\	.	2e/)	.	(4b\	.	.	.	.	.	.	.	.	.
.	.	.	.	.	.	4an\)	.	.	.	.	.	.	.	.	.
=34	=34	=34	=34	=34	=34	=34	=34	=34	=34	=34	=34	=34	=34	=34	=34
2G#X\	.	2g#X\	.	(<1e	.	8r	.	.	.	.	.	.	.	.	.
.	.	.	.	.	.	(8dd\L	.	.	.	.	.	.	.	.	.
.	.	.	.	.	.	8cc#\	.	.	.	.	.	.	.	.	.
.	.	.	.	.	.	8dd\J)	.	.	.	.	.	.	.	.	.
2A\)	.	2a\)	.	.	.	4dd\	.	.	.	.	.	.	.	.	.
.	.	.	.	.	.	4cc#\	.	.	.	.	.	.	.	.	.
=35	=35	=35	=35	=35	=35	=35	=35	=35	=35	=35	=35	=35	=35	=35	=35
4A\	.	4a\	.	(8dd\L)	.	(8ff#\L	.	00r	.	00r	.	0r	.	0r	.
.	.	.	.	8cc#\)	.	8ee\	.	.	.	.	.	.	.	.	.
4r	.	4r	.	8b'\	.	8dd\	.	.	.	.	.	.	.	.	.
.	.	.	.	8a'\J	.	8cc#\J)	.	.	.	.	.	.	.	.	.
4AA/	.	4a\	.	(8dd\L	.	(8ff#\L	.	.	.	.	.	.	.	.	.
.	.	.	.	8cc#\)	.	8ee\	.	.	.	.	.	.	.	.	.
4r	.	4r	.	8b\	.	8dd\	.	.	.	.	.	.	.	.	.
.	.	.	.	8a\J	.	8cc#\J)	.	.	.	.	.	.	.	.	.
=36	=36	=36	=36	=36	=36	=36	=36	=36	=36	=36	=36	=36	=36	=36	=36
8r	.	8r	.	2a/	.	(2cc#\	.	.	.	.	.	.	.	.	.
(8E\L	.	(8e\L	.	.	.	.	.	.	.	.	.	.	.	.	.
8G#X\	.	8g#X\	.	.	.	.	.	.	.	.	.	.	.	.	.
8B\J	.	8b\J	.	.	.	.	.	.	.	.	.	.	.	.	.
8e\L	.	8ee\L	.	4g#X/	.	4b\)	.	.	.	.	.	.	.	.	.
8dn\	.	8ddn\	.	.	.	.	.	.	.	.	.	.	.	.	.
8c#\	.	8cc#\	.	4r	.	4r	.	.	.	.	.	.	.	.	.
8B\J)	.	8b\J)	.	.	.	.	.	.	.	.	.	.	.	.	.
!LO:LB:g=original	!	!	!	!	!	!LO:LB:g=original	!	!	!	!	!	!	!	!	!
=37	=37	=37	=37	=37	=37	=37	=37	=37	=37	=37	=37	=37	=37	=37	=37
!	!	!	!LO:DY:t=p	!	!	!	!	!	!	!	!	!LO:TX:b:t=dolce	!	!LO:TX:b:t=dolce	!
8A\L	p	8a\L	p	4c#/	pp	4e/	pp	.	.	.	.	4cc#\	.	4ee\	.
8A\	.	8a\	.	.	.	.	.	.	.	.	.	.	.	.	.
8A\	.	8a\	.	2c#/	.	2e/	.	.	.	.	.	2cc#\	.	2ee\	.
8A\J	.	8a\J	.	.	.	.	.	.	.	.	.	.	.	.	.
8A\L	.	8a\L	.	.	.	.	.	.	.	.	.	.	.	.	.
8A\	.	8a\	.	.	.	.	.	.	.	.	.	.	.	.	.
8A\	.	8a\	.	8d/L	.	8f#/L	.	.	.	.	.	8dd\L	.	8ff#\L	.
8A\J	.	8a\J	.	8B/J	.	8d/J	.	.	.	.	.	8b\J	.	8dd\J	.
=38	=38	=38	=38	=38	=38	=38	=38	=38	=38	=38	=38	=38	=38	=38	=38
8AA/L	.	8a\L	.	8B/L	.	8d/L	.	.	.	.	.	8b/L	.	8dd\L	.
8AA/	.	8a\	.	8A/J	.	8c#/J	.	.	.	.	.	8a/J	.	8cc#\J	.
8AA/	.	8a\	.	2A/	.	2c#/	.	.	.	.	.	2a/	.	2cc#\	.
8AA/J	.	8a\J	.	.	.	.	.	.	.	.	.	.	.	.	.
8AA/L	.	8a\L	.	.	.	.	.	.	.	.	.	.	.	.	.
8AA/	.	8a\	.	.	.	.	.	.	.	.	.	.	.	.	.
8AA/	.	8a\	.	4A/	.	8a/L	.	.	.	.	.	4a/	.	8aa\L	.
8AA/J	.	8a\J	.	.	.	8c#/J	.	.	.	.	.	.	.	8cc#\J	.
!	!	!LO:LB:g=original	!	!	!	!	!	!	!	!	!	!	!	!	!
=39	=39	=39	=39	=39	=39	=39	=39	=39	=39	=39	=39	=39	=39	=39	=39
.	.	.	.	.	.	.	.	.	.	.	.	.	.	8qqdd/	.
8E\L	.	8e\L	.	(8A/L	.	(8c#/L	.	00r	.	00r	.	8a/L	.	(8cc#\L	.
8E\	.	8e\	.	8G#X/J)	.	8B/J)	.	.	.	.	.	8g#X/J	.	8b\J	.
8E\	.	8e\	.	2G#/	.	2B/	.	.	.	.	.	2g#/	.	2b\)	.
8E\J	.	8e\J	.	.	.	.	.	.	.	.	.	.	.	.	.
8E\L	.	8e\L	.	.	.	.	.	.	.	.	.	.	.	.	.
8E\	.	8e\	.	.	.	.	.	.	.	.	.	.	.	.	.
8E\	.	8e\	.	8c#/L	.	(8e/L	.	.	.	.	.	4b/	.	8ee\L	.
8E\J	.	8e\J	.	8B/J	.	8d/J)	.	.	.	.	.	.	.	8dd\J	.
!	!	!	!	!LO:LB:g=original	!	!	!	!	!	!	!	!	!	!	!
=40	=40	=40	=40	=40	=40	=40	=40	=40	=40	=40	=40	=40	=40	=40	=40
.	.	.	.	8qqB/	.	8qqd/	.	.	.	.	.	8qqb/	.	8qqdd/	.
8AA/L	.	8A/L	.	4A/	.	4c#/	.	.	.	.	.	4a/	.	4cc#\	.
8AA/	.	8A/	.	.	.	.	.	.	.	.	.	.	.	.	.
8AA/	.	8A/	.	4.A/	.	4.c#/	.	.	.	.	.	4.a/	.	4.cc#\	.
8AA/J	.	8A/J	.	.	.	.	.	.	.	.	.	.	.	.	.
8A\L	.	8a\L	.	.	.	.	.	.	.	.	.	.	.	.	.
8A\	.	8a\	.	8c#/	.	8e/	.	.	.	.	.	8cc#\	.	8ee\	.
!	!	!	!	!	!	!	!	!	!	!	!	!LO:LB:g=original	!	!	!
8A\	.	8a\	.	16d/LL	.	16f#/LL	.	.	.	.	.	16dd\LL	.	(16ff#\LL	.
.	.	.	.	16c#/	.	16e/	.	.	.	.	.	16cc#\	.	16ee\	.
8A\J	.	8a\J	.	16B/	.	16d/	.	.	.	.	.	16b\	.	16dd\	.
.	.	.	.	16A/JJ	.	16c#/JJ	.	.	.	.	.	16a\JJ	.	16cc#\JJ)	.
!	!	!	!	!	!	!	!	!	!	!	!	!	!	!LO:LB:g=original	!
=41	=41	=41	=41	=41	=41	=41	=41	=41	=41	=41	=41	=41	=41	=41	=41
8E\L	.	8e\L	.	8A/L	.	(8c#/L	.	.	.	.	.	8a/L	.	8cc#\L	.
8E\	.	8e\	.	8G#X/J	.	8B/J)	.	.	.	.	.	8g#X/J	.	8b\J	.
8E\	.	8e\	.	4.G#/	.	4.B/	.	.	.	.	.	4.g#/	.	4.b\	.
8E\J	.	8e\J	.	.	.	.	.	.	.	.	.	.	.	.	.
8EE/L	.	8e\L	.	.	.	.	.	.	.	.	.	.	.	.	.
8EE/	.	8e\	.	(8A/L	.	8c#'/L	.	.	.	.	.	8a/L	.	8cc#\L	.
8EE/	.	8e\	.	8B/	.	8d'/	.	.	.	.	.	8b/	.	8dd\	.
8EE/J	.	8e\J	.	8c#/J)	.	8e'/J	.	.	.	.	.	8cc#/J	.	8ee\J	.
=42	=42	=42	=42	=42	=42	=42	=42	=42	=42	=42	=42	=42	=42	=42	=42
8AA/L	.	[2e\	.	(2B/	.	2d/	.	.	.	.	.	2b\	.	2dd\	.
8AA/	.	.	.	.	.	.	.	.	.	.	.	.	.	.	.
8C#/	.	.	.	.	.	.	.	.	.	.	.	.	.	.	.
8E/J	.	.	.	.	.	.	.	.	.	.	.	.	.	.	.
4A\	.	4e\]	.	8A/L)	.	8c#`/L	.	.	.	.	.	4a/	.	4cc#\	.
.	.	.	.	(8A/	.	(8c#/	.	.	.	.	.	.	.	.	.
4r	.	4r	.	8B/	.	8d/	.	.	.	.	.	4r	.	4r	.
.	.	.	.	8c#/J)	.	8e/J)	.	.	.	.	.	.	.	.	.
!	!	!	!	!	!	!LO:LB:g=original	!	!	!	!	!	!	!	!	!
=43	=43	=43	=43	=43	=43	=43	=43	=43	=43	=43	=43	=43	=43	=43	=43
!	!	!	!	!	!	!	!	!	!	!	!	!	!	!	!LO:DY:t=p
4A\	.	4a\	.	(8c#/L	.	(8e#X/L	.	00r	.	00r	.	(8cc#X\L	.	(8ee#X\L	p
.	.	.	.	8d/)	.	8f#/)	.	.	.	.	.	8dd\)	.	8ff#\)	.
4r	.	4r	.	8d'/	.	8f#'/	.	.	.	.	.	8dd'\	.	8ff#'\	.
.	.	.	.	8d'/J	.	8f#'/J	.	.	.	.	.	8dd'\J	.	8ff#'\J	.
4AA/	.	4A/	.	(8d/L	.	8f#/L	.	.	.	.	.	(8dd\L	.	(8ff#\L	.
.	.	.	.	8c#/)	.	8en/	.	.	.	.	.	8cc#\)	.	8een\)	.
4r	.	4r	.	8c#'/	.	8e'/	.	.	.	.	.	8cc#'\	.	8ee'\	.
.	.	.	.	8c#'/J	.	8e'/J	.	.	.	.	.	8cc#'\J	.	8ee'\J	.
=44	=44	=44	=44	=44	=44	=44	=44	=44	=44	=44	=44	=44	=44	=44	=44
4A\	.	4g\	.	(8A#X/L	.	(8c#/L	.	.	.	.	.	(8a#X/L	.	(8cc#X\L	.
.	.	.	.	8B/)	.	8d/)	.	.	.	.	.	8b/)	.	8dd\)	.
4r	.	4r	.	8B'/	.	8d'/	.	.	.	.	.	8b'/	.	8dd'\	.
.	.	.	.	8B'/J	.	8d'/J	.	.	.	.	.	8b'/J	.	8dd'\J	.
!	!	!	!	!LO:LB:g=original	!	!	!	!	!	!	!	!	!	!	!
4AA/	.	4G/	.	(8B/L	.	(8d/L	.	.	.	.	.	(8b/L	.	(8dd\L	.
.	.	.	.	8An/)	.	8c#/)	.	.	.	.	.	8an/)	.	8cc#\)	.
4r	.	4r	.	8A'/	.	8c#'/	.	.	.	.	.	8a'/	.	8cc#'\	.
.	.	.	.	8A'/J	.	8c#'/J	.	.	.	.	.	8a'/J	.	8cc#'\J	.
=45	=45	=45	=45	=45	=45	=45	=45	=45	=45	=45	=45	=45	=45	=45	=45
8D\L	.	8d\L	.	4d/	.	4f#/	.	.	.	.	.	4dd\	.	4ff#\	.
8D\	.	8d\	.	.	.	.	.	.	.	.	.	.	.	.	.
8D\	.	8d\	.	4.d/	.	(4.f#/	.	.	.	.	.	4.dd\	.	4.ff#\	.
8D\J	.	8d\J	.	.	.	.	.	.	.	.	.	.	.	.	.
8D\L	.	8d\L	.	.	.	.	.	.	.	.	.	.	.	.	.
8D\	.	8d\	.	(8e/L	.	8g#X/L	.	.	.	.	.	8ee\L	.	8gg#X\L	.
8D\	.	8d\	.	8f#/	.	8a/	.	.	.	.	.	8ff#\	.	8aa\	.
8D\J	.	8d\J	.	8d/J)	.	8f#/J)	.	.	.	.	.	8dd\J	.	8ff#\J	.
=46	=46	=46	=46	=46	=46	=46	=46	=46	=46	=46	=46	=46	=46	=46	=46
.	.	.	.	8qqd/	.	8qqf#/	.	.	.	.	.	8qqdd/	.	8qqff#/	.
8AA/L	.	8A/L	.	4c#/	.	4e/	.	.	.	.	.	4cc#\	.	4ee\	.
8AA/	.	8A/	.	.	.	.	.	.	.	.	.	.	.	.	.
8AA/	.	8A/	.	4.c#/	.	(4.e/	.	.	.	.	.	4.cc#\	.	4.ee\	.
8AA/J	.	8A/J	.	.	.	.	.	.	.	.	.	.	.	.	.
4A\	.	4a\	.	.	.	.	.	.	.	.	.	.	.	.	.
.	.	.	.	8d/L	.	8f#/L	.	.	.	.	.	8dd\L	.	8ff#\L	.
4r	.	4r	.	8B/	.	8g#X/	.	.	.	.	.	8b\	.	8gg#X\	.
.	.	.	.	8c#/J	.	8a/J)	.	.	.	.	.	8cc#\J	.	8aa\J	.
!LO:LB:g=original	!	!	!	!	!	!	!	!	!	!	!	!LO:LB:g=original	!	!LO:LB:g=original	!
=47	=47	=47	=47	=47	=47	=47	=47	=47	=47	=47	=47	=47	=47	=47	=47
4r	.	4r	.	8d/L	.	8f#/L	.	1r	.	1r	.	8dd\L	.	8ff#`\L	.
.	.	.	.	8f#/	.	8a/	.	.	.	.	.	8ff#\	.	8aa`\	.
4D\	.	4d\	.	8e/	.	8g#X/	.	.	.	.	.	8ee\	.	8gg#X`\	.
.	.	.	.	8d/J	.	8f#/J	.	.	.	.	.	8dd\J	.	8ff#`\J	.
4E\	.	4e\	.	8c#/L	.	8e/L	.	.	.	.	.	8cc#\L	.	8ee`\L	.
.	.	.	.	8B/	.	8d/	.	.	.	.	.	8b\	.	8dd`\	.
4EE/	.	4E/	.	8A/	.	8c#/	.	.	.	.	.	8a\	.	8cc#`\	.
.	.	.	.	8G#X/J	.	8B/J	.	.	.	.	.	8g#X\J	.	8b`\J	.
!	!	!LO:LB:g=original	!	!	!	!LO:LB:g=original	!	!	!	!LO:LB:g=original	!	!	!	!	!
=48	=48	=48	=48	=48	=48	=48	=48	=48	=48	=48	=48	=48	=48	=48	=48
!	!LO:HP:t=cre	!	!LO:HP:t=crescen	!	!	!	!LO:HP:t=crescendo	!	!	!	!	!	!	!	!
8AA/L	<	8A/L	<	8A/	.	8A/L	<	[1a	<	[<1aa	<	4a/	.	4a/	.
8AA/	.	8A/	.	8r	.	8A/	.	.	.	.	.	.	.	.	.
8AA/	.	8A/	.	4r	.	8B/	.	.	.	.	.	4r	.	4r	.
8AA/J	.	8A/J	.	.	.	8B/J	.	.	.	.	.	.	.	.	.
8AA/L	.	8A/L	.	2r	.	8c#/L	.	.	.	.	.	2r	.	2r	.
8AA/	.	8A/	.	.	.	8c#/	.	.	.	.	.	.	.	.	.
8AA/	.	8A/	.	.	.	8A/	.	.	.	.	.	.	.	.	.
8AA/J	.	8A/J	.	.	.	8A/J	.	.	.	.	.	.	.	.	.
=49	=49	=49	=49	=49	=49	=49	=49	=49	=49	=49	=49	=49	=49	=49	=49
!	!	!	!	!	!	!	!	!	!	!	!	!LO:TX:a:t=1	!	!LO:TX:a:t=1	!
8AA/L	.	8A/L	.	8G#'/L	<	8B/L	.	1a_	.	1aa_<	.	1r	.	1r	.
8AA/	.	8A/	.	8G#'/	.	8B/	.	.	.	.	.	.	.	.	.
8AA/	.	8A/	.	8A'/	.	8c#/	.	.	.	.	.	.	.	.	.
8AA/J	.	8A/J	.	8A'/J	.	8c#/J	.	.	.	.	.	.	.	.	.
!	!	!	!	!LO:LB:g=original	!	!	!	!	!	!	!	!	!	!	!
8AA/L	.	8A/L	.	8B/L	.	8d/L	.	.	.	.	.	.	.	.	.
8AA/	.	8A/	.	8B/	.	8d/	.	.	.	.	.	.	.	.	.
8AA/	.	8A/	.	8G#X/	.	8B/	.	.	.	.	.	.	.	.	.
8AA/J	.	8A/J	.	8G#/J	.	8B/J	.	.	.	.	.	.	.	.	.
=50	=50	=50	=50	=50	=50	=50	=50	=50	=50	=50	=50	=50	=50	=50	=50
*	*	*	*	*tremolo	*	*	*	*	*	*	*	*	*	*	*
!	!	!	!	!	!	!	!LO:DY:t=rinfor	!	!	!	!	!	!	!	!
8A\L	.	8a\L	.	16A/LL	.	16c#/LL	rf	1a_	.	1aa_<	.	4a/	f	4cc#\	f
.	.	.	.	16A/	.	16c#/	.	.	.	.	.	.	.	.	.
8A\	.	8a\	.	16A/	.	16c#/	.	.	.	.	.	.	.	.	.
.	.	.	.	16A/JJ	.	16c#/JJ	.	.	.	.	.	.	.	.	.
*	*	*	*	*	*	*tremolo	*	*	*	*	*	*	*	*	*
!	!	!	!LO:DY:t=rinfor	!	!LO:DY:t=rinfor	!	!	!	!	!	!	!	!	!	!
8A\	.	8a\	rf	16B/LL	rf	16d/LL	.	.	.	.	.	4b/	.	4dd\	.
.	.	.	.	16B/	.	16d/	.	.	.	.	.	.	.	.	.
8A\J	.	8a\J	.	16B/	.	16d/	.	.	.	.	.	.	.	.	.
.	.	.	.	16B/JJ	.	16d/JJ	.	.	.	.	.	.	.	.	.
8A\L	.	8a\L	.	16c#/LL	.	16e/LL	.	.	.	.	.	4cc#/	.	4ee\	.
.	.	.	.	16c#/	.	16e/	.	.	.	.	.	.	.	.	.
8A\	.	8a\	.	16c#/	.	16e/	.	.	.	.	.	.	.	.	.
.	.	.	.	16c#/JJ	.	16e/JJ	.	.	.	.	.	.	.	.	.
8A\	.	8a\	.	16A/LL	.	16c#/LL	.	.	.	.	.	4a/	.	4cc#\	.
.	.	.	.	16A/	.	16c#/	.	.	.	.	.	.	.	.	.
8A\J	.	8a\J	.	16A/	.	16c#/	.	.	.	.	.	.	.	.	.
.	.	.	.	16A/JJ	.	16c#/JJ	.	.	.	.	.	.	.	.	.
=51	=51	=51	=51	=51	=51	=51	=51	=51	=51	=51	=51	=51	=51	=51	=51
8A\L	.	8a\L	.	16B/LL	.	16d/LL	.	1a]	.	1aa_<	.	4b\	.	4dd\	.
.	.	.	.	16B/	.	16d/	.	.	.	.	.	.	.	.	.
8A\	.	8a\	.	16B/	.	16d/	.	.	.	.	.	.	.	.	.
.	.	.	.	16B/JJ	.	16d/JJ	.	.	.	.	.	.	.	.	.
8A\	.	8a\	.	16c#/LL	.	16e/LL	.	.	.	.	.	4cc#\	.	4ee\	.
.	.	.	.	16c#/	.	16e/	.	.	.	.	.	.	.	.	.
8A\J	.	8a\J	.	16c#/	.	16e/	.	.	.	.	.	.	.	.	.
.	.	.	.	16c#/JJ	.	16e/JJ	.	.	.	.	.	.	.	.	.
8A\L	.	8a\L	.	16d/LL	.	16f#/LL	.	.	.	.	.	4dd\	.	4ff#\	.
.	.	.	.	16d/	.	16f#/	.	.	.	.	.	.	.	.	.
8A\	.	8a\	.	16d/	.	16f#/	.	.	.	.	.	.	.	.	.
.	.	.	.	16d/JJ	.	16f#/JJ	.	.	.	.	.	.	.	.	.
8A\	.	8a\	.	16B/LL	.	16g#X/LL	.	.	.	.	.	4b\	.	4gg#X\	.
.	.	.	.	16B/	.	16g#/	.	.	.	.	.	.	.	.	.
8A\J	.	8a\J	.	16B/	.	16g#/	.	.	.	.	.	.	.	.	.
.	.	.	.	16B/JJ	.	16g#/JJ	.	.	.	.	.	.	.	.	.
!	!	!	!	!	!	!LO:LB:g=original	!	!	!	!	!	!	!	!	!
*	*	*	*	*Xtremolo	*	*	*	*	*	*	*	*	*	*	*
=52	=52	=52	=52	=52	=52	=52	=52	=52	=52	=52	=52	=52	=52	=52	=52
!	!	!	!LO:DY:t=fortiſ	!	!LO:DY:t=fortiſ	!	!LO:LB:g=original	!	!	!	!	!	!	!	!
2A\	.	16a\LL	ff	16c#/LL	ff	8a/L	ff	[1a	f	1aa_<	f	4cc#\	.	4aa\	.
.	.	16a\	.	16e/	.	.	.	.	.	.	.	.	.	.	.
.	.	16a\	.	16c#/	.	16b/L	.	.	.	.	.	.	.	.	.
.	.	16a\	.	16e/JJ	.	16cc#/JJ	.	.	.	.	.	.	.	.	.
.	.	16a\	.	16c#/LL	.	16dd\LL	.	.	.	.	.	4r	.	4r	.
.	.	16a\	.	16e/	.	16ee\	.	.	.	.	.	.	.	.	.
.	.	16a\	.	16c#/	.	16ff#\	.	.	.	.	.	.	.	.	.
.	.	16a\JJ	.	16e/JJ	.	16gg#X\JJ	.	.	.	.	.	.	.	.	.
*	*	*	*	*tremolo	*	*	*	*	*	*	*	*	*	*	*
!	!	!	!	!	!	!	!	!	!	!	!	!	!LO:DY:t=fortiſ	!	!LO:DY:t=fortiſ
2r	.	16a\LL	.	16c#/LL	.	16aa\LL	.	.	.	.	.	2cc#\	ff	2aa\	ff
.	.	16a\	.	16e/	.	16gg#\	.	.	.	.	.	.	.	.	.
.	.	16a\	.	16c#/	.	16ff#\	.	.	.	.	.	.	.	.	.
.	.	16a\	.	16e/	.	16ee\JJ	.	.	.	.	.	.	.	.	.
.	.	16a\	.	16c#/	.	16dd\LL	.	.	.	.	.	.	.	.	.
.	.	16a\	.	16e/	.	16cc#\	.	.	.	.	.	.	.	.	.
.	.	16a\	.	16c#/	.	16b\	.	.	.	.	.	.	.	.	.
.	.	16a\JJ	.	16e/JJ	.	16a\JJ	.	.	.	.	.	.	.	.	.
=53	=53	=53	=53	=53	=53	=53	=53	=53	=53	=53	=53	=53	=53	=53	=53
!	!LO:DY:t=fort	!	!	!	!	!	!	!	!	!	!	!	!	!	!
8D\L	f	16a\LL	.	16d/LL	.	2f#/	.	1a]	.	(<1aa]	.	1dd	.	1ff#	.
.	.	16a\	.	16f#/	.	.	.	.	.	.	.	.	.	.	.
16E\L	.	16a\	.	16d/	.	.	.	.	.	.	.	.	.	.	.
16F#\JJ	.	16a\	.	16f#/	.	.	.	.	.	.	.	.	.	.	.
16G\LL	.	16a\	.	16d/	.	.	.	.	.	.	.	.	.	.	.
16An\	.	16a\	.	16f#/	.	.	.	.	.	.	.	.	.	.	.
16B\	.	16a\	.	16d/	.	.	.	.	.	.	.	.	.	.	.
16c#\JJ	.	16a\JJ	.	16f#/JJ	.	.	.	.	.	.	.	.	.	.	.
8d\L	.	16a\LL	.	16d/LL	.	2ff#\	.	.	.	.	.	.	.	.	.
.	.	16a\	.	16f#/	.	.	.	.	.	.	.	.	.	.	.
8A\	.	16a\	.	16d/	.	.	.	.	.	.	.	.	.	.	.
.	.	16a\	.	16f#/	.	.	.	.	.	.	.	.	.	.	.
8F#\	.	16a\	.	16d/	.	.	.	.	.	.	.	.	.	.	.
.	.	16a\	.	16f#/	.	.	.	.	.	.	.	.	.	.	.
8D\J	.	16a\	.	16d/	.	.	.	.	.	.	.	.	.	.	.
.	.	16a\JJ	.	16f#/JJ	.	.	.	.	.	.	.	.	.	.	.
!	!	!	!	!LO:LB:g=original	!	!	!	!	!	!	!	!	!	!	!
=54	=54	=54	=54	=54	=54	=54	=54	=54	=54	=54	=54	=54	=54	=54	=54
2E\	.	16b\LL	.	16e/LL	.	16gg#X\LL	.	1ff#	.	[<1ee)	.	(<1dd	.	1ee	.
.	.	16b\	.	16b/	.	16ff#\	.	.	.	.	.	.	.	.	.
.	.	16b\	.	16e/	.	16ee\	.	.	.	.	.	.	.	.	.
.	.	16b\	.	16b/	.	16dd#X\JJ	.	.	.	.	.	.	.	.	.
.	.	16b\	.	16e/	.	16ee\LL	.	.	.	.	.	.	.	.	.
.	.	16b\	.	16b/	.	16ff#\	.	.	.	.	.	.	.	.	.
.	.	16b\	.	16e/	.	16gg#\	.	.	.	.	.	.	.	.	.
.	.	16b\JJ	.	16b/JJ	.	16aa\JJ	.	.	.	.	.	.	.	.	.
2e\	.	16b\LL	.	16e/LL	.	16bb\LL	.	.	.	.	.	.	.	.	.
.	.	16b\	.	16b/	.	16aa\	.	.	.	.	.	.	.	.	.
.	.	16b\	.	16e/	.	16gg#\	.	.	.	.	.	.	.	.	.
.	.	16b\	.	16b/	.	16ff#\JJ	.	.	.	.	.	.	.	.	.
.	.	16b\	.	16e/	.	16ee\LL	.	.	.	.	.	.	.	.	.
.	.	16b\	.	16b/	.	16ddn\	.	.	.	.	.	.	.	.	.
.	.	16b\	.	16e/	.	16cc#\	.	.	.	.	.	.	.	.	.
.	.	16b\JJ	.	16b/JJ	.	16b\JJ	.	.	.	.	.	.	.	.	.
!LO:LB:g=original	!	!	!	!	!	!	!	!	!	!	!	!	!	!	!
=55	=55	=55	=55	=55	=55	=55	=55	=55	=55	=55	=55	=55	=55	=55	=55
8AA/L	.	16e\LL	.	16a/LL	.	2cc#\	.	1a	.	1ee]	.	1cc#)	.	1ee	.
.	.	16e\	.	16a/	.	.	.	.	.	.	.	.	.	.	.
16BB/L	.	16e\	.	16a/	.	.	.	.	.	.	.	.	.	.	.
16C#/JJ	.	16e\	.	16a/	.	.	.	.	.	.	.	.	.	.	.
16D\LL	.	16e\	.	16a/	.	.	.	.	.	.	.	.	.	.	.
16E\	.	16e\	.	16a/	.	.	.	.	.	.	.	.	.	.	.
16F#\	.	16e\	.	16a/	.	.	.	.	.	.	.	.	.	.	.
16G#X\JJ	.	16e\JJ	.	16a/JJ	.	.	.	.	.	.	.	.	.	.	.
16A\LL	.	16e\LL	.	16a/LL	.	2aa\	.	.	.	.	.	.	.	.	.
16G#\	.	16e\	.	16a/	.	.	.	.	.	.	.	.	.	.	.
16F#\	.	16e\	.	16a/	.	.	.	.	.	.	.	.	.	.	.
16E\JJ	.	16e\	.	16a/	.	.	.	.	.	.	.	.	.	.	.
16D\LL	.	16e\	.	16a/	.	.	.	.	.	.	.	.	.	.	.
16C#\	.	16e\	.	16a/	.	.	.	.	.	.	.	.	.	.	.
16BB\	.	16e\	.	16a/	.	.	.	.	.	.	.	.	.	.	.
16AA\JJ	.	16e\JJ	.	16a/JJ	.	.	.	.	.	.	.	.	.	.	.
!	!	!LO:LB:g=original	!	!	!	!LO:LB:g=original	!	!	!	!	!	!LO:LB:g=original	!	!LO:LB:g=original	!
=56	=56	=56	=56	=56	=56	=56	=56	=56	=56	=56	=56	=56	=56	=56	=56
!	!	!	!	!	!	!	!	!LO:TX:a:t=1	!	!LO:TX:a:t=1	!	!	!	!	!
8D#X\L	.	16f#X\LL	.	16b\LL	.	16aa\LL	.	1r	.	1r	.	(<1b	.	(<1aa	.
.	.	16f#\	.	16b\	.	16aa\	.	.	.	.	.	.	.	.	.
8D#\	.	16f#\	.	16b\	.	16aa\	.	.	.	.	.	.	.	.	.
.	.	16f#\	.	16b\	.	16aa\	.	.	.	.	.	.	.	.	.
8D#\	.	16f#\	.	16b\	.	16aa\	.	.	.	.	.	.	.	.	.
.	.	16f#\	.	16b\	.	16aa\	.	.	.	.	.	.	.	.	.
8D#\J	.	16f#\	.	16b\	.	16aa\	.	.	.	.	.	.	.	.	.
.	.	16f#\JJ	.	16b\JJ	.	16aa\JJ	.	.	.	.	.	.	.	.	.
8D#\L	.	16f#\LL	.	16b\LL	.	16aa\LL	.	.	.	.	.	.	.	.	.
.	.	16f#\	.	16b\	.	16aa\	.	.	.	.	.	.	.	.	.
8D#\	.	16f#\	.	16b\	.	16aa\	.	.	.	.	.	.	.	.	.
.	.	16f#\	.	16b\	.	16aa\	.	.	.	.	.	.	.	.	.
8D#\	.	16f#\	.	16b\	.	16aa\	.	.	.	.	.	.	.	.	.
.	.	16f#\	.	16b\	.	16aa\	.	.	.	.	.	.	.	.	.
8D#\J	.	16f#\	.	16b\	.	16aa\	.	.	.	.	.	.	.	.	.
.	.	16f#\JJ	.	16b\JJ	.	16aa\JJ	.	.	.	.	.	.	.	.	.
=57	=57	=57	=57	=57	=57	=57	=57	=57	=57	=57	=57	=57	=57	=57	=57
!	!	!	!	!	!	!LO:TX:a:t=sic:s=16gg#	!	!	!	!	!	!	!	!	!
8Dn\L	.	16e\LL	.	16b\LL	.	16gg\LL	.	[<1ee	.	[<1ee	.	[<1ee)	.	2gg#X\)	.
.	.	16e\	.	16b\	.	16gg\	.	.	.	.	.	.	.	.	.
8D\	.	16e\	.	16b\	.	16gg\	.	.	.	.	.	.	.	.	.
.	.	16e\	.	16b\	.	16gg\	.	.	.	.	.	.	.	.	.
8D\	.	16e\	.	16b\	.	16gg\	.	.	.	.	.	.	.	.	.
.	.	16e\	.	16b\	.	16gg\	.	.	.	.	.	.	.	.	.
8D\J	.	16e\	.	16b\	.	16gg\	.	.	.	.	.	.	.	.	.
.	.	16e\JJ	.	16b\JJ	.	16gg\JJ	.	.	.	.	.	.	.	.	.
8C#X/L	.	16e\LL	.	16cc#\LL	.	16aa\LL	.	.	.	.	.	.	.	2aa\	.
.	.	16e\	.	16cc#\	.	16aa\	.	.	.	.	.	.	.	.	.
8C#/	.	16e\	.	16cc#\	.	16aa\	.	.	.	.	.	.	.	.	.
.	.	16e\	.	16cc#\	.	16aa\	.	.	.	.	.	.	.	.	.
8C#/	.	16e\	.	16cc#\	.	16aa\	.	.	.	.	.	.	.	.	.
.	.	16e\	.	16cc#\	.	16aa\	.	.	.	.	.	.	.	.	.
8C#/J	.	16e\	.	16cc#\	.	16aa\	.	.	.	.	.	.	.	.	.
.	.	16e\JJ	.	16cc#\JJ	.	16aa\JJ	.	.	.	.	.	.	.	.	.
=58	=58	=58	=58	=58	=58	=58	=58	=58	=58	=58	=58	=58	=58	=58	=58
8GG#X/L	.	16e\LL	.	16bb\LL	.	16ddd\LL	.	1ee]	.	1ee]	.	(<1ee]	.	2ddd\	.
.	.	16e\	.	16bb\	.	16ddd\	.	.	.	.	.	.	.	.	.
8GG#/	.	16e\	.	16bb\	.	16ddd\	.	.	.	.	.	.	.	.	.
.	.	16e\	.	16bb\	.	16ddd\	.	.	.	.	.	.	.	.	.
8GG#/	.	16e\	.	16bb\	.	16ddd\	.	.	.	.	.	.	.	.	.
.	.	16e\	.	16bb\	.	16ddd\	.	.	.	.	.	.	.	.	.
8GG#/J	.	16e\	.	16bb\	.	16ddd\	.	.	.	.	.	.	.	.	.
.	.	16e\JJ	.	16bb\JJ	.	16ddd\JJ	.	.	.	.	.	.	.	.	.
*Xtremolo	*	*	*	*	*	*	*	*	*	*	*	*	*	*	*
!LO:TX:a:t=problem:mixed beam	!	!	!	!	!	!	!	!	!	!	!	!	!	!	!
8AA/L	.	16e\LL	.	16aa\LL	.	16ccc#\LL	.	.	.	.	.	.	.	2ccc#\	.
.	.	16e\	.	16aa\	.	16ccc#\	.	.	.	.	.	.	.	.	.
8A\	.	16e\	.	16aa\	.	16ccc#\	.	.	.	.	.	.	.	.	.
.	.	16e\	.	16aa\	.	16ccc#\	.	.	.	.	.	.	.	.	.
8c#\	.	16e\	.	16aa\	.	16ccc#\	.	.	.	.	.	.	.	.	.
.	.	16e\	.	16aa\	.	16ccc#\	.	.	.	.	.	.	.	.	.
8A\J	.	16e\	.	16aa\	.	16ccc#\	.	.	.	.	.	.	.	.	.
.	.	16e\JJ	.	16aa\JJ	.	16ccc#\JJ	.	.	.	.	.	.	.	.	.
!	!	!	!	!	!	!	!	!LO:LB:g=original	!	!	!	!	!	!	!
=59	=59	=59	=59	=59	=59	=59	=59	=59	=59	=59	=59	=59	=59	=59	=59
4.D\	.	16f#\LL	.	16ee\LL	.	16bb\LL	.	4r	.	4r	.	2dd\)	.	2bb\	.
.	.	16f#\	.	16ee\	.	16bb\	.	.	.	.	.	.	.	.	.
.	.	16f#\	.	16ee\	.	16bb\	.	.	.	.	.	.	.	.	.
.	.	16f#\	.	16ee\	.	16bb\	.	.	.	.	.	.	.	.	.
.	.	16f#\	.	16ee\	.	16bb\	.	4dd\	.	4ff#\	.	.	.	.	.
.	.	16f#\	.	16ee\	.	16bb\	.	.	.	.	.	.	.	.	.
8D\	.	16f#\	.	16ee\	.	16bb\	.	.	.	.	.	.	.	.	.
.	.	16f#\JJ	.	16ee\JJ	.	16bb\JJ	.	.	.	.	.	.	.	.	.
4E\	.	16e\LL	.	16cc#\LL	.	16aa\LL	.	4ee\]	.	4ee\	.	4cc#\	.	4aa\	.
.	.	16e\	.	16cc#\	.	16aa\	.	.	.	.	.	.	.	.	.
.	.	16e\	.	16cc#\	.	16aa\	.	.	.	.	.	.	.	.	.
.	.	16e\	.	16cc#\JJ	.	16aa\JJ	.	.	.	.	.	.	.	.	.
!	!	!	!	!	!	!	!	!	!	!	!	!LO:TX:a:t=t	!	!	!
4EE/	.	16e\	.	16b\LL	.	16gg#X\LL	.	4ee\	.	4ee\	.	4b\	.	4gg#X\	.
.	.	16e\	.	16b\	.	16gg#\	.	.	.	.	.	.	.	.	.
.	.	16e\	.	16b\	.	16gg#\	.	.	.	.	.	.	.	.	.
.	.	16e\JJ	.	16b\JJ	.	16gg#\JJ	.	.	.	.	.	.	.	.	.
!	!	!	!	!	!	!	!	!	!	!LO:LB:g=original	!	!	!	!	!
*	*	*Xtremolo	*	*Xtremolo	*	*	*	*	*	*	*	*	*	*	*
=60	=60	=60	=60	=60	=60	=60	=60	=60	=60	=60	=60	=60	=60	=60	=60
!LO:TX:a:t=problem:mixed beam	!	!LO:TX:a:t=problem:mixed beam	!	!	!	!	!	!	!	!	!	!	!	!	!
8AA/L	p	8A/L	p	4A/ 4e 4cc#	.	4aa\	.	4a/	.	4ee\	.	4cc#\	.	4aa\	.
8A\	.	8a\	.	.	.	.	.	.	.	.	.	.	.	.	.
8AA/	.	8A/	.	4r	.	4r	.	4r	.	4r	.	4r	.	4r	.
8A\J	.	8a\J	.	.	.	.	.	.	.	.	.	.	.	.	.
!LO:LB:g=original	!	!	!	!	!	!	!	!	!	!	!	!	!	!	!
!LO:TX:a:t=problem:mixed beam	!	!LO:TX:a:t=problem:mixed beam	!	!	!	!	!	!	!	!	!	!	!	!	!
8AA/L	.	8A/L	.	4r	.	4r	.	2r	.	2r	.	2r	.	2r	.
8A\	.	8a\	.	.	.	.	.	.	.	.	.	.	.	.	.
!	!	!	!	!	!LO:DY:t=p:	!	!	!	!	!	!	!	!	!	!
8AA/	.	8A/	.	4dd\	p	4ff#\	p	.	.	.	.	.	.	.	.
8A\J	.	8a\J	.	.	.	.	.	.	.	.	.	.	.	.	.
!	!	!	!	!LO:LB:g=original	!	!	!	!	!	!	!	!	!	!	!
=61	=61	=61	=61	=61	=61	=61	=61	=61	=61	=61	=61	=61	=61	=61	=61
!LO:TX:a:t=problem:mixed beam	!	!LO:TX:a:t=problem:mixed beam	!	!	!	!	!	!	!	!	!	!LO:TX:a:t=1	!	!LO:TX:a:t=1	!
8AA/L	.	8A/L	.	4.cc#\	.	4.ee\	.	1r	.	1r	.	1r	.	1r	.
8A\	.	8a\	.	.	.	.	.	.	.	.	.	.	.	.	.
8AA/	.	8A/	.	.	.	.	.	.	.	.	.	.	.	.	.
8A\J	.	8a\J	.	8dd\	.	8ff#\	.	.	.	.	.	.	.	.	.
!LO:TX:a:t=problem:mixed beam	!	!LO:TX:a:t=problem:mixed beam	!	!	!	!	!	!	!	!	!	!	!	!	!
8AA/L	.	8A/L	.	4cc#\	.	4ee\	.	.	.	.	.	.	.	.	.
8A\	.	8a\	.	.	.	.	.	.	.	.	.	.	.	.	.
!	!	!	!	!LO:TX:a:t=t	!	!LO:TX:a:t=t	!	!	!	!	!	!	!	!	!
8AA/	.	8A/	.	4b\	.	4dd\	.	.	.	.	.	.	.	.	.
8A\J	.	8a\J	.	.	.	.	.	.	.	.	.	.	.	.	.
=62	=62	=62	=62	=62	=62	=62	=62	=62	=62	=62	=62	=62	=62	=62	=62
!LO:TX:a:t=problem:mixed beam	!	!LO:TX:a:t=problem:mixed beam	!	!	!	!	!	!	!LO:DY:t=p:	!	!LO:DY:t=p:	!	!	!	!
8AA/L	.	8A/L	.	4a/	.	4cc#X\	.	[1a	p	[<1aa	p	2r	.	2r	.
8A\	.	8a\	.	.	.	.	.	.	.	.	.	.	.	.	.
8AA/	.	8A/	.	4r	.	4r	.	.	.	.	.	.	.	.	.
8A\J	.	8a\J	.	.	.	.	.	.	.	.	.	.	.	.	.
!LO:TX:a:t=problem:mixed beam	!	!LO:TX:a:t=problem:mixed beam	!	!	!	!	!	!	!	!	!	!	!	!	!
8AA/L	.	8A/L	.	4r	.	4r	.	.	.	.	.	4r	.	4r	.
8A\	.	8a\	.	.	.	.	.	.	.	.	.	.	.	.	.
8AA/	.	8A/	.	4d/	.	4f#/	pp	.	.	.	.	4dd\	p	4ff#\	p
8A\J	.	8a\J	.	.	.	.	.	.	.	.	.	.	.	.	.
!	!	!LO:LB:g=original	!	!	!	!LO:LB:g=original	!	!	!	!	!	!	!	!	!
=63	=63	=63	=63	=63	=63	=63	=63	=63	=63	=63	=63	=63	=63	=63	=63
!LO:TX:a:t=problem:mixed beam	!	!LO:TX:a:t=problem:mixed beam	!	!	!	!	!	!	!	!	!	!	!	!	!
8AA/L	.	8A/L	.	4.c#/	pp	4.e/	.	1a]	.	1aa]	.	(4.cc#\	.	4.ee\	.
8A\	.	8a\	.	.	.	.	.	.	.	.	.	.	.	.	.
8AA/	.	8A/	.	.	.	.	.	.	.	.	.	.	.	.	.
8A\J	.	8a\J	.	8d/	.	8f#/	.	.	.	.	.	8dd\)	.	8ff#\	.
!LO:TX:a:t=problem:mixed beam	!	!LO:TX:a:t=problem:mixed beam	!	!	!	!	!	!	!	!	!	!	!	!	!
8AA/L	.	8A/L	.	4c#/	.	4e/	.	.	.	.	.	4cc#\	.	4ee\	.
8A\	.	8a\	.	.	.	.	.	.	.	.	.	.	.	.	.
!	!	!	!	!	!	!	!	!	!	!	!	!LO:TX:a:t=t	!	!	!
8AA/	.	8A/	.	4B/	.	4d/	.	.	.	.	.	4b\	.	4dd\	.
8A\J	.	8a\J	.	.	.	.	.	.	.	.	.	.	.	.	.
=64	=64	=64	=64	=64	=64	=64	=64	=64	=64	=64	=64	=64	=64	=64	=64
!LO:TX:a:t=problem:mixed beam	!	!LO:TX:a:t=problem:mixed beam	!	!	!	!	!	!	!	!	!	!	!	!	!
8AA/L	f	8A/L	f	4A/	.	4c#/	.	4a/	.	4aa\	.	4a/	.	4cc#\	.
8A\	.	8a\	.	.	.	.	.	.	.	.	.	.	.	.	.
!	!	!	!	!	!	!	!LO:Dt=ffor	!	!	!	!LO:DY:t=ffo	!	!	!	!
8E\	.	8e\	.	4A/ 4e 4cc#	f	4e\ 4cc# 4aa	ff	4A/	f	4a/	ff	4cc#/	f	4aa\	f
8C#\J	.	8c#\J	.	.	.	.	.	.	.	.	.	.	.	.	.
4AA/	.	4A/	.	4A/ 4e 4cc#	.	4e\ 4cc# 4aa	.	4A/	.	4a/	.	4cc#/	.	4aa\	.
4r	.	4r	.	4r	.	4r	.	4r	.	4r	.	4r	.	4r	.
!	!	!	!	!	!	!	!	!	!	!	!	!LO:LB:g=original	!	!LO:LB:g=original	!
=65:|!|:	=65:|!|:	=65:|!|:	=65:|!|:	=65:|!|:	=65:|!|:	=65:|!|:	=65:|!|:	=65:|!|:	=65:|!|:	=65:|!|:	=65:|!|:	=65:|!|:	=65:|!|:	=65:|!|:	=65:|!|:
*>B	*	*>B	*	*>B	*	*>B	*	*>B	*	*>B	*	*>B	*	*>B	*
!	!LO:DY:t=p	!LO:TX:a:t=2	!	!LO:TX:a:t=1	!	!	!	!LO:TX:a:t=16	!LO:DY:t=p:	!LO:TX:a:t=16	!	!LO:TX:a:t=16	!	!LO:TX:a:t=16	!
2AA/	p	0r	.	1r	.	4r	pp	00r	p	00r	.	00r	.	00r	.
.	.	.	.	.	.	4ee\	.	.	.	.	.	.	.	.	.
.	.	.	.	.	.	8qqdd/	.	.	.	.	.	.	.	.	.
2r	.	.	.	.	.	4cc#\	.	.	.	.	.	.	.	.	.
.	.	.	.	.	.	8qqb/	.	.	.	.	.	.	.	.	.
.	.	.	.	.	.	4a/	.	.	.	.	.	.	.	.	.
=66	=66	=66	=66	=66	=66	=66	=66	=66	=66	=66	=66	=66	=66	=66	=66
!LO:TX:a:t=2	!	!	!	!	!	!	!	!	!	!	!	!	!	!	!
0r	.	.	.	4r	.	(2g#	.	.	.	.	.	.	.	.	.
.	.	.	.	4ee\	p	.	.	.	.	.	.	.	.	.	.
.	.	.	.	8qqdd/	.	.	.	.	.	.	.	.	.	.	.
.	.	.	.	4cc#\	.	2a/)	.	.	.	.	.	.	.	.	.
.	.	.	.	.	.	.	.	.	.	.	.	.	.	.	.
.	.	.	.	8qqb/	.	.	.	.	.	.	.	.	.	.	.
.	.	.	.	4a/	.	.	.	.	.	.	.	.	.	.	.
=67	=67	=67	=67	=67	=67	=67	=67	=67	=67	=67	=67	=67	=67	=67	=67
.	.	4r	p	2g#X/	.	(2b\	.	.	.	.	.	.	.	.	.
.	.	4e\	.	.	.	.	.	.	.	.	.	.	.	.	.
.	.	8qqd/	.	.	.	.	.	.	.	.	.	.	.	.	.
.	.	4c#\	.	2a/	.	2cc#\	.	.	.	.	.	.	.	.	.
.	.	8qqB/	.	.	.	.	.	.	.	.	.	.	.	.	.
.	.	4A/	.	.	.	.	.	.	.	.	.	.	.	.	.
!	!	!	!	!LO:LB:g=original	!	!	!	!	!	!	!	!	!	!	!
=68	=68	=68	=68	=68	=68	=68	=68	=68	=68	=68	=68	=68	=68	=68	=68
4r	.	(2G#X/	.	(2b\	.	2dd\	.	.	.	.	.	.	.	.	.
4E\	.	.	.	.	.	.	.	.	.	.	.	.	.	.	.
4C#/	.	2A/	.	2a/)	.	2cc#\)	.	.	.	.	.	.	.	.	.
4AA/	.	.	.	.	.	.	.	.	.	.	.	.	.	.	.
!LO:LB:g=original	!	!	!	!	!	!	!	!	!	!	!	!	!	!	!
=69	=69	=69	=69	=69	=69	=69	=69	=69	=69	=69	=69	=69	=69	=69	=69
(<2GG#X/	.	2d\	.	4e/	.	4r	.	00r	.	00r	.	00r	.	00r	.
.	.	.	.	4r	.	4ee\	.	.	.	.	.	.	.	.	.
.	.	.	.	.	.	8qqdd/	.	.	.	.	.	.	.	.	.
2AA/	.	2c#\)	.	2r	.	4cc#\	.	.	.	.	.	.	.	.	.
.	.	.	.	.	.	8qqb/	.	.	.	.	.	.	.	.	.
.	.	.	.	.	.	4a\	.	.	.	.	.	.	.	.	.
!	!	!	!	!	!	!LO:LB:g=original	!	!	!	!	!	!	!	!	!
=70	=70	=70	=70	=70	=70	=70	=70	=70	=70	=70	=70	=70	=70	=70	=70
!	!	!LO:TX:a:t=1	!	!	!	!	!	!	!	!	!	!	!	!	!
2D\)	.	1r	.	8r	.	(2g#X/	.	.	.	.	.	.	.	.	.
.	.	.	.	(8e/L	.	.	.	.	.	.	.	.	.	.	.
.	.	.	.	8d#X/	.	.	.	.	.	.	.	.	.	.	.
.	.	.	.	8e/J)	.	.	.	.	.	.	.	.	.	.	.
2C#\	.	.	.	8dn/L	.	2a/	.	.	.	.	.	.	.	.	.
.	.	.	.	8c#/	.	.	.	.	.	.	.	.	.	.	.
.	.	.	.	8B/	.	.	.	.	.	.	.	.	.	.	.
.	.	.	.	8A/J	.	.	.	.	.	.	.	.	.	.	.
=71	=71	=71	=71	=71	=71	=71	=71	=71	=71	=71	=71	=71	=71	=71	=71
!LO:TX:a:t=1	!	!	!	!	!	!	!	!	!	!	!	!	!	!	!
1r	.	8r	.	(<2g#X/	.	2b\	.	.	.	.	.	.	.	.	.
.	.	(8e\L	.	.	.	.	.	.	.	.	.	.	.	.	.
.	.	8d#X\	.	.	.	.	.	.	.	.	.	.	.	.	.
.	.	8e\J)	.	.	.	.	.	.	.	.	.	.	.	.	.
.	.	8dn\L	.	2a/	.	2cc#\)	.	.	.	.	.	.	.	.	.
.	.	8c#\	.	.	.	.	.	.	.	.	.	.	.	.	.
.	.	8B\	.	.	.	.	.	.	.	.	.	.	.	.	.
.	.	8A\J	.	.	.	.	.	.	.	.	.	.	.	.	.
!	!	!LO:LB:g=original	!	!	!	!	!	!	!	!	!	!	!	!	!
=72	=72	=72	=72	=72	=72	=72	=72	=72	=72	=72	=72	=72	=72	=72	=72
8r	.	(<2G#X/	.	(<1b)	.	1dd	.	.	.	.	.	.	.	.	.
(8E\L	.	.	.	.	.	.	.	.	.	.	.	.	.	.	.
8D#X\	.	.	.	.	.	.	.	.	.	.	.	.	.	.	.
8E\J)	.	.	.	.	.	.	.	.	.	.	.	.	.	.	.
(8F#\L	.	2A/	.	.	.	.	.	.	.	.	.	.	.	.	.
8E\	.	.	.	.	.	.	.	.	.	.	.	.	.	.	.
8F#\	.	.	.	.	.	.	.	.	.	.	.	.	.	.	.
8G#X\J)	.	.	.	.	.	.	.	.	.	.	.	.	.	.	.
=73	=73	=73	=73	=73	=73	=73	=73	=73	=73	=73	=73	=73	=73	=73	=73
4A\	.	4e\)	.	4a/)	.	4cc#\	.	00r	.	00r	.	00r	.	00r	.
4r	.	4r	.	4r	.	4aa\	.	.	.	.	.	.	.	.	.
2r	.	2r	.	2r	.	(8ggn\L	.	.	.	.	.	.	.	.	.
.	.	.	.	.	.	8ff#\	.	.	.	.	.	.	.	.	.
.	.	.	.	.	.	8ee\	.	.	.	.	.	.	.	.	.
.	.	.	.	.	.	8dd\J)	.	.	.	.	.	.	.	.	.
=74	=74	=74	=74	=74	=74	=74	=74	=74	=74	=74	=74	=74	=74	=74	=74
!LO:TX:a:t=2	!	!	!	!	!	!	!	!	!	!	!	!	!	!	!
0r	.	1r	.	8r	.	2r	.	.	.	.	.	.	.	.	.
.	.	.	.	8a'/L	.	.	.	.	.	.	.	.	.	.	.
.	.	.	.	8a'/	.	.	.	.	.	.	.	.	.	.	.
.	.	.	.	8a'/J	.	.	.	.	.	.	.	.	.	.	.
.	.	.	.	(8gn/L	.	2dd\	.	.	.	.	.	.	.	.	.
.	.	.	.	8f#/	.	.	.	.	.	.	.	.	.	.	.
.	.	.	.	8e/	.	.	.	.	.	.	.	.	.	.	.
.	.	.	.	8d/J)	.	.	.	.	.	.	.	.	.	.	.
=75	=75	=75	=75	=75	=75	=75	=75	=75	=75	=75	=75	=75	=75	=75	=75
.	.	4r	.	(2c#X/	.	2ee\	.	.	.	.	.	.	.	.	.
.	.	4a\	.	.	.	.	.	.	.	.	.	.	.	.	.
.	.	(8gn\L	.	2d/)	.	(2ff#\)	.	.	.	.	.	.	.	.	.
.	.	8f#\	.	.	.	.	.	.	.	.	.	.	.	.	.
.	.	8e\	.	.	.	.	.	.	.	.	.	.	.	.	.
.	.	8d\J)	.	.	.	.	.	.	.	.	.	.	.	.	.
!	!	!	!	!LO:LB:g=original	!	!	!	!	!	!	!	!	!	!	!
=76	=76	=76	=76	=76	=76	=76	=76	=76	=76	=76	=76	=76	=76	=76	=76
4r	.	2c#X\	.	2e/	.	1gg)	.	.	.	.	.	.	.	.	.
4AA/	.	.	.	.	.	.	.	.	.	.	.	.	.	.	.
(8BB/L	.	2r	.	[2a/	.	.	.	.	.	.	.	.	.	.	.
8AA/	.	.	.	.	.	.	.	.	.	.	.	.	.	.	.
8BB/	.	.	.	.	.	.	.	.	.	.	.	.	.	.	.
8C#/J)	.	.	.	.	.	.	.	.	.	.	.	.	.	.	.
=77	=77	=77	=77	=77	=77	=77	=77	=77	=77	=77	=77	=77	=77	=77	=77
!	!	!LO:TX:a:t=2	!	!	!	!	!	!	!	!	!	!	!	!	!
2D\	.	0r	.	4a/]	.	4ff#\	.	00r	.	00r	.	00r	.	00r	.
.	.	.	.	4r	.	4ff#\	.	.	.	.	.	.	.	.	.
.	.	.	.	.	.	8qqee/	.	.	.	.	.	.	.	.	.
2r	.	.	.	2r	.	4dd\	.	.	.	.	.	.	.	.	.
.	.	.	.	.	.	8qqcc#/	.	.	.	.	.	.	.	.	.
.	.	.	.	.	.	4b\	.	.	.	.	.	.	.	.	.
=78	=78	=78	=78	=78	=78	=78	=78	=78	=78	=78	=78	=78	=78	=78	=78
!LO:TX:a:t=2	!	!	!	!	!	!	!	!	!	!	!	!	!	!	!
0r	.	.	.	4r	.	(2a#X/	.	.	.	.	.	.	.	.	.
.	.	.	.	4f#/	.	.	.	.	.	.	.	.	.	.	.
.	.	.	.	8qqe/	.	.	.	.	.	.	.	.	.	.	.
.	.	.	.	4dn/	.	2b/)	.	.	.	.	.	.	.	.	.
.	.	.	.	8qqc#/	.	.	.	.	.	.	.	.	.	.	.
.	.	.	.	4B/	.	.	.	.	.	.	.	.	.	.	.
!	!	!	!	!	!	!LO:PB:g=original	!	!	!	!	!	!	!	!	!
=79	=79	=79	=79	=79	=79	=79	=79	=79	=79	=79	=79	=79	=79	=79	=79
.	.	4r	.	2A#X/	.	(2cc#\	.	.	.	.	.	.	.	.	.
.	.	4f#X\	.	.	.	.	.	.	.	.	.	.	.	.	.
.	.	8qqe/	.	.	.	.	.	.	.	.	.	.	.	.	.
.	.	4d\	.	2B/	.	2dd\	.	.	.	.	.	.	.	.	.
.	.	8qqc#/	.	.	.	.	.	.	.	.	.	.	.	.	.
.	.	4B/	.	.	.	.	.	.	.	.	.	.	.	.	.
=80	=80	=80	=80	=80	=80	=80	=80	=80	=80	=80	=80	=80	=80	=80	=80
4r	.	(<1A#X	.	(1c#	.	1ee	.	.	.	.	.	.	.	.	.
4F#\	.	.	.	.	.	.	.	.	.	.	.	.	.	.	.
!LO:LB:g=original	!	!	!	!	!	!	!	!	!	!	!	!	!	!	!
(8G#X\L	.	.	.	.	.	.	.	.	.	.	.	.	.	.	.
8F#\	.	.	.	.	.	.	.	.	.	.	.	.	.	.	.
8G#\	.	.	.	.	.	.	.	.	.	.	.	.	.	.	.
8A#X\J)	.	.	.	.	.	.	.	.	.	.	.	.	.	.	.
!	!	!LO:LB:g=original	!	!	!	!	!	!	!	!	!	!	!	!	!
=81	=81	=81	=81	=81	=81	=81	=81	=81	=81	=81	=81	=81	=81	=81	=81
!	!	!	!	!	!	!	!	!	!	!	!LO:DY:t=p	!	!LO:DY:t=p:	!	!
4B\	.	4f#X\)	.	4B/)	<	4dd\	<	[<1f#	pp	[<1ff#	p	[<1b	p	[<1dd	p
4r	.	2f#\	.	2b\	.	2dd\	.	.	.	.	.	.	.	.	.
2r	.	.	.	.	.	.	.	.	.	.	.	.	.	.	.
.	.	4f#\	.	[4b\	.	4dd\)	.	.	.	.	.	.	.	.	.
=82	=82	=82	=82	=82	=82	=82	=82	=82	=82	=82	=82	=82	=82	=82	=82
8r	.	[<1f#	.	1b_	.	[<1dd	.	1f#]	.	1ff#_<	.	1b_<	.	1dd_<	.
8BB/L	.	.	.	.	.	.	.	.	.	.	.	.	.	.	.
8D/	.	.	.	.	.	.	.	.	.	.	.	.	.	.	.
8F#/J	.	.	.	.	.	.	.	.	.	.	.	.	.	.	.
8B\L	.	.	.	.	.	.	.	.	.	.	.	.	.	.	.
8F#\	.	.	.	.	.	.	.	.	.	.	.	.	.	.	.
8D\	.	.	.	.	.	.	.	.	.	.	.	.	.	.	.
8F#\J	.	.	.	.	.	.	.	.	.	.	.	.	.	.	.
=83	=83	=83	=83	=83	=83	=83	=83	=83	=83	=83	=83	=83	=83	=83	=83
2BB/	.	4f#\]	.	4b\]	.	4dd\]	.	[1f#_	.	1ff#_<	.	1b_<	.	1dd_<	.
.	.	2f#\	.	2b\	.	2dd\	.	.	.	.	.	.	.	.	.
2B\	.	.	.	.	.	.	.	.	.	.	.	.	.	.	.
.	.	4f#\	.	4b\	.	[4dd\	.	.	.	.	.	.	.	.	.
!	!	!	!	!	!	!	!	!LO:LB:g=original	!	!	!	!	!	!	!
=84	=84	=84	=84	=84	=84	=84	=84	=84	=84	=84	=84	=84	=84	=84	=84
8r	.	(<1f#	.	1b	.	1dd_	.	(1f#]	.	(<1ff#]	.	1b_<	<	1dd_<	<
(8F#\L	.	.	.	.	.	.	.	.	.	.	.	.	.	.	.
8Gn\	.	.	.	.	.	.	.	.	.	.	.	.	.	.	.
8F#\J)	.	.	.	.	.	.	.	.	.	.	.	.	.	.	.
(8E#X\L	.	.	.	.	.	.	.	.	.	.	.	.	.	.	.
8F#\	.	.	.	.	.	.	.	.	.	.	.	.	.	.	.
8E#\	.	.	.	.	.	.	.	.	.	.	.	.	.	.	.
8F#\J)	.	.	.	.	.	.	.	.	.	.	.	.	.	.	.
!	!	!	!	!LO:PB:g=original	!	!	!	!	!	!LO:LB:g=original	!	!	!	!	!
=85	=85	=85	=85	=85	=85	=85	=85	=85	=85	=85	=85	=85	=85	=85	=85
2En\	.	4g#X\)	.	4b\	.	4dd\]	.	4ee\)	.	4ee\)	.	1b_<	.	1dd_<	.
!	!	!	!	!	!	!	!LO:DY:t=rinfor	!	!	!	!	!	!	!	!
.	.	2g#\	.	2b\	.	2dd\	rf	4r	.	4r	.	.	.	.	.
2EE/	.	.	.	.	.	.	.	2r	.	2r	.	.	.	.	.
.	.	4g#\	.	4b\	.	4dd\	.	.	.	.	.	.	.	.	.
=86	=86	=86	=86	=86	=86	=86	=86	=86	=86	=86	=86	=86	=86	=86	=86
!	!	!LO:TX:a:t=sic!:s=1gg#	!	!	!	!	!	!	!	!	!	!	!	!	!
8r	.	(<1g	.	1b	.	[<1dd	.	4r	.	4r	.	1b_<	.	1dd_<	.
8E\L	.	.	.	.	.	.	.	.	.	.	.	.	.	.	.
8G#X\	.	.	.	.	.	.	.	4ee\	.	4ee\	.	.	.	.	.
8B\J	.	.	.	.	.	.	.	.	.	.	.	.	.	.	.
8e\L	.	.	.	.	.	.	.	4ee\	.	4ee\	.	.	.	.	.
8B\	.	.	.	.	.	.	.	.	.	.	.	.	.	.	.
8G#\	.	.	.	.	.	.	.	4ee\	.	4ee\	.	.	.	.	.
8B\J	.	.	.	.	.	.	.	.	.	.	.	.	.	.	.
!LO:LB:g=original	!	!	!	!	!	!	!	!	!	!	!	!	!	!	!
=87	=87	=87	=87	=87	=87	=87	=87	=87	=87	=87	=87	=87	=87	=87	=87
2E\	.	4g#X\)	.	4b\	.	4dd\]	.	4ee\	.	4ee\	.	1b_<	.	1dd_<	.
.	.	2g#\	.	2b\	.	2dd\	.	4r	.	4r	.	.	.	.	.
2EE/	.	.	.	.	.	.	.	2r	.	2r	.	.	.	.	.
.	.	4g#\	.	4b\	.	4dd\	.	.	.	.	.	.	.	.	.
=88	=88	=88	=88	=88	=88	=88	=88	=88	=88	=88	=88	=88	=88	=88	=88
!	!	!LO:TX:a:t=sic!:s=1gg#	!	!	!	!	!	!	!	!	!	!	!	!	!
8r	.	(<1g	.	1b	.	(<1dd	.	4r	.	4r	.	(<1b]	.	(<1dd]	.
(8E\L	.	.	.	.	.	.	.	.	.	.	.	.	.	.	.
8D#X\	.	.	.	.	.	.	.	4ee\	.	4ee\	.	.	.	.	.
8E\J)	.	.	.	.	.	.	.	.	.	.	.	.	.	.	.
(8F#\L	.	.	.	.	.	.	.	4ee\	.	4ee\	.	.	.	.	.
8E\	.	.	.	.	.	.	.	.	.	.	.	.	.	.	.
8D#X\	.	.	.	.	.	.	.	4ee\	.	4ee\	.	.	.	.	.
8E\J)	.	.	.	.	.	.	.	.	.	.	.	.	.	.	.
!	!	!	!	!	!	!LO:LB:g=original	!	!	!	!	!	!	!	!	!
=89	=89	=89	=89	=89	=89	=89	=89	=89	=89	=89	=89	=89	=89	=89	=89
!	!	!	!	!	!	!	!	!	!	!	!	!	!	!	!LO:DY:t=p
2E-X\	.	4f#X\)	.	4a/	.	4ccn\)	.	4a/	.	4aa\	.	2a/)	.	2ccn\)	p
.	.	2f#\	.	2a/	.	2cc\	.	4r	.	4r	.	.	.	.	.
2EE-X/	.	.	.	.	.	.	.	2r	.	2r	.	2r	.	2r	.
.	.	4f#\	.	4a/	.	4cc\	.	.	.	.	.	.	.	.	.
=90	=90	=90	=90	=90	=90	=90	=90	=90	=90	=90	=90	=90	=90	=90	=90
8r	.	1f#	.	1a	.	[<1ccn	.	4r	.	4r	.	4r	.	4r	.
8E-X\L	.	.	.	.	.	.	.	.	.	.	.	.	.	.	.
!	!	!	!	!	!	!	!	!	!	!	!	!	!LO:DY:t=p:	!LO:TX:a:t=sic:s=2cc	!
8F#X\	.	.	.	.	.	.	.	4a/	.	4aa\	.	2a/	p	2cc#\	.
8A\J	.	.	.	.	.	.	.	.	.	.	.	.	.	.	.
8c#\L	.	.	.	.	.	.	.	4a/	.	4aa\	.	.	.	.	.
8A\	.	.	.	.	.	.	.	.	.	.	.	.	.	.	.
8F#X\	.	.	.	.	.	.	.	4a/	.	4aa\	.	4a/	.	4cc#\	.
8A\J	.	.	.	.	.	.	.	.	.	.	.	.	.	.	.
!	!	!LO:LB:g=original	!	!	!	!	!	!	!	!	!	!	!	!LO:LB:g=original	!
=91	=91	=91	=91	=91	=91	=91	=91	=91	=91	=91	=91	=91	=91	=91	=91
2E-X\	.	4f#\	.	4a/	.	4ccn\]	.	4a/	.	4aa\	.	2a/	.	2ccn\	.
.	.	2f#\	.	2a/	.	2cc\	.	4r	.	4r	.	.	.	.	.
2EE-X/	.	.	.	.	.	.	.	2r	.	2r	.	2r	.	2r	.
.	.	4f#\	.	4a/	.	4cc\	.	.	.	.	.	.	.	.	.
!	!	!	!	!	!	!	!	!	!	!	!	!LO:LB:g=original	!	!	!
=92	=92	=92	=92	=92	=92	=92	=92	=92	=92	=92	=92	=92	=92	=92	=92
!	!	!	!	!	!	!LO:TX:a:t=sic!:s=1cc#	!	!	!	!	!	!	!	!	!
8r	.	(<1f#	.	1a	.	(<1cc#	.	4r	.	4r	.	4r	.	4r	.
(8E-X\L	.	.	.	.	.	.	.	.	.	.	.	.	.	.	.
8D\	.	.	.	.	.	.	.	2a/	.	2aa\	.	2a/	.	2ccn\	.
8E-\J	.	.	.	.	.	.	.	.	.	.	.	.	.	.	.
8F#X\L	.	.	.	.	.	.	.	.	.	.	.	.	.	.	.
8E-X\	.	.	.	.	.	.	.	.	.	.	.	.	.	.	.
8A\	.	.	.	.	.	.	.	4a/	.	4aa\	.	4a/	.	4cc\	.
8F#X\J)	.	.	.	.	.	.	.	.	.	.	.	.	.	.	.
!LO:LB:g=original	!	!	!	!	!	!	!	!LO:LB:g=original	!	!	!	!	!	!	!
=93	=93	=93	=93	=93	=93	=93	=93	=93	=93	=93	=93	=93	=93	=93	=93
2G\	.	4d\)	.	4g/	.	4b-X\)	.	4g/	.	4gg\	.	2g/	.	2b-X\	.
.	.	2d\	.	2g/	.	2b-\	.	4r	.	4r	.	.	.	.	.
2GG/	.	.	.	.	.	.	.	2r	.	2r	.	2r	.	2r	.
.	.	4d\	.	4g/	.	4b-\	.	.	.	.	.	.	.	.	.
!	!	!	!	!	!	!	!	!	!	!LO:LB:g=original	!	!	!	!	!
=94	=94	=94	=94	=94	=94	=94	=94	=94	=94	=94	=94	=94	=94	=94	=94
!	!	!	!	!	!	!LO:TX:a:t=sic!:s=1b-	!	!	!	!LO:TX:a:t=1	!	!	!	!	!
8r	.	1d	.	1g	.	(<1b	.	1r	.	1r	.	4r	.	4r	.
8GG/L	.	.	.	.	.	.	.	.	.	.	.	.	.	.	.
8BB-X/	.	.	.	.	.	.	.	.	.	.	.	2g/	.	2b-X\	.
8D/J	.	.	.	.	.	.	.	.	.	.	.	.	.	.	.
8G/L	.	.	.	.	.	.	.	.	.	.	.	.	.	.	.
8D/	.	.	.	.	.	.	.	.	.	.	.	.	.	.	.
8BB-X/	.	.	.	.	.	.	.	.	.	.	.	4g/	.	4b-\	.
8GG/J	.	.	.	.	.	.	.	.	.	.	.	.	.	.	.
!	!	!	!	!LO:LB:g=original	!	!	!	!	!	!	!	!	!	!	!
=95	=95	=95	=95	=95	=95	=95	=95	=95	=95	=95	=95	=95	=95	=95	=95
2C#X/	.	8e\	.	8b-X\	.	8gg\)	.	[<1ee	.	[<1ee	.	4b-X\	.	4ggn\	.
.	.	4e\	.	4b-\	.	4gg\	.	.	.	.	.	.	.	.	.
.	.	.	.	.	.	.	.	.	.	.	.	4r	.	4r	.
.	.	4e\	.	4b-\	.	4gg\	.	.	.	.	.	.	.	.	.
2c#\	.	.	.	.	.	.	.	.	.	.	.	2r	.	2r	.
.	.	4e\	.	4b-\	.	4gg\	.	.	.	.	.	.	.	.	.
.	.	8e\	.	8b-\	.	8gg\	.	.	.	.	.	.	.	.	.
=96	=96	=96	=96	=96	=96	=96	=96	=96	=96	=96	=96	=96	=96	=96	=96
!	!	!	!	!LO:TX:a:t=sic!:s=1h-	!	!	!	!	!	!	!	!	!	!	!
8r	.	1e	.	1b	.	(<1gg	.	4ee\]	.	4ee\]	.	4r	.	4r	.
8C#X/L	.	.	.	.	.	.	.	.	.	.	.	.	.	.	.
8E/	.	.	.	.	.	.	.	4r	.	4r	.	2b-X\	.	2gg\	.
8G/J	.	.	.	.	.	.	.	.	.	.	.	.	.	.	.
8B-X\L	.	.	.	.	.	.	.	2r	.	2r	.	.	.	.	.
8G\	.	.	.	.	.	.	.	.	.	.	.	.	.	.	.
8En\	.	.	.	.	.	.	.	.	.	.	.	4b-\	.	4gg\	.
8C#X\J	.	.	.	.	.	.	.	.	.	.	.	.	.	.	.
=97	=97	=97	=97	=97	=97	=97	=97	=97	=97	=97	=97	=97	=97	=97	=97
2D\	.	8d\	.	8a/	.	8ff#X\)	.	4d/	.	4dd\	.	4a/	.	4ff#X\	.
.	.	4d\	.	4a/	.	4ff#\	.	.	.	.	.	.	.	.	.
.	.	.	.	.	.	.	.	4r	.	4r	.	4r	.	4r	.
.	.	4d\	.	4a/	.	4ff#\	.	.	.	.	.	.	.	.	.
2d\	.	.	.	.	.	.	.	2r	.	2r	.	2r	.	2r	.
.	.	4d\	.	4a/	.	4ff#\	.	.	.	.	.	.	.	.	.
.	.	8d\	.	8a/	.	8ff#\	.	.	.	.	.	.	.	.	.
!	!	!	!	!	!	!LO:LB:g=original	!	!	!	!	!	!	!	!	!
=98	=98	=98	=98	=98	=98	=98	=98	=98	=98	=98	=98	=98	=98	=98	=98
8r	.	1d	.	1a	.	(<1ff#	.	4r	.	4r	.	4r	.	4r	.
8D\L	.	.	.	.	.	.	.	.	.	.	.	.	.	.	.
8F#X\	.	.	.	.	.	.	.	4d/	.	4dd\	.	2dd\	.	2ff#X\	.
8A\J	.	.	.	.	.	.	.	.	.	.	.	.	.	.	.
8d\L	.	.	.	.	.	.	.	4d/	.	4dd\	.	.	.	.	.
8A\	.	.	.	.	.	.	.	.	.	.	.	.	.	.	.
8F#\	.	.	.	.	.	.	.	4d/	.	4dd\	.	[4dd\	.	4ff#\	.
8D\J	.	.	.	.	.	.	.	.	.	.	.	.	.	.	.
!	!	!	!	!	!	!	!	!	!	!	!	!	!	!LO:LB:g=original	!
=99	=99	=99	=99	=99	=99	=99	=99	=99	=99	=99	=99	=99	=99	=99	=99
2BBn/	.	8Bn/	.	8dd\	.	8gg#X\)	.	4d/	.	4dd\	.	4dd\]	.	4gg#X\	.
.	.	4B/	.	4dd\	.	4gg#\	.	.	.	.	.	.	.	.	.
.	.	.	.	.	.	.	.	4r	.	4r	.	4r	.	4r	.
.	.	4B/	.	4dd\	.	4gg#\	.	.	.	.	.	.	.	.	.
2B\	.	.	.	.	.	.	.	2r	.	2r	.	2r	.	2r	.
.	.	4B/	.	4dd\	.	4gg#\	.	.	.	.	.	.	.	.	.
.	.	8B/	.	8dd\	.	8gg#\	.	.	.	.	.	.	.	.	.
!	!	!LO:LB:g=original	!	!	!	!	!	!	!	!	!	!	!	!	!
=100	=100	=100	=100	=100	=100	=100	=100	=100	=100	=100	=100	=100	=100	=100	=100
!	!	!	!	!	!	!LO:TX:a:t=sic!:s=1gg#	!	!	!	!	!	!	!	!	!
8r	.	1B	.	(<1dd	.	(<1gg	.	4r	.	4r	.	4r	.	4r	.
8BB\L	.	.	.	.	.	.	.	.	.	.	.	.	.	.	.
8D\	.	.	.	.	.	.	.	2ee\	.	2ee\	.	2dd\	.	2gg#X\	.
8F#\J	.	.	.	.	.	.	.	.	.	.	.	.	.	.	.
(8D/L	.	.	.	.	.	.	.	.	.	.	.	.	.	.	.
8BB/	.	.	.	.	.	.	.	.	.	.	.	.	.	.	.
8AA/	.	.	.	.	.	.	.	4ee\	.	4ee\	.	4dd\	.	(4gg#\	.
8GG#X/J)	.	.	.	.	.	.	.	.	.	.	.	.	.	.	.
!LO:LB:g=original	!	!	!	!	!	!	!	!	!	!	!	!LO:LB:g=original	!	!	!
=101	=101	=101	=101	=101	=101	=101	=101	=101	=101	=101	=101	=101	=101	=101	=101
!LO:TX:a:t=1	!	!	!	!	!	!	!	!	!	!	!	!	!	!	!
[1AA	.	(<1A	.	(2cc#X\)	.	(2aa\)	pp	[1a	<	[<1aa	<	4cc#X\	.	4aa\)	.
.	.	.	.	.	.	.	.	.	.	.	.	4r	.	4r	.
.	.	.	.	2ee\	.	2ggn\	.	.	.	.	.	2r	.	2r	.
!	!	!	!	!	!	!	!	!LO:LB:g=original	!	!	!	!	!	!	!
=102	=102	=102	=102	=102	=102	=102	=102	=102	=102	=102	=102	=102	=102	=102	=102
!LO:TX:a:t=2	!	!	!LO:DY:t=p.	!	!	!	!	!	!	!	!	!LO:TX:a:t=1	!	!LO:TX:a:t=1	!
1AA_	.	[<1a)	p	2dd\	.	2ff#\	.	1a_	.	1aa_<	.	1r	.	1r	.
.	.	.	.	2cc#\)	.	2ee\	.	.	.	.	.	.	.	.	.
=103	=103	=103	=103	=103	=103	=103	=103	=103	=103	=103	=103	=103	=103	=103	=103
!LO:TX:a:t=3	!	!	!	!	!	!	!	!	!	!	!	!	!	!	!
1AA_	.	1a_<	.	2dd\	.	2ff#\	.	1a_	.	1aa_<	.	2r	.	2r	.
!	!	!	!	!	!	!	!	!	!	!	!	!	!LO:DY:t=p:	!	!
.	.	.	.	(2f#X/	.	2dd\)	.	.	.	.	.	[2f#X/	p	(2dd\	.
!	!	!	!	!LO:LB:g=original	!	!	!	!	!	!LO:LB:g=original	!	!	!	!	!
=104	=104	=104	=104	=104	=104	=104	=104	=104	=104	=104	=104	=104	=104	=104	=104
!LO:TX:a:t=4	!	!	!	!	!	!	!	!	!	!	!	!	!	!	!
.	.	.	.	.	.	8qqee/	.	.	.	.	.	.	.	8qqee/	p
1AA_	.	1a_<	.	(2f#X/)	.	4dd\	.	1a_	.	1aa_<	.	2f#/]	.	4dd\)	.
.	.	.	.	.	.	8cc#X\L	.	.	.	.	.	.	.	8cc#X\L	.
.	.	.	.	.	.	8dd\J	.	.	.	.	.	.	.	8dd\J	.
.	.	.	.	2g#X/)	.	4ee\	.	.	.	.	.	(2g#X/	.	4ee\	.
.	.	.	.	.	.	4dd\	.	.	.	.	.	.	.	4dd\	.
=105	=105	=105	=105	=105	=105	=105	=105	=105	=105	=105	=105	=105	=105	=105	=105
!LO:TX:a:t=5	!	!	!	!	!	!	!	!	!	!	!	!	!	!	!
1AA_	.	1a]	.	2a/	.	(2cc#\	.	1a_	.	1aa_<	.	2a/)	.	2cc#X\	.
.	.	.	.	2gn/	.	2bn\	.	.	.	.	.	(2ggn\	.	(2bb\	.
=106	=106	=106	=106	=106	=106	=106	=106	=106	=106	=106	=106	=106	=106	=106	=106
!LO:TX:a:t=6	!	!	!	!	!	!	!	!	!	!	!LO:DY:t=rin	!	!	!	!
1AA_	.	[1A	.	2f#X/	.	2a/	.	1a_	rf	1aa_	rf	2ff#\	.	2aa\)	pp
.	.	.	.	2g/	.	2b/	.	.	f	.	.	2gg\)	<	(2bb\	.
!	!	!	!	!	!	!	!	!	!	!	!	!	!	!LO:LB:g=original	!
=107	=107	=107	=107	=107	=107	=107	=107	=107	=107	=107	=107	=107	=107	=107	=107
!LO:TX:a:t=7	!	!	!	!	!	!	!	!	!	!	!	!	!	!	!
1AA_	.	1A]	.	2f#/	.	2a/	.	1a_	.	1aa_<	.	2ff#\	.	2aa\)	.
.	.	.	.	2e/	.	2g/)	.	.	.	.	.	2ee\	.	2ggn\	.
!	!	!	!	!	!	!LO:LB:g=original	!	!	!	!	!	!	!	!	!
=108	=108	=108	=108	=108	=108	=108	=108	=108	=108	=108	=108	=108	=108	=108	=108
!LO:TX:a:t=8	!	!	!	!	!	!	!	!	!	!	!	!	!	!	!
.	.	.	.	8qqe/	.	8qqg/	.	.	.	.	.	8qqee/	.	8qqgg/	.
1AA]	.	1a	.	4d/	.	4f#/	.	1a]	.	(<1aa]	.	4dd\	.	4ff#\	.
.	.	.	.	8c#X/L	.	8e/L	.	.	.	.	.	8cc#X\L	.	8ee\L	.
.	.	.	.	8d/J	.	8f#/J	.	.	.	.	.	8dd\J	.	8ff#\J	.
.	.	.	.	8qqf#/	.	8qqa/	.	.	.	.	.	8qqff#/	.	8qqaa/	.
.	.	.	.	4e/	.	4g/	.	.	.	.	.	4ee\	.	4ggn\	.
.	.	.	.	8d/L	.	8f#/L	.	.	.	.	.	8dd\L	.	8ff#\L	.
.	.	.	.	8c#/J	.	8e/J	.	.	.	.	.	8cc#\J	.	8ee\J	.
!	!	!	!	!	!	!	!	!	!	!	!	!LO:LB:g=original	!	!	!
=109	=109	=109	=109	=109	=109	=109	=109	=109	=109	=109	=109	=109	=109	=109	=109
!	!	!	!	!	!	!	!LO:DY:t=fortiſ:	!	!	!	!LO:DY:t=fortiſ	!	!LO:DY:t=fortiſ	!	!
4D\	f	4d\	f	4d/	f	4d/	ff	4d/	f	4dd\)	ff	4dd\	ff	4dd\	f
8.D\L	.	8.d\L	.	8.d/L	.	8.d/L	.	8.d/L	.	8.dd\L	.	8.dd\L	.	8.dd\L	.
16D\Jk	.	16d\Jk	.	16d/Jk	.	16d/Jk	.	16d/Jk	.	16dd\Jk	.	16dd\Jk	.	16dd\Jk	.
4D\	.	4d\	.	4d/	.	4d/	.	4d/	.	4dd\	.	4dd\	.	4dd\	.
4D\	.	4d\	.	4d/	.	4d/	.	4d/	.	4dd\	.	4dd\	.	4dd\	.
=110	=110	=110	=110	=110	=110	=110	=110	=110	=110	=110	=110	=110	=110	=110	=110
4.D/	.	4.d\	.	4.d/	.	4.d/	.	4.d/	.	4.dd\	.	4.dd\	.	4.dd\	.
8AA/	.	8A/	.	8A/	.	8A/	.	8A/	.	8a/	.	8a/	.	8a\	.
4.D/	.	4.d\	.	4.d/	.	4.d/	.	4.d/	.	4.dd\	.	4.dd\	.	4.dd\	.
8AA/	.	8A/	.	8A/	.	8A/	.	8A/	.	8a/	.	8a/	.	8a/	.
!	!	!	!	!LO:LB:g=original	!	!	!	!	!	!	!	!	!	!	!
=111	=111	=111	=111	=111	=111	=111	=111	=111	=111	=111	=111	=111	=111	=111	=111
8D\L	.	8d\L	.	8d/L	.	8d/L	.	8d/L	.	8dd\L	.	8dd\L	.	8dd\L	.
8AA\	.	8A\	.	8A/	.	8A/	.	8A/	.	8a\	.	8a\	.	8a\	.
8D\	.	8d\	.	8d/	.	8d/	.	8d/	.	8dd\	.	8dd\	.	8dd\	.
8F#\J	.	8f#\J	.	8f#/J	.	8f#/J	.	8f#/J	.	8ff#\J	.	8ff#\J	.	8ff#\J	.
8D\L	.	4d\	.	8d/L	.	8d/L	.	4d/	.	4dd\	.	4dd\	.	4dd\	.
8A\	.	.	.	8a/	.	8a/	.	.	.	.	.	.	.	.	.
8F#\	.	4r	.	8f#/	.	8f#/	.	4r	.	4r	.	4r	.	4r	.
8d\J	.	.	.	8dd/J	.	8dd/J	.	.	.	.	.	.	.	.	.
!	!	!LO:PB:g=original	!	!	!	!	!	!LO:LB:g=original	!	!	!	!	!	!	!
=112	=112	=112	=112	=112	=112	=112	=112	=112	=112	=112	=112	=112	=112	=112	=112
4.AA/	.	8a\	.	8a/	.	8a/	.	[1a	.	[<1aa	.	1ee	f	1gg	.
.	.	4a\	.	4ee\	.	4gg\	.	.	.	.	.	.	.	.	.
16C#\LL	.	4a\	.	4ee\	.	4gg\	.	.	.	.	.	.	.	.	.
16E\JJ	.	.	.	.	.	.	.	.	.	.	.	.	.	.	.
8A\L	.	.	.	.	.	.	.	.	.	.	.	.	.	.	.
8E\	.	4a\	.	4ee\	.	4gg\	.	.	.	.	.	.	.	.	.
8C#\	.	.	.	.	.	.	.	.	.	.	.	.	.	.	.
8AA\J	.	8a\	.	8ee\	.	8gg\	.	.	.	.	.	.	.	.	.
!LO:PB:g=original	!	!	!	!	!	!	!	!	!	!	!	!	!	!	!
=113	=113	=113	=113	=113	=113	=113	=113	=113	=113	=113	=113	=113	=113	=113	=113
4D\	.	4d\	.	4dd\	.	4d/ 4a 4ff#	.	4a/]	.	4aa\]	.	4dd\	.	4ff#\	.
!	!	!	!	!	!LO::t=p:	!	!	!	!	!	!	!	!	!	!
8.D\L	p	8.d\L	p	8.d/L	p	8.d/L	p	4r	.	4r	.	4r	.	4r	.
16D\Jk	.	16d\Jk	.	16d/Jk	.	16d/Jk	.	.	.	.	.	.	.	.	.
4D\	.	4d\	.	4d/	.	4d/	.	2r	.	2r	.	2r	.	2r	.
4D\	.	4d\	.	4d/	.	4d/	.	.	.	.	.	.	.	.	.
!	!	!	!	!	!	!	!	!	!	!LO:LB:g=original	!	!	!	!	!
=114	=114	=114	=114	=114	=114	=114	=114	=114	=114	=114	=114	=114	=114	=114	=114
!	!	!	!	!	!	!	!	!LO:TX:a:t=2	!	!LO:TX:a:t=2	!	!LO:TX:a:t=2	!	!LO:TX:a:t=2	!
4.D/	.	4.d\	.	4.d/	.	4.d/	.	0r	.	0r	.	0r	.	0r	.
8AA/	.	8A/	.	8A/	.	8A/	.	.	.	.	.	.	.	.	.
!	!	!	!	!	!	!LO:LB:g=original	!	!	!	!	!	!	!	!	!
4.D/	.	4.d\	.	4.d/	.	4.d/	.	.	.	.	.	.	.	.	.
8AA/	.	8A/	.	8A/	.	8A/	.	.	.	.	.	.	.	.	.
=115	=115	=115	=115	=115	=115	=115	=115	=115	=115	=115	=115	=115	=115	=115	=115
8D\L	.	8d\L	.	8d/L	.	8d/L	.	.	.	.	.	.	.	.	.
8AA\	.	8A\	.	8A/	.	8A/	.	.	.	.	.	.	.	.	.
8D\	.	8d\	.	8d/	.	8d/	.	.	.	.	.	.	.	.	.
8F#\J	.	8f#\J	.	8f#/J	.	8f#/J	.	.	.	.	.	.	.	.	.
4D\	.	4d\	.	8d/L	.	8d/L	.	.	.	.	.	.	.	.	.
.	.	.	.	8a/	.	8a/	.	.	.	.	.	.	.	.	.
4r	.	4r	.	8f#/	.	8f#/	.	.	.	.	.	.	.	.	.
.	.	.	.	8dd/J	.	8dd/J	.	.	.	.	.	.	.	.	.
!	!	!	!	!	!	!	!	!	!	!	!	!	!	!LO:LB:g=original	!
=116	=116	=116	=116	=116	=116	=116	=116	=116	=116	=116	=116	=116	=116	=116	=116
!	!	!	!LO:DY:t=p	!	!	!	!LO:HP:t=crescen	!	!	!	!	!	!	!	!LO:HP:t=cres.
4.AA/	.	8a\	p	8a/	<	8a/	<	1a	.	1ee	.	(<1ee	<	(<1gg	<
.	.	4a\	.	4a\ 4ee	.	4gg\	.	.	.	.	.	.	.	.	.
16C#/LL	.	4a\	.	4a\ 4ee	.	4gg\	.	.	.	.	.	.	.	.	.
16E/JJ	.	.	.	.	.	.	.	.	.	.	.	.	.	.	.
4A\	.	.	.	.	.	.	.	.	.	.	.	.	.	.	.
.	.	4a\	.	4a\ 4ee	.	4gg\	.	.	.	.	.	.	.	.	.
4AA/	.	.	.	.	.	.	.	.	.	.	.	.	.	.	.
.	.	8a\	.	8ee\	.	8gg\	.	.	.	.	.	.	.	.	.
!	!	!	!	!LO:LB:g=original	!	!	!	!	!	!	!	!	!	!	!
=117	=117	=117	=117	=117	=117	=117	=117	=117	=117	=117	=117	=117	=117	=117	=117
*tremolo	*	*tremolo	*	*tremolo	*	*	*	*	*	*	*	*	*	*	*
!	!	!	!	!	!	!	!LO:DY:t=fortiſ:	!	!	!	!	!	!	!	!
8D\L	f	8f#\L	f	16dd\LL	f	4d/ 4a 4ff#	ff	[1d	.	[<1dd	.	(1dd)	f	1ff#)	f
.	.	.	.	16dd\	.	.	.	.	.	.	.	.	.	.	.
8D\	.	8f#\	.	16dd\	.	.	.	.	.	.	.	.	.	.	.
.	.	.	.	16dd\	.	.	.	.	.	.	.	.	.	.	.
8D\	.	8f#\	.	16dd\	.	16dd\LL	.	.	.	.	.	.	.	.	.
.	.	.	.	16dd\	.	16ee\	.	.	.	.	.	.	.	.	.
8D\J	.	8f#\J	.	16dd\	.	16ff#\	.	.	.	.	.	.	.	.	.
.	.	.	.	16dd\JJ	.	16ee\JJ	.	.	.	.	.	.	.	.	.
8Cn/L	.	8a\L	.	16dd\LL	.	4dd\	.	.	.	.	.	.	.	.	.
.	.	.	.	16dd\	.	.	.	.	.	.	.	.	.	.	.
8C/	.	8a\	.	16dd\	.	.	.	.	.	.	.	.	.	.	.
.	.	.	.	16dd\	.	.	.	.	.	.	.	.	.	.	.
8C/	.	8a\	.	16dd\	.	4r	.	.	.	.	.	.	.	.	.
.	.	.	.	16dd\	.	.	.	.	.	.	.	.	.	.	.
8C/J	.	8a\J	.	16dd\	.	.	.	.	.	.	.	.	.	.	.
.	.	.	.	16dd\JJ	.	.	.	.	.	.	.	.	.	.	.
=118	=118	=118	=118	=118	=118	=118	=118	=118	=118	=118	=118	=118	=118	=118	=118
8BB/L	.	8g\L	.	16dd\LL	.	4ggn\	.	1d_	.	1dd_<	.	(1dd)	.	(<1gg	.
.	.	.	.	16dd\	.	.	.	.	.	.	.	.	.	.	.
8BB/	.	8g\	.	16dd\	.	.	.	.	.	.	.	.	.	.	.
.	.	.	.	16dd\	.	.	.	.	.	.	.	.	.	.	.
8BB/	.	8g\	.	16dd\	.	16gg\LL	.	.	.	.	.	.	.	.	.
.	.	.	.	16dd\	.	16aa\	.	.	.	.	.	.	.	.	.
8BB/J	.	8g\J	.	16dd\	.	16bb\	.	.	.	.	.	.	.	.	.
.	.	.	.	16dd\JJ	.	16aa\JJ	.	.	.	.	.	.	.	.	.
8GGn/L	.	8b\L	.	16dd\LL	.	4gg\	.	.	.	.	.	.	.	.	.
.	.	.	.	16dd\	.	.	.	.	.	.	.	.	.	.	.
8GG/	.	8b\	.	16dd\	.	.	.	.	.	.	.	.	.	.	.
.	.	.	.	16dd\	.	.	.	.	.	.	.	.	.	.	.
8GG/	.	8b\	.	16dd\	.	4r	.	.	.	.	.	.	.	.	.
.	.	.	.	16dd\	.	.	.	.	.	.	.	.	.	.	.
8GG/J	.	8b\J	.	16dd\	.	.	.	.	.	.	.	.	.	.	.
.	.	.	.	16dd\JJ	.	.	.	.	.	.	.	.	.	.	.
=119	=119	=119	=119	=119	=119	=119	=119	=119	=119	=119	=119	=119	=119	=119	=119
8AA/L	.	8d\L	.	16dd\LL	.	8cccn\L	.	1d_	.	1dd_<	.	(<1dd)	.	1cccn)	.
.	.	.	.	16dd\	.	.	.	.	.	.	.	.	.	.	.
!	!	!	!	!	!	!LO:TX:a:t=sic!:s=8cc	!	!	!	!	!	!	!	!	!
8AA/	.	8d\	.	16dd\	.	8cc#\J	.	.	.	.	.	.	.	.	.
.	.	.	.	16dd\	.	.	.	.	.	.	.	.	.	.	.
8AA/	.	8d\	.	16dd\	.	2cc#\	.	.	.	.	.	.	.	.	.
.	.	.	.	16dd\	.	.	.	.	.	.	.	.	.	.	.
8AA/J	.	8d\J	.	16dd\	.	.	.	.	.	.	.	.	.	.	.
.	.	.	.	16dd\JJ	.	.	.	.	.	.	.	.	.	.	.
8F#X\L	.	8f#X\L	.	16dd\LL	.	.	.	.	.	.	.	.	.	.	.
.	.	.	.	16dd\	.	.	.	.	.	.	.	.	.	.	.
8F#\	.	8f#\	.	16dd\	.	.	.	.	.	.	.	.	.	.	.
.	.	.	.	16dd\	.	.	.	.	.	.	.	.	.	.	.
8F#\	.	8f#\	.	16dd\	.	(12ee\L	.	.	.	.	.	.	.	.	.
.	.	.	.	16dd\	.	.	.	.	.	.	.	.	.	.	.
.	.	.	.	.	.	12dd\	.	.	.	.	.	.	.	.	.
8F#\J	.	8f#\J	.	16dd\	.	.	.	.	.	.	.	.	.	.	.
.	.	.	.	.	.	12cc#\J)	.	.	.	.	.	.	.	.	.
.	.	.	.	16dd\JJ	.	.	.	.	.	.	.	.	.	.	.
!	!	!LO:LB:g=original	!	!	!	!LO:LB:g=original	!	!	!	!	!	!LO:LB:g=original	!	!	!
=120	=120	=120	=120	=120	=120	=120	=120	=120	=120	=120	=120	=120	=120	=120	=120
.	.	.	.	.	.	8qqcc#/	.	.	.	.	.	.	.	.	.
8G\L	.	8g\L	.	16dd\LL	.	8b\L	.	1d_	.	1dd_<	.	[<1dd	.	1bb	.
.	.	.	.	16dd\	.	.	.	.	.	.	.	.	.	.	.
8G\	.	8g\	.	16dd\	.	(16ee\L	.	.	.	.	.	.	.	.	.
.	.	.	.	16dd\	.	16dd\JJ)	.	.	.	.	.	.	.	.	.
8G\	.	8g\	.	16dd\	.	4dd\	.	.	.	.	.	.	.	.	.
.	.	.	.	16dd\	.	.	.	.	.	.	.	.	.	.	.
8G\J	.	8g\J	.	16dd\	.	.	.	.	.	.	.	.	.	.	.
.	.	.	.	16dd\JJ	.	.	.	.	.	.	.	.	.	.	.
8G\L	.	8g\L	.	16dd\LL	.	8r	.	.	.	.	.	.	.	.	.
.	.	.	.	16dd\	.	.	.	.	.	.	.	.	.	.	.
8B\	.	8d\	.	16dd\	.	8gg\L	.	.	.	.	.	.	.	.	.
.	.	.	.	16dd\	.	.	.	.	.	.	.	.	.	.	.
8A\	.	8d\	.	16dd\	.	8aa\	.	.	.	.	.	.	.	.	.
.	.	.	.	16dd\	.	.	.	.	.	.	.	.	.	.	.
8G\J	.	8d\J	.	16dd\	.	8bb\J	.	.	.	.	.	.	.	.	.
.	.	.	.	16dd\JJ	.	.	.	.	.	.	.	.	.	.	.
=121	=121	=121	=121	=121	=121	=121	=121	=121	=121	=121	=121	=121	=121	=121	=121
8A\L	.	2d\	.	16dd\LL	.	8cccn\L	.	1d_	.	1dd_<	.	1dd_<	.	1cccn	.
.	.	.	.	16dd\	.	.	.	.	.	.	.	.	.	.	.
8A\	.	.	.	16dd\	.	8bb\	.	.	.	.	.	.	.	.	.
.	.	.	.	16dd\	.	.	.	.	.	.	.	.	.	.	.
8A\	.	.	.	16dd\	.	8aa\	.	.	.	.	.	.	.	.	.
.	.	.	.	16dd\	.	.	.	.	.	.	.	.	.	.	.
8A\J	.	.	.	16dd\	.	8gg\J	.	.	.	.	.	.	.	.	.
.	.	.	.	16dd\JJ	.	.	.	.	.	.	.	.	.	.	.
8D\L	.	2f#\	.	16dd\LL	.	8ff#\L	.	.	.	.	.	.	.	.	.
.	.	.	.	16dd\	.	.	.	.	.	.	.	.	.	.	.
8D\	.	.	.	16dd\	.	8ee\	.	.	.	.	.	.	.	.	.
.	.	.	.	16dd\	.	.	.	.	.	.	.	.	.	.	.
8D\	.	.	.	16dd\	.	8dd\	.	.	.	.	.	.	.	.	.
.	.	.	.	16dd\	.	.	.	.	.	.	.	.	.	.	.
8D\J	.	.	.	16dd\	.	8ccn\J	.	.	.	.	.	.	.	.	.
.	.	.	.	16dd\JJ	.	.	.	.	.	.	.	.	.	.	.
!LO:LB:g=original	!	!	!	!	!	!	!	!	!	!	!	!	!	!	!
=122	=122	=122	=122	=122	=122	=122	=122	=122	=122	=122	=122	=122	=122	=122	=122
!	!	!	!	!	!	!LO:TX:a:t=sic!:s=8qcc	!	!	!	!	!	!	!	!	!
.	.	.	.	.	.	8qqcc#/	.	.	.	.	.	.	.	.	.
4.G\	.	4.g\	.	16dd\LL	.	8b\L	.	4d/]	.	4dd\]	.	2dd\]	.	2bb\	.
.	.	.	.	16dd\	.	.	.	.	.	.	.	.	.	.	.
.	.	.	.	16dd\	.	16a\L	.	.	.	.	.	.	.	.	.
.	.	.	.	16dd\	.	16g\JJ	.	.	.	.	.	.	.	.	.
.	.	.	.	16dd\	.	4g/	.	4r	.	4r	.	.	.	.	.
.	.	.	.	16dd\	.	.	.	.	.	.	.	.	.	.	.
8D\	.	8d\	.	16dd\	.	.	.	.	.	.	.	.	.	.	.
.	.	.	.	16dd\JJ	.	.	.	.	.	.	.	.	.	.	.
16GG/LL	.	16G/LL	.	16dd\LL	.	2r	.	2r	.	2r	.	2r	.	2r	.
16AA/	.	16A/	.	16dd\	.	.	.	.	.	.	.	.	.	.	.
16BB/	.	16B/	.	16dd\	.	.	.	.	.	.	.	.	.	.	.
16Cn/JJ	.	16cn/JJ	.	16dd\	.	.	.	.	.	.	.	.	.	.	.
16D\LL	.	16d\LL	.	16dd\	.	.	.	.	.	.	.	.	.	.	.
16E\	.	16e\	.	16dd\	.	.	.	.	.	.	.	.	.	.	.
16F#X\	.	16f#\	.	16dd\	.	.	.	.	.	.	.	.	.	.	.
16G\JJ	.	16g\JJ	.	16dd\JJ	.	.	.	.	.	.	.	.	.	.	.
=123	=123	=123	=123	=123	=123	=123	=123	=123	=123	=123	=123	=123	=123	=123	=123
8E\L	.	8e\L	.	16ee\LL	.	4gg#X\	.	[<1ee	.	[1ee	f	[<1een	.	(1gg#X	.
.	.	.	.	16ee\	.	.	.	.	.	.	.	.	.	.	.
8E\	.	8e\	.	16ee\	.	.	.	.	.	.	.	.	.	.	.
.	.	.	.	16ee\	.	.	.	.	.	.	.	.	.	.	.
8E\	.	8e\	.	16ee\	.	16gg#\LL	.	.	.	.	.	.	.	.	.
.	.	.	.	16ee\	.	16aa\	.	.	.	.	.	.	.	.	.
8E\J	.	8e\J	.	16ee\	.	16bb\	.	.	.	.	.	.	.	.	.
.	.	.	.	16ee\JJ	.	16aa\JJ	.	.	.	.	.	.	.	.	.
8Dn\L	.	8g#X\L	.	16ee\LL	.	4gg#\	.	.	.	.	.	.	.	.	.
.	.	.	.	16ee\	.	.	.	.	.	.	.	.	.	.	.
8D\	.	8g#\	.	16ee\	.	.	.	.	.	.	.	.	.	.	.
.	.	.	.	16ee\	.	.	.	.	.	.	.	.	.	.	.
8D\	.	8g#\	.	16ee\	.	4r	.	.	.	.	.	.	.	.	.
.	.	.	.	16ee\	.	.	.	.	.	.	.	.	.	.	.
8D\J	.	8g#\J	.	16ee\	.	.	.	.	.	.	.	.	.	.	.
.	.	.	.	16ee\JJ	.	.	.	.	.	.	.	.	.	.	.
=124	=124	=124	=124	=124	=124	=124	=124	=124	=124	=124	=124	=124	=124	=124	=124
8C#X/L	.	8a\L	.	16ee\LL	.	4aa\	.	1ee_<	.	1ee_<	.	1ee_<	.	(<1aa)	.
.	.	.	.	16ee\	.	.	.	.	.	.	.	.	.	.	.
8C#/	.	8a\	.	16ee\	.	.	.	.	.	.	.	.	.	.	.
.	.	.	.	16ee\	.	.	.	.	.	.	.	.	.	.	.
8C#/	.	8a\	.	16ee\	.	16aa\LL	.	.	.	.	.	.	.	.	.
.	.	.	.	16ee\	.	16bb\	.	.	.	.	.	.	.	.	.
8C#/J	.	8a\J	.	16ee\	.	16ccc#X\	.	.	.	.	.	.	.	.	.
.	.	.	.	16ee\JJ	.	16bb\JJ	.	.	.	.	.	.	.	.	.
8c#\L	.	16cc#X\LL	.	16ee\LL	.	4aa\	.	.	.	.	.	.	.	.	.
.	.	16cc#\	.	16ee\	.	.	.	.	.	.	.	.	.	.	.
8c#\	.	16cc#\	.	16ee\	.	.	.	.	.	.	.	.	.	.	.
.	.	16cc#\	.	16ee\	.	.	.	.	.	.	.	.	.	.	.
8c#\	.	16cc#\	.	16ee\	.	4r	.	.	.	.	.	.	.	.	.
.	.	16cc#\	.	16ee\	.	.	.	.	.	.	.	.	.	.	.
8c#\J	.	16cc#\	.	16ee\	.	.	.	.	.	.	.	.	.	.	.
.	.	16cc#\JJ	.	16ee\JJ	.	.	.	.	.	.	.	.	.	.	.
!	!	!	!	!LO:LB:g=original	!	!LO:LB:g=original	!	!LO:LB:g=original	!	!	!	!	!	!	!
=125	=125	=125	=125	=125	=125	=125	=125	=125	=125	=125	=125	=125	=125	=125	=125
8B\L	.	8b\L	.	16ee\LL	.	8ddd\L	.	1ee_<	.	1ee_<	.	1ee_<	.	(<1ddd)	.
.	.	.	.	16ee\	.	.	.	.	.	.	.	.	.	.	.
8B\	.	8b\	.	16ee\	.	8dd\J	.	.	.	.	.	.	.	.	.
.	.	.	.	16ee\	.	.	.	.	.	.	.	.	.	.	.
8B\	.	8b\	.	16ee\	.	2dd\	.	.	.	.	.	.	.	.	.
.	.	.	.	16ee\	.	.	.	.	.	.	.	.	.	.	.
8B\J	.	8b\J	.	16ee\	.	.	.	.	.	.	.	.	.	.	.
.	.	.	.	16ee\JJ	.	.	.	.	.	.	.	.	.	.	.
8G#X\L	.	8dd\L	.	16ee\LL	.	.	.	.	.	.	.	.	.	.	.
.	.	.	.	16ee\	.	.	.	.	.	.	.	.	.	.	.
8G#\	.	8dd\	.	16ee\	.	.	.	.	.	.	.	.	.	.	.
.	.	.	.	16ee\	.	.	.	.	.	.	.	.	.	.	.
.	.	.	.	.	.	8qqgg/	.	.	.	.	.	.	.	.	.
8G#\	.	8dd\	.	16ee\	.	8ff#\L	.	.	.	.	.	.	.	.	.
.	.	.	.	16ee\	.	.	.	.	.	.	.	.	.	.	.
8G#\J	.	8dd\J	.	16ee\	.	16ee\L	.	.	.	.	.	.	.	.	.
.	.	.	.	16ee\JJ	.	16dd\JJ	.	.	.	.	.	.	.	.	.
=126	=126	=126	=126	=126	=126	=126	=126	=126	=126	=126	=126	=126	=126	=126	=126
.	.	.	.	.	.	8qqdd/	.	.	.	.	.	.	.	.	.
8A\L	.	8cc#X\L	.	16ee\LL	.	8cc#X\L	.	1ee_<	.	1ee_<	.	1ee]	.	(<1ccc#X)	.
.	.	.	.	16ee\	.	.	.	.	.	.	.	.	.	.	.
8A\	.	8cc#\	.	16ee\	.	16ff#X\L	.	.	.	.	.	.	.	.	.
.	.	.	.	16ee\	.	16ee\JJ	.	.	.	.	.	.	.	.	.
8A\	.	8cc#\	.	16ee\	.	4ee\	.	.	.	.	.	.	.	.	.
.	.	.	.	16ee\	.	.	.	.	.	.	.	.	.	.	.
8A\J	.	8cc#\J	.	16ee\	.	.	.	.	.	.	.	.	.	.	.
.	.	.	.	16ee\JJ	.	.	.	.	.	.	.	.	.	.	.
8c#\L	.	4a\	.	16ee\LL	.	8r	.	.	.	.	.	.	.	.	.
.	.	.	.	16ee\	.	.	.	.	.	.	.	.	.	.	.
8c#\	.	.	.	16ee\	.	8aa\L	.	.	.	.	.	.	.	.	.
.	.	.	.	16ee\	.	.	.	.	.	.	.	.	.	.	.
8c#\	.	4r	.	16ee\	.	8bb\	.	.	.	.	.	.	.	.	.
.	.	.	.	16ee\	.	.	.	.	.	.	.	.	.	.	.
8c#\J	.	.	.	16ee\	.	8ccc#\J	.	.	.	.	.	.	.	.	.
.	.	.	.	16ee\JJ	.	.	.	.	.	.	.	.	.	.	.
!	!	!LO:LB:g=original	!	!	!	!	!	!	!	!LO:LB:g=original	!	!	!	!	!
=127	=127	=127	=127	=127	=127	=127	=127	=127	=127	=127	=127	=127	=127	=127	=127
8B\L	.	1e	.	8bbn\L	.	8ddd\L	.	(<1ee]	.	1ee]	.	8bb\L	.	8ddd\L)	.
8B\	.	.	.	8aa\	.	8ccc#\	.	.	.	.	.	8aa\	.	8ccc#\	.
8B\	.	.	.	8gg#X\	.	8bb\	.	.	.	.	.	8gg#X\	.	8bb\	.
8B\J	.	.	.	8ff#\J	.	8aa\J	.	.	.	.	.	8ff#X\J	.	8aa\J	.
8E\L	.	.	.	8ee\L	.	8gg#X\L	.	.	.	.	.	8ee\L	.	8gg#X\L	.
8E\	.	.	.	8dd\	.	8ff#\	.	.	.	.	.	8dd\	.	8ff#\	.
8E\	.	.	.	8cc#\	.	8ee\	.	.	.	.	.	8cc#X\	.	8ee\	.
8E\J	.	.	.	8b\J	.	8dd\J	.	.	.	.	.	8b\J	.	8dd\J	.
!	!	!	!	!	!	!	!	!	!	!	!	!	!	!LO:LB:g=original	!
=128	=128	=128	=128	=128	=128	=128	=128	=128	=128	=128	=128	=128	=128	=128	=128
4.AA/	.	4.a\	.	16a/LL	.	8cc#\	.	4r)	.	4r	.	4a/	.	4cc#X\	.
.	.	.	.	16a/	.	.	.	.	.	.	.	.	.	.	.
.	.	.	.	16a/	.	4a/ 4aa	.	.	.	.	.	.	.	.	.
.	.	.	.	16a/	.	.	.	.	.	.	.	.	.	.	.
.	.	.	.	16a/	.	.	.	8.a/L	.	8.aa\L	.	8.cc#X\L	.	8.aa\L	.
.	.	.	.	16a/	.	.	.	.	.	.	.	.	.	.	.
8A\	.	8a\	.	16a/	.	4a/ 4aa	.	.	.	.	.	.	.	.	.
.	.	.	.	16a/JJ	.	.	.	16a/Jk	.	16aa\Jk	.	16cc#\Jk	.	16aa\Jk	.
8E\L	.	8e\L	.	16a/LL	.	.	.	4a/	.	4aa\	.	4cc#\	.	4aa\	.
.	.	.	.	16a/	.	.	.	.	.	.	.	.	.	.	.
8A\	.	8a\	.	16a/	.	4a/ 4aa	.	.	.	.	.	.	.	.	.
.	.	.	.	16a/	.	.	.	.	.	.	.	.	.	.	.
8C#\	.	8c#X\	.	16a/	.	.	.	4a/	.	4aa\	.	4cc#\	.	4aa\	.
.	.	.	.	16a/	.	.	.	.	.	.	.	.	.	.	.
8E\J	.	8e\J	.	16a/	.	8a/ 8aa	.	.	.	.	.	.	.	.	.
.	.	.	.	16a/JJ	.	.	.	.	.	.	.	.	.	.	.
=129	=129	=129	=129	=129	=129	=129	=129	=129	=129	=129	=129	=129	=129	=129	=129
4AA/	.	4a\	.	16a/LL 16ee	.	16ggn\LL	.	[1a	.	[<1aa	.	1ee	.	(2ggn\	.
.	.	.	.	16a/ 16ee	.	16gg\	.	.	.	.	.	.	.	.	.
.	.	.	.	16a/ 16ee	.	16gg\	.	.	.	.	.	.	.	.	.
.	.	.	.	16a/ 16ee	.	16gg\	.	.	.	.	.	.	.	.	.
4A\	.	4a\	.	16a/ 16ee	.	16gg\	.	.	.	.	.	.	.	.	.
.	.	.	.	16a/ 16ee	.	16gg\	.	.	.	.	.	.	.	.	.
.	.	.	.	16a/ 16ee	.	16gg\	.	.	.	.	.	.	.	.	.
.	.	.	.	16a/JJ 16ee	.	16gg\JJ	.	.	.	.	.	.	.	.	.
4c#\	.	4a\	.	16a/LL 16ee	.	16gg\LL	.	.	.	.	.	.	.	2gg\	.
.	.	.	.	16a/ 16ee	.	16gg\	.	.	.	.	.	.	.	.	.
.	.	.	.	16a/ 16ee	.	16gg\	.	.	.	.	.	.	.	.	.
.	.	.	.	16a/ 16ee	.	16gg\	.	.	.	.	.	.	.	.	.
4r	.	4r	.	16a/ 16ee	.	16gg\	.	.	.	.	.	.	.	.	.
.	.	.	.	16a/ 16ee	.	16gg\	.	.	.	.	.	.	.	.	.
.	.	.	.	16a/ 16ee	.	16gg\	.	.	.	.	.	.	.	.	.
.	.	.	.	16a/JJ 16ee	.	16gg\JJ	.	.	.	.	.	.	.	.	.
!	!	!	!	!	!	!	!	!	!	!	!	!LO:LB:g=original	!	!	!
=130	=130	=130	=130	=130	=130	=130	=130	=130	=130	=130	=130	=130	=130	=130	=130
4D\	.	4a\	.	16dd\LL	.	16ff#\LL	.	1a_	.	1aa_<	.	(<1dd	.	2ff#\	.
.	.	.	.	16dd\	.	16ff#\	.	.	.	.	.	.	.	.	.
.	.	.	.	16dd\	.	16ff#\	.	.	.	.	.	.	.	.	.
.	.	.	.	16dd\	.	16ff#\	.	.	.	.	.	.	.	.	.
4A\	.	4a\	.	16dd\	.	16ff#\	.	.	.	.	.	.	.	.	.
.	.	.	.	16dd\	.	16ff#\	.	.	.	.	.	.	.	.	.
.	.	.	.	16dd\	.	16ff#\	.	.	.	.	.	.	.	.	.
.	.	.	.	16dd\JJ	.	16ff#\JJ	.	.	.	.	.	.	.	.	.
4d\	.	4a\	.	16dd\LL	.	16ff#\LL	.	.	.	.	.	.	.	2ff#\	.
.	.	.	.	16dd\	.	16ff#\	.	.	.	.	.	.	.	.	.
.	.	.	.	16dd\	.	16ff#\	.	.	.	.	.	.	.	.	.
.	.	.	.	16dd\	.	16ff#\	.	.	.	.	.	.	.	.	.
4r	.	4r	.	16dd\	.	16ff#\	.	.	.	.	.	.	.	.	.
.	.	.	.	16dd\	.	16ff#\	.	.	.	.	.	.	.	.	.
.	.	.	.	16dd\	.	16ff#\	.	.	.	.	.	.	.	.	.
.	.	.	.	16dd\JJ	.	16ff#\JJ	.	.	.	.	.	.	.	.	.
!LO:LB:g=original	!	!	!	!	!	!LO:LB:g=original	!	!	!	!	!	!	!	!	!
=131	=131	=131	=131	=131	=131	=131	=131	=131	=131	=131	=131	=131	=131	=131	=131
4AA/	.	4a\	.	16a/LL 16ee	.	16ggn\LL	.	1a_	.	1aa_<	.	(<1ee)	.	2gg\	.
.	.	.	.	16a/ 16ee	.	16gg\	.	.	.	.	.	.	.	.	.
.	.	.	.	16a/ 16ee	.	16gg\	.	.	.	.	.	.	.	.	.
.	.	.	.	16a/ 16ee	.	16gg\	.	.	.	.	.	.	.	.	.
4A\	.	4a\	.	16a/ 16ee	.	16gg\	.	.	.	.	.	.	.	.	.
.	.	.	.	16a/ 16ee	.	16gg\	.	.	.	.	.	.	.	.	.
.	.	.	.	16a/ 16ee	.	16gg\	.	.	.	.	.	.	.	.	.
.	.	.	.	16a/JJ 16ee	.	16gg\JJ	.	.	.	.	.	.	.	.	.
4c#\	.	4a\	.	16a/LL 16ee	.	16gg\LL	.	.	.	.	.	.	.	2gg\	.
.	.	.	.	16a/ 16ee	.	16gg\	.	.	.	.	.	.	.	.	.
.	.	.	.	16a/ 16ee	.	16gg\	.	.	.	.	.	.	.	.	.
.	.	.	.	16a/ 16ee	.	16gg\	.	.	.	.	.	.	.	.	.
4r	.	4r	.	16a/ 16ee	.	16gg\	.	.	.	.	.	.	.	.	.
.	.	.	.	16a/ 16ee	.	16gg\	.	.	.	.	.	.	.	.	.
.	.	.	.	16a/ 16ee	.	16gg\	.	.	.	.	.	.	.	.	.
.	.	.	.	16a/JJ 16ee	.	16gg\JJ	.	.	.	.	.	.	.	.	.
!	!	!	!	!LO:LB:g=original	!	!	!	!	!	!	!	!	!	!	!
=132	=132	=132	=132	=132	=132	=132	=132	=132	=132	=132	=132	=132	=132	=132	=132
4D\	.	4a\	.	16dd\LL	.	16ff#\LL	.	(<1a]	.	1aa]	.	(<1dd)	.	2ff#\	.
.	.	.	.	16dd\	.	16ff#\	.	.	.	.	.	.	.	.	.
.	.	.	.	16dd\	.	16ff#\	.	.	.	.	.	.	.	.	.
.	.	.	.	16dd\	.	16ff#\	.	.	.	.	.	.	.	.	.
4A\	.	4a\	.	16dd\	.	16ff#\	.	.	.	.	.	.	.	.	.
.	.	.	.	16dd\	.	16ff#\	.	.	.	.	.	.	.	.	.
.	.	.	.	16dd\	.	16ff#\	.	.	.	.	.	.	.	.	.
.	.	.	.	16dd\JJ	.	16ff#\JJ	.	.	.	.	.	.	.	.	.
4d\	.	4a\	.	16dd\LL	.	16ff#\LL	.	.	.	.	.	.	.	2ff#\)	.
.	.	.	.	16dd\	.	16ff#\	.	.	.	.	.	.	.	.	.
.	.	.	.	16dd\	.	16ff#\	.	.	.	.	.	.	.	.	.
.	.	.	.	16dd\	.	16ff#\	.	.	.	.	.	.	.	.	.
4r	.	4r	.	16dd\	.	16ff#\	.	.	.	.	.	.	.	.	.
.	.	.	.	16dd\	.	16ff#\	.	.	.	.	.	.	.	.	.
.	.	.	.	16dd\	.	16ff#\	.	.	.	.	.	.	.	.	.
.	.	.	.	16dd\JJ	.	16ff#\JJ	.	.	.	.	.	.	.	.	.
=133	=133	=133	=133	=133	=133	=133	=133	=133	=133	=133	=133	=133	=133	=133	=133
!	!	!	!	!	!	!	!	!LO:TX:a:t=1	!	!LO:LB:g=original	!	!	!	!	!
8G\L	.	8g\L	.	16b\LL	.	16ee\LL	.	1r)	.	1r	.	(<1b)	.	2ee\	.
.	.	.	.	16b\	.	16ee\	.	.	.	.	.	.	.	.	.
8F#\	.	8f#\	.	16b\	.	16ee\	.	.	.	.	.	.	.	.	.
.	.	.	.	16b\	.	16ee\	.	.	.	.	.	.	.	.	.
8G\	.	8g\	.	16b\	.	16ee\	.	.	.	.	.	.	.	.	.
.	.	.	.	16b\	.	16ee\	.	.	.	.	.	.	.	.	.
8G\J	.	8g\J	.	16b\	.	16ee\	.	.	.	.	.	.	.	.	.
.	.	.	.	16b\JJ	.	16ee\JJ	.	.	.	.	.	.	.	.	.
8G#X\L	.	8g#X\L	.	16b\LL	.	16dd\LL	.	.	.	.	.	.	.	2dd\	.
.	.	.	.	16b\	.	16dd\	.	.	.	.	.	.	.	.	.
8F#\	.	8f#\	.	16b\	.	16dd\	.	.	.	.	.	.	.	.	.
.	.	.	.	16b\	.	16dd\	.	.	.	.	.	.	.	.	.
8G#\	.	8g#\	.	16b\	.	16dd\	.	.	.	.	.	.	.	.	.
.	.	.	.	16b\	.	16dd\	.	.	.	.	.	.	.	.	.
8G#\J	.	8g#\J	.	16b\	.	16dd\	.	.	.	.	.	.	.	.	.
.	.	.	.	16b\JJ	.	16dd\JJ	.	.	.	.	.	.	.	.	.
=134	=134	=134	=134	=134	=134	=134	=134	=134	=134	=134	=134	=134	=134	=134	=134
8A\L	.	4a\	.	4a/	.	4cc#X\	.	4a/	.	4aa\	.	4a/)	.	4ee\	.
8A\	.	.	.	.	.	.	.	.	.	.	.	.	.	.	.
8E\	.	4a\	.	4A/ 4e 4cc#	.	4a/ 4aa	.	4a/	.	4aa\	.	4cc#X\	.	4aa`\	.
8C#\J	.	.	.	.	.	.	.	.	.	.	.	.	.	.	.
!LO:TX:a:t=problem:mixed beam	!	!	!	!	!	!	!	!	!	!	!	!	!	!	!
(8AA/L	.	4a\	.	4A/ 4e 4cc#	.	4a/ 4aa	.	4a/	.	4aa\	.	4cc#\	.	4aa`\	.
8Gn\	.	.	.	.	.	.	.	.	.	.	.	.	.	.	.
8F#\	.	4r	.	4r	.	4r	.	4r	.	4r	.	4r	.	4r	.
8E\J)	.	.	.	.	.	.	.	.	.	.	.	.	.	.	.
!	!	!LO:LB:g=original	!	!	!	!	!	!	!	!	!	!	!	!	!
=135	=135	=135	=135	=135	=135	=135	=135	=135	=135	=135	=135	=135	=135	=135	=135
!	!LO:DY:t=p:	!	!	!LO:TX:b:t=dol:	!	!LO:TX:b:t=dolce	!	!LO:TX:a:t=8	!	!LO:TX:a:t=8	!	!LO:TX:b:t=dolce	!	!LO:TX:b:t=dolce	!
8D\L	p	8d\L	p	4f#/	.	4a/	.	00r	.	00r	.	4ff#\	.	4aa\	.
8D\	.	8d\	.	.	.	.	.	.	.	.	.	.	.	.	.
8D\	.	8d\	.	2f#/	.	2a/	.	.	.	.	.	2ff#\	.	2aa\	.
8D\J	.	8d\J	.	.	.	.	.	.	.	.	.	.	.	.	.
8D\L	.	8d\L	.	.	.	.	.	.	.	.	.	.	.	.	.
8D\	.	8d\	.	.	.	.	.	.	.	.	.	.	.	.	.
8D\	.	8d\	.	(8gn/L	p	8b/L	.	.	.	.	.	8ggn\L	.	8bbn\L	.
!	!	!	!	!	!	!	!LO:DY:t=p:	!	!	!	!	!	!	!	!
8D\J	.	8d\J	.	8e/J)	.	8gn/J	p	.	.	.	.	8ee\J	.	8ggn\J	.
!	!	!	!	!	!	!	!	!	!	!	!	!	!	!LO:LB:g=original	!
=136	=136	=136	=136	=136	=136	=136	=136	=136	=136	=136	=136	=136	=136	=136	=136
8D\L	.	8d\L	.	(8e/L	.	(8g/L	.	.	.	.	.	(8ee\L	.	(8gg\L	.
8D\	.	8d\	.	8d/J)	.	8f#/J)	.	.	.	.	.	8dd\J)	.	8ff#\J)	.
8D\	.	8d\	.	2d/	.	2f#/	.	.	.	.	.	2dd\	.	2ff#\	.
8D\J	.	8d\J	.	.	.	.	.	.	.	.	.	.	.	.	.
8D\L	.	8d\L	.	.	.	.	.	.	.	.	.	.	.	.	.
8D\	.	8d\	.	.	.	.	.	.	.	.	.	.	.	.	.
8D\	.	8d\	.	4d/	.	8.dd/L	.	.	.	.	.	4dd\	.	8.ddd\L	.
8D\J	.	8d\J	.	.	.	.	.	.	.	.	.	.	.	.	.
.	.	.	.	.	.	16f#/Jk	.	.	.	.	.	.	.	16ff#\Jk	.
=137	=137	=137	=137	=137	=137	=137	=137	=137	=137	=137	=137	=137	=137	=137	=137
8A\L	.	8a\L	.	(8d/L	.	(8f#/L	.	.	.	.	.	(8dd\L	.	(8ff#\L	.
8A\	.	8a\	.	8c#/J)	.	8e/J)	.	.	.	.	.	8cc#X\J)	.	8ee\J)	.
8A\	.	8a\	.	2c#/	.	2e/	.	.	.	.	.	2cc#\	.	2ee\	.
8A\J	.	8a\J	.	.	.	.	.	.	.	.	.	.	.	.	.
8A\L	.	8a\L	.	.	.	.	.	.	.	.	.	.	.	.	.
8A\	.	8a\	.	.	.	.	.	.	.	.	.	.	.	.	.
8A\	.	8a\	.	8f#/L	.	8a/L	.	.	.	.	.	8ff#\L	.	8aa\L	.
8A\J	.	8a\J	.	8e/J	.	8g/J	.	.	.	.	.	8ee\J	.	8gg\J	.
=138	=138	=138	=138	=138	=138	=138	=138	=138	=138	=138	=138	=138	=138	=138	=138
8D\L	.	8d\L	.	(8e/L	.	8g/L	.	.	.	.	.	8ee\L	.	8gg\L	.
8D\	.	8d\	.	8d/J)	.	8f#/J	.	.	.	.	.	8dd\J	.	8ff#\J	.
8D\	.	8d\	.	2d/	.	2f#/	.	.	.	.	.	2dd\	.	2ff#\	.
8D\J	.	8d\J	.	.	.	.	.	.	.	.	.	.	.	.	.
8D\L	.	8d\L	.	.	.	.	.	.	.	.	.	.	.	.	.
8D\	.	8d\	.	.	.	.	.	.	.	.	.	.	.	.	.
!	!	!	!	!	!	!LO:TX:a:t=problem:mixed beam	!	!	!	!	!	!	!	!	!
8D\	.	8d\	.	4d/	.	8dd\L	.	.	.	.	.	4dd\	.	8.ddd\L	.
8D\J	.	8d\J	.	.	.	8f#/J	.	.	.	.	.	.	.	.	.
.	.	.	.	.	.	.	.	.	.	.	.	.	.	16ff#\Jk	.
!	!	!	!	!LO:LB:g=original	!	!LO:LB:g=original	!	!	!	!	!	!LO:LB:g=original	!	!	!
=139	=139	=139	=139	=139	=139	=139	=139	=139	=139	=139	=139	=139	=139	=139	=139
8A\L	.	8a\L	.	8d/L	.	8f#/L	.	00r	.	00r	.	8dd\L	.	8ff#\L	.
8A\	.	8a\	.	8c#X/J	.	8e/J	.	.	.	.	.	8cc#\J	.	8ee\J	.
8A\	.	8a\	.	2c#/	.	2e/	.	.	.	.	.	2cc#\	.	2ee\	.
8A\J	.	8a\J	.	.	.	.	.	.	.	.	.	.	.	.	.
4AA/	.	8a\L	.	.	.	.	.	.	.	.	.	.	.	.	.
.	.	8a\	.	.	.	.	.	.	.	.	.	.	.	.	.
4r	.	8a\	.	(8f#/L	.	(8a/L	.	.	.	.	.	8ff#\L	.	8aa\L	.
.	.	8a\J	.	8e/J)	.	8g/J)	.	.	.	.	.	8ee\J	.	8gg\J	.
!LO:LB:g=original	!	!	!	!	!	!	!	!	!	!	!	!	!	!	!
=140	=140	=140	=140	=140	=140	=140	=140	=140	=140	=140	=140	=140	=140	=140	=140
8r	.	8r	.	2e/	.	2g/	.	.	.	.	.	(2ee\	.	(2gg\	.
(8AA/L	.	8A/L	.	.	.	.	.	.	.	.	.	.	.	.	.
8BB/	.	8B/	.	.	.	.	.	.	.	.	.	.	.	.	.
8C#X/J)	.	8c#/J	.	.	.	.	.	.	.	.	.	.	.	.	.
8D/L	.	8d/L	.	4d/	.	4f#/	.	.	.	.	.	4dd\)	.	4ff#\)	.
8AA/	.	8A/	.	.	.	.	.	.	.	.	.	.	.	.	.
8FF#/	.	8F#/	.	4r	.	4r	.	.	.	.	.	4r	.	4r	.
8DD/J	.	8D/J	.	.	.	.	.	.	.	.	.	.	.	.	.
=141	=141	=141	=141	=141	=141	=141	=141	=141	=141	=141	=141	=141	=141	=141	=141
!	!	!	!	!	!	!	!	!	!	!	!	!LO:TX:a:t=2	!	!LO:TX:a:t=2	!
(2G\	.	2g\	.	(1B	.	(8b/L	.	.	.	.	.	0r	.	0r	.
.	.	.	.	.	.	8g/	.	.	.	.	.	.	.	.	.
.	.	.	.	.	.	8f#/	.	.	.	.	.	.	.	.	.
.	.	.	.	.	.	8e/J	.	.	.	.	.	.	.	.	.
2GG/	.	2G/	.	.	.	8d#X/L	.	.	.	.	.	.	.	.	.
.	.	.	.	.	.	8e/	.	.	.	.	.	.	.	.	.
.	.	.	.	.	.	8g/	.	.	.	.	.	.	.	.	.
.	.	.	.	.	.	8b/J)	.	.	.	.	.	.	.	.	.
=142	=142	=142	=142	=142	=142	=142	=142	=142	=142	=142	=142	=142	=142	=142	=142
!	!	!LO:TX:a:t=fis	!	!	!	!	!	!	!	!	!	!	!	!	!
1FF#)	.	2f#X\	.	(1A)	.	(8a/L	.	.	.	.	.	.	.	.	.
.	.	.	.	.	.	8f#/	.	.	.	.	.	.	.	.	.
.	.	.	.	.	.	8e/	.	.	.	.	.	.	.	.	.
.	.	.	.	.	.	8dn/J	.	.	.	.	.	.	.	.	.
.	.	2F#/	.	.	.	8c#/L	.	.	.	.	.	.	.	.	.
.	.	.	.	.	.	8d/	.	.	.	.	.	.	.	.	.
.	.	.	.	.	.	8f#/	.	.	.	.	.	.	.	.	.
.	.	.	.	.	.	8a/J)	.	.	.	.	.	.	.	.	.
=143	=143	=143	=143	=143	=143	=143	=143	=143	=143	=143	=143	=143	=143	=143	=143
8AA/L	.	8A/L	.	4c#/)	.	4e/	.	4r	.	4r	.	4cc#\	.	4ee\	.
8AA/	.	8A/	.	.	.	.	.	.	.	.	.	.	.	.	.
8AA/	.	8A/	.	2c#/	.	2e/	.	8.a/L	pp	8.aa\L	pp	2cc#\	.	2ee\	.
8AA/J	.	8A/J	.	.	.	.	.	.	.	.	.	.	.	.	.
.	.	.	.	.	.	.	.	16a/Jk	.	16aa\Jk	.	.	.	.	.
8AA/L	.	8A/L	.	.	.	.	.	4a/	.	4aa\	.	.	.	.	.
8AA/	.	8A/	.	.	.	.	.	.	.	.	.	.	.	.	.
8AA/	.	8A/	.	8dn/L	.	(8f#/L	.	4r	.	4r	.	(8dd\L	.	(8ff#X\L	.
8AA/J	.	8A/J	.	8e/J	.	8g/J)	.	.	.	.	.	8ee\J)	.	8ggn\J)	.
!	!	!LO:LB:g=original	!	!	!	!	!	!LO:LB:g=original	!	!	!	!	!	!LO:LB:g=original	!
=144	=144	=144	=144	=144	=144	=144	=144	=144	=144	=144	=144	=144	=144	=144	=144
4D\	.	4d\	.	4d/	.	4f#/	.	4r	.	4r	.	4dd\	.	4ff#\	.
4r	.	4r	.	2d/	.	2f#/	.	8.a/L	.	8.aa\L	.	2dd\	.	2ff#\	.
.	.	.	.	.	.	.	.	16a/Jk	.	16aa\Jk	.	.	.	.	.
!	!	!	!	!	!	!	!	!	!	!LO:LB:g=original	!	!	!	!	!
4DD/	.	4D/	.	.	.	.	.	4a/	.	4aa\	.	.	.	.	.
4r	.	4r	.	8e/L	.	8g/L	.	4r	.	4r	.	(8ee\L	.	(8gg\L	.
.	.	.	.	8f#/J	.	8a/J	.	.	.	.	.	8ff#\J)	.	8aa\J)	.
=145	=145	=145	=145	=145	=145	=145	=145	=145	=145	=145	=145	=145	=145	=145	=145
!	!	!	!	!	!	!	!	!LO:TX:a:t=3	!	!LO:TX:a:t=3	!	!	!	!	!
4GG/	.	4G/	.	4gn/	.	4b\	.	0r	.	0r	.	4ggn\	.	4bb\	.
4r	.	4r	.	4.g/	.	4.b\	.	.	.	.	.	4.gg\	.	4.bb\	.
4G\	.	4g\	.	.	.	.	.	.	.	.	.	.	.	.	.
.	.	.	.	8a/L	.	(8cc#\L	.	.	.	.	.	8aa\L	.	8ccc#X\L	.
4r	.	4r	.	8b/	.	8dd\	.	.	.	.	.	8bb\	.	8ddd\	.
.	.	.	.	8g/J	.	8b\J)	.	.	.	.	.	8gg\J	.	8bb\J	.
!	!	!	!	!LO:LB:g=original	!	!LO:LB:g=original	!	!	!	!	!	!	!	!	!
=146	=146	=146	=146	=146	=146	=146	=146	=146	=146	=146	=146	=146	=146	=146	=146
.	.	.	.	8qqg/	.	8qqb/	.	.	.	.	.	8qqgg/	.	8qqbb/	.
4DD/	.	4d\	.	4f#/	.	4a/	.	.	.	.	.	4ff#\	.	4aa\	.
4r	.	4r	.	4.f#/	.	4.a/	.	.	.	.	.	4.ff#\	.	4.aa\	.
4D\	.	4d\	.	.	.	.	.	.	.	.	.	.	.	.	.
.	.	.	.	8g/L	.	8b/L	.	.	.	.	.	8gg\L	.	8bb\L	.
4r	.	4r	.	8e/	.	8cc#/	.	.	.	.	.	8ee\	.	8ccc#\	.
.	.	.	.	8f#/J	.	8dd/J	.	.	.	.	.	8ff#\J	.	8ddd\J	.
=147	=147	=147	=147	=147	=147	=147	=147	=147	=147	=147	=147	=147	=147	=147	=147
2G\	.	2g\	.	8gn/L	.	8b/L	.	1r	.	1r	.	8gg\L	.	8bb\L	.
.	.	.	.	8b/	.	8dd/	.	.	.	.	.	8bb\	.	8ddd\	.
.	.	.	.	8a/	.	8cc#/	.	.	.	.	.	8aa\	.	8ccc#\	.
.	.	.	.	8g/J	.	8b/J	.	.	.	.	.	8gg\J	.	8bb\J	.
4A\	.	4a\	.	8f#/L	.	8a/L	.	.	.	.	.	8ff#\L	.	8aa\L	.
.	.	.	.	8e/	.	8g/	.	.	.	.	.	8ee\	.	8ggn\	.
4AA/	.	4A/	.	8d/	.	8f#/	.	.	.	.	.	8dd\	.	8ff#\	.
.	.	.	.	8c#X/J	.	8e/J	.	.	.	.	.	8cc#X\J	.	8ee\J	.
!	!	!	!	!	!	!	!	!	!	!	!	!LO:PB:g=original	!	!	!
=148	=148	=148	=148	=148	=148	=148	=148	=148	=148	=148	=148	=148	=148	=148	=148
*	*	*	*	*	*	*Xtremolo	*	*	*	*	*	*	*	*	*
!	!	!	!	!	!	!	!LO:HP:t=crescendo	!	!	!	!	!	!	!	!
8D\L	<	8d\L	.	16d/LL	<	16d/LL	<	[1d	<	[<1dd	<	4dd\	.	4dd\	.
.	.	.	.	16d/	.	16d/	.	.	.	.	.	.	.	.	.
8D\	.	8d\	.	16d/	.	16d/	.	.	.	.	.	.	.	.	.
.	.	.	.	16d/JJ	.	16d/JJ	.	.	.	.	.	.	.	.	.
*	*	*	*	*	*	*tremolo	*	*	*	*	*	*	*	*	*
8D\	.	8d\	.	16c#X/LL	.	16e/LL	.	.	.	.	.	4r	.	4r	.
.	.	.	.	16c#/	.	16e/	.	.	.	.	.	.	.	.	.
8D\J	.	8d\J	.	16c#/	.	16e/	.	.	.	.	.	.	.	.	.
.	.	.	.	16c#/JJ	.	16e/JJ	.	.	.	.	.	.	.	.	.
8D\L	.	8d\L	<	16d/LL	.	16f#/LL	.	.	.	.	.	2r	.	2r	.
.	.	.	.	16d/	.	16f#/	.	.	.	.	.	.	.	.	.
8D\	.	8d\	.	16d/	.	16f#/	.	.	.	.	.	.	.	.	.
.	.	.	.	16d/	.	16f#/JJ	.	.	.	.	.	.	.	.	.
8D\	.	8d\	.	16d/	.	16d/LL	.	.	.	.	.	.	.	.	.
.	.	.	.	16d/	.	16d/	.	.	.	.	.	.	.	.	.
8D\J	.	8d\J	.	16d/	.	16d/	.	.	.	.	.	.	.	.	.
.	.	.	.	16d/JJ	.	16d/JJ	.	.	.	.	.	.	.	.	.
=149	=149	=149	=149	=149	=149	=149	=149	=149	=149	=149	=149	=149	=149	=149	=149
!	!	!	!	!	!	!	!	!	!	!	!	!	!	!	!LO:HP:t=cres.
8D\L	.	8d\L	.	16c#/LL	.	16e/LL	.	1d_	.	1dd_<	.	4cc#X\	<	4ee\	<
.	.	.	.	16c#/	.	16e/	.	.	.	.	.	.	.	.	.
8D\	.	8d\	.	16c#/	.	16e/	.	.	.	.	.	.	.	.	.
.	.	.	.	16c#/JJ	.	16e/JJ	.	.	.	.	.	.	.	.	.
8D\	.	8d\	.	16d/LL	.	16f#/LL	.	.	.	.	.	4dd\	.	4ff#\	.
.	.	.	.	16d/	.	16f#/	.	.	.	.	.	.	.	.	.
8D\J	.	8d\J	.	16d/	.	16f#/	.	.	.	.	.	.	.	.	.
.	.	.	.	16d/JJ	.	16f#/JJ	.	.	.	.	.	.	.	.	.
8D\L	.	8d\L	.	16e/LL	.	16g/LL	.	.	.	.	.	4ee\	.	4gg\	.
.	.	.	.	16e/	.	16g/	.	.	.	.	.	.	.	.	.
8D\	.	8d\	.	16e/	.	16g/	.	.	.	.	.	.	.	.	.
.	.	.	.	16e/JJ	.	16g/JJ	.	.	.	.	.	.	.	.	.
8D\	.	8d\	.	16c#/LL	.	16e/LL	.	.	.	.	.	4cc#\	.	4ee\	.
.	.	.	.	16c#/	.	16e/	.	.	.	.	.	.	.	.	.
8D\J	.	8d\J	.	16c#/	.	16e/	.	.	.	.	.	.	.	.	.
.	.	.	.	16c#/JJ	.	16e/JJ	.	.	.	.	.	.	.	.	.
!LO:LB:g=original	!	!	!	!	!	!	!	!	!	!	!	!	!	!	!
=150	=150	=150	=150	=150	=150	=150	=150	=150	=150	=150	=150	=150	=150	=150	=150
8D\L	.	8d\L	.	16d/LL	.	16f#/LL	.	1d_	.	1dd_<	.	4dd\	.	4ff#\	.
.	.	.	.	16d/	.	16f#/	.	.	.	.	.	.	.	.	.
8D\	.	8d\	.	16d/	.	16f#/	.	.	.	.	.	.	.	.	.
.	.	.	.	16d/JJ	.	16f#/JJ	.	.	.	.	.	.	.	.	.
8D\	.	8d\	.	16e/LL	.	16g/LL	.	.	.	.	.	4ee\	.	4gg\	.
.	.	.	.	16e/	.	16g/	.	.	.	.	.	.	.	.	.
8D\J	.	8d\J	.	16e/	.	16g/	.	.	.	.	.	.	.	.	.
.	.	.	.	16e/JJ	.	16g/JJ	.	.	.	.	.	.	.	.	.
!	!	!	!	!	!	!	!LO:DY:t=rinfor	!	!	!	!	!	!	!	!
8D\L	.	8d\L	.	16f#/LL	.	16a/LL	rf	.	.	.	.	4ff#\	.	4aa\	.
.	.	.	.	16f#/	.	16a/	.	.	.	.	.	.	.	.	.
8D\	.	8d\	.	16f#/	.	16a/	.	.	.	.	.	.	.	.	.
.	.	.	.	16f#/JJ	.	16a/JJ	.	.	.	.	.	.	.	.	.
8D\	.	8d\	.	16d/LL	.	16f#/LL	.	.	.	.	.	4dd\	.	4ff#\	.
.	.	.	.	16d/	.	16f#/	.	.	.	.	.	.	.	.	.
8D\J	.	8d\J	.	16d/	.	16f#/	.	.	.	.	.	.	.	.	.
.	.	.	.	16d/JJ	.	16f#/JJ	.	.	.	.	.	.	.	.	.
!	!	!	!	!	!	!	!	!	!	!	!	!	!	!LO:PB:g=original	!
=151	=151	=151	=151	=151	=151	=151	=151	=151	=151	=151	=151	=151	=151	=151	=151
8D\L	.	8d\L	.	16e/LL	.	16g/LL	.	1d_	.	1dd_<	.	4ee\	.	4gg\	.
.	.	.	.	16e/	.	16g/	.	.	.	.	.	.	.	.	.
8D\	.	8d\	.	16e/	.	16g/	.	.	.	.	.	.	.	.	.
.	.	.	.	16e/JJ	.	16g/JJ	.	.	.	.	.	.	.	.	.
8D\	.	8d\	.	16f#/LL	.	16a/LL	.	.	.	.	.	4ff#\	.	4aa\	.
.	.	.	.	16f#/	.	16a/	.	.	.	.	.	.	.	.	.
8D\J	.	8d\J	.	16f#/	.	16a/	.	.	.	.	.	.	.	.	.
.	.	.	.	16f#/JJ	.	16a/JJ	.	.	.	.	.	.	.	.	.
8D\L	.	8d\L	.	16g/LL	.	16b\LL	.	.	.	.	.	4ggn\	.	4bb\	.
.	.	.	.	16g/	.	16b\	.	.	.	.	.	.	.	.	.
8D\	.	8d\	.	16g/	.	16b\	.	.	.	.	.	.	.	.	.
.	.	.	.	16g/JJ	.	16b\JJ	.	.	.	.	.	.	.	.	.
!	!	!	!	!LO:LB:g=original	!	!	!	!	!	!	!	!	!	!	!
8D\	.	8d\	.	16e/LL	.	16cc#\LL	.	.	.	.	.	4ee\	.	4ccc#X\	.
.	.	.	.	16e/	.	16cc#\	.	.	.	.	.	.	.	.	.
8D\J	.	8d\J	.	16e/	.	16cc#\	.	.	.	.	.	.	.	.	.
.	.	.	.	16e/JJ	.	16cc#\JJ	.	.	.	.	.	.	.	.	.
!	!	!	!	!	!	!LO:LB:g=original	!	!	!	!	!	!	!	!	!
=152	=152	=152	=152	=152	=152	=152	=152	=152	=152	=152	=152	=152	=152	=152	=152
!	!	!	!	!	!LO:DY:t=fortiſ:	!	!LO:DY:t=fortiſ	!	!	!	!	!	!LO:DY:t=fortiſ	!	!
4D\	.	4d\	f	(16f#/LL	ff	8dd\L	ff	4d/]	f	4dd\]	f	1ff#	ff	(<1ddd	f
.	.	.	.	16a/)	.	.	.	.	.	.	.	.	.	.	.
.	.	.	.	(16f#/	.	16ee\L	.	.	.	.	.	.	.	.	.
.	.	.	.	16a/)	.	16ff#\JJ	.	.	.	.	.	.	.	.	.
4r	.	4r	.	(16f#/	.	16gg\LL	.	4r	.	4r	.	.	.	.	.
.	.	.	.	16a/)	.	16aa\	.	.	.	.	.	.	.	.	.
.	.	.	.	(16f#/	.	16bb\	.	.	.	.	.	.	.	.	.
.	.	.	.	16a/JJ)	.	16ccc#\JJ	.	.	.	.	.	.	.	.	.
!	!LO:DY:t=fortiſ:	!	!	!	!	!	!	!	!	!	!	!	!	!	!
4d\	ff	4d\	.	(16f#/LL	.	8ddd\L	.	4d/	.	4dd\	.	.	.	.	.
.	.	.	.	16a/)	.	.	.	.	.	.	.	.	.	.	.
.	.	.	.	(16f#/	.	8aa\	.	.	.	.	.	.	.	.	.
.	.	.	.	16a/)	.	.	.	.	.	.	.	.	.	.	.
4r	.	4r	.	(16f#/	.	8ff#\	.	4r	.	4r	.	.	.	.	.
.	.	.	.	16a/)	.	.	.	.	.	.	.	.	.	.	.
.	.	.	.	(16f#/	.	8dd\J	.	.	.	.	.	.	.	.	.
.	.	.	.	16a/JJ)	.	.	.	.	.	.	.	.	.	.	.
!	!	!LO:LB:g=original	!	!	!	!	!	!	!	!	!	!	!	!	!
=153	=153	=153	=153	=153	=153	=153	=153	=153	=153	=153	=153	=153	=153	=153	=153
8GG/L	.	8G/L	.	(16g/LL	.	2b\	.	4d/	.	4dd\	.	(<1dd	.	(<1bb)	.
.	.	.	.	16b/)	.	.	.	.	.	.	.	.	.	.	.
16AA/L	.	16A/L	.	(16g/	.	.	.	.	.	.	.	.	.	.	.
16BB/JJ	.	16B/JJ	.	16b/)	.	.	.	.	.	.	.	.	.	.	.
16Cn\LL	.	16cn\LL	.	(16g/	.	.	.	8.d/L	.	8.dd\L	.	.	.	.	.
16D\	.	16d\	.	16b/)	.	.	.	.	.	.	.	.	.	.	.
16E\	.	16e\	.	(16g/	.	.	.	.	.	.	.	.	.	.	.
16F#\JJ	.	16f#\JJ	.	16b/JJ)	.	.	.	16d/Jk	.	16dd\Jk	.	.	.	.	.
8G/L	.	8g\L	.	(16g/LL	.	2bb\	.	4d/	.	4dd\	.	.	.	.	.
.	.	.	.	16b/)	.	.	.	.	.	.	.	.	.	.	.
8D/	.	8d\	.	(16g/	.	.	.	.	.	.	.	.	.	.	.
.	.	.	.	16b/)	.	.	.	.	.	.	.	.	.	.	.
8BB/	.	8B\	.	(16g/	.	.	.	4r	.	4r	.	.	.	.	.
.	.	.	.	16b/)	.	.	.	.	.	.	.	.	.	.	.
8GG/J	.	8G\J	.	(16g/	.	.	.	.	.	.	.	.	.	.	.
.	.	.	.	16b/JJ)	.	.	.	.	.	.	.	.	.	.	.
!	!	!	!	!	!	!	!	!LO:LB:g=original	!	!	!	!	!	!	!
=154	=154	=154	=154	=154	=154	=154	=154	=154	=154	=154	=154	=154	=154	=154	=154
2AA/	.	2A/	.	(16e/LL	.	16cc#\LL	.	4a/	.	4ee\	.	1ee)	.	2aa\)	.
.	.	.	.	16a/)	.	16b\	.	.	.	.	.	.	.	.	.
.	.	.	.	(16e/	.	16a\	.	.	.	.	.	.	.	.	.
!	!	!	!	!	!	!LO:TX:a:t=h	!	!	!	!	!	!	!	!	!
.	.	.	.	16a/)	.	16b\JJ	.	.	.	.	.	.	.	.	.
.	.	.	.	(16e/	.	16cc#\LL	.	4r	.	4r	.	.	.	.	.
.	.	.	.	16a/)	.	16dd\	.	.	.	.	.	.	.	.	.
.	.	.	.	(16e/	.	16ee\	.	.	.	.	.	.	.	.	.
.	.	.	.	16a/JJ)	.	16ff#\JJ	.	.	.	.	.	.	.	.	.
2A\	.	2a\	.	(16e/LL	.	16gg\LL	.	4a/	.	4ee\	.	.	.	2gg\	.
.	.	.	.	16a/)	.	16ff#\	.	.	.	.	.	.	.	.	.
.	.	.	.	(16e/	.	16ee\	.	.	.	.	.	.	.	.	.
.	.	.	.	16a/)	.	16dd\JJ	.	.	.	.	.	.	.	.	.
.	.	.	.	(16e/	.	16cc#\LL	.	4r	.	4r	.	.	.	.	.
.	.	.	.	16a/)	.	16b\	.	.	.	.	.	.	.	.	.
.	.	.	.	(16e/	.	16a\	.	.	.	.	.	.	.	.	.
.	.	.	.	16a/JJ)	.	16g\JJ	.	.	.	.	.	.	.	.	.
=155	=155	=155	=155	=155	=155	=155	=155	=155	=155	=155	=155	=155	=155	=155	=155
8D\L	.	8d\L	.	16d/LL	.	2f#/	.	4dd\	.	4ff#\	.	(<1dd	.	1ff#	.
.	.	.	.	16f#/	.	.	.	.	.	.	.	.	.	.	.
16E\L	.	16e\L	.	16d/	.	.	.	.	.	.	.	.	.	.	.
16F#\JJ	.	16f#\JJ	.	16f#/	.	.	.	.	.	.	.	.	.	.	.
16G\LL	.	16g\LL	.	16d/	.	.	.	8.d/L	.	8.dd\L	.	.	.	.	.
16A\	.	16a\	.	16f#/	.	.	.	.	.	.	.	.	.	.	.
16B\	.	16b\	.	16d/	.	.	.	.	.	.	.	.	.	.	.
16c#X\JJ	.	16cc#\JJ	.	16f#/JJ	.	.	.	16d/Jk	.	16dd\Jk	.	.	.	.	.
!	!	!	!	!	!	!	!	!	!	!LO:LB:g=original	!	!	!	!	!
8d\L	.	8dd\L	.	16d/LL	.	2ff#\	.	4d/	.	4dd\	.	.	.	.	.
.	.	.	.	16f#/	.	.	.	.	.	.	.	.	.	.	.
8A\	.	8a\	.	16d/	.	.	.	.	.	.	.	.	.	.	.
.	.	.	.	16f#/	.	.	.	.	.	.	.	.	.	.	.
8F#\	.	8f#\	.	16d/	.	.	.	4r	.	4r	.	.	.	.	.
.	.	.	.	16f#/	.	.	.	.	.	.	.	.	.	.	.
8D\J	.	8d\J	.	16d/	.	.	.	.	.	.	.	.	.	.	.
.	.	.	.	16f#/JJ	.	.	.	.	.	.	.	.	.	.	.
=156	=156	=156	=156	=156	=156	=156	=156	=156	=156	=156	=156	=156	=156	=156	=156
8G\L	.	8g\L	.	16b\LL	.	16ee\LL	.	1ee	.	[<1ee	.	1b)	.	(2ee\	.
.	.	.	.	16b\	.	16ee\	.	.	.	.	.	.	.	.	.
8G\	.	8g\	.	16b\	.	16ee\	.	.	.	.	.	.	.	.	.
.	.	.	.	16b\	.	16ee\	.	.	.	.	.	.	.	.	.
8G\	.	8g\	.	16b\	.	16ee\	.	.	.	.	.	.	.	.	.
.	.	.	.	16b\	.	16ee\	.	.	.	.	.	.	.	.	.
8G\J	.	8g\J	.	16b\	.	16ee\	.	.	.	.	.	.	.	.	.
.	.	.	.	16b\JJ	.	16ee\JJ	.	.	.	.	.	.	.	.	.
8G#X\L	.	8g#X\L	.	16b\LL	.	16ddd\LL	.	.	.	.	.	.	.	2ddn\	.
.	.	.	.	16b\	.	16ddd\	.	.	.	.	.	.	.	.	.
8G#\	.	8g#\	.	16b\	.	16ddd\	.	.	.	.	.	.	.	.	.
.	.	.	.	16b\	.	16ddd\	.	.	.	.	.	.	.	.	.
8G#\	.	8g#\	.	16b\	.	16ddd\	.	.	.	.	.	.	.	.	.
.	.	.	.	16b\	.	16ddd\	.	.	.	.	.	.	.	.	.
8G#\J	.	8g#\J	.	16b\	.	16ddd\	.	.	.	.	.	.	.	.	.
.	.	.	.	16b\JJ	.	16ddd\JJ	.	.	.	.	.	.	.	.	.
!	!	!	!	!	!	!LO:LB:g=original	!	!	!	!	!	!LO:LB:g=original	!	!	!
=157	=157	=157	=157	=157	=157	=157	=157	=157	=157	=157	=157	=157	=157	=157	=157
8A\L	.	8a\L	.	16ee\LL	.	16ccc#\LL	.	2ee\	.	(<1ee]	.	(<1a	.	1cc#)	.
.	.	.	.	16ee\	.	16ccc#\	.	.	.	.	.	.	.	.	.
8A\	.	8a\	.	16ee\	.	16ccc#\	.	.	.	.	.	.	.	.	.
.	.	.	.	16ee\	.	16ccc#\	.	.	.	.	.	.	.	.	.
8A\	.	8a\	.	16ee\	.	16ccc#\	.	.	.	.	.	.	.	.	.
.	.	.	.	16ee\	.	16ccc#\	.	.	.	.	.	.	.	.	.
8A\J	.	8a\J	.	16ee\	.	16ccc#\	.	.	.	.	.	.	.	.	.
.	.	.	.	16ee\JJ	.	16ccc#\JJ	.	.	.	.	.	.	.	.	.
8Gn\L	.	8gn\L	.	16ee\LL	.	16ccc#\LL	.	2r	.	.	.	.	.	.	.
.	.	.	.	16ee\	.	16ccc#\	.	.	.	.	.	.	.	.	.
8G\	.	8g\	.	16ee\	.	16ccc#\	.	.	.	.	.	.	.	.	.
.	.	.	.	16ee\	.	16ccc#\	.	.	.	.	.	.	.	.	.
8G\	.	8g\	.	16ee\	.	16ccc#\	.	.	.	.	.	.	.	.	.
.	.	.	.	16ee\	.	16ccc#\	.	.	.	.	.	.	.	.	.
8G\J	.	8g\J	.	16ee\	.	16ccc#\	.	.	.	.	.	.	.	.	.
.	.	.	.	16ee\JJ	.	16ccc#\JJ	.	.	.	.	.	.	.	.	.
*Xtremolo	*	*Xtremolo	*	*	*	*Xtremolo	*	*	*	*	*	*	*	*	*
!LO:LB:g=original	!	!	!	!LO:LB:g=original	!	!	!	!	!	!	!	!	!	!	!
=158	=158	=158	=158	=158	=158	=158	=158	=158	=158	=158	=158	=158	=158	=158	=158
8F#\L	.	8f#\L	.	16dd\LL	.	16ddd\LL	.	4d/	.	4dd\)	.	4dd\)	.	4dd\	.
.	.	.	.	16dd\	.	16ddd\	.	.	.	.	.	.	.	.	.
8F#\	.	8f#\	.	16dd\	.	16ddd\	.	.	.	.	.	.	.	.	.
.	.	.	.	16dd\JJ	.	16ddd\JJ	.	.	.	.	.	.	.	.	.
*	*	*	*	*	*	*tremolo	*	*	*	*	*	*	*	*	*
8Gn\	.	8g\	.	16ee\LL	.	16gg\LL	.	4a/	.	4ee\	.	(4ee\	.	(4gg\	.
.	.	.	.	16ee\	.	16gg\	.	.	.	.	.	.	.	.	.
8G\J	.	8g\J	.	16ee\	.	16gg\	.	.	.	.	.	.	.	.	.
.	.	.	.	16ee\JJ	.	16gg\JJ	.	.	.	.	.	.	.	.	.
!LO:TX:a:t=problem:mixed beam	!	!LO:TX:a:t=problem:mixed beam	!	!	!	!	!	!	!	!	!	!	!	!	!
8A\L	.	8a\L	.	16dd\LL	.	16ff#\LL	.	4dd\	.	4ff#\	.	4dd\	.	4ff#\	.
.	.	.	.	16dd\	.	16ff#\	.	.	.	.	.	.	.	.	.
8A\	.	8a\	.	16dd\	.	16ff#\	.	.	.	.	.	.	.	.	.
.	.	.	.	16dd\JJ	.	16ff#\JJ	.	.	.	.	.	.	.	.	.
8AA/	.	8A/	.	16cc#\LL	.	16ee\LL	.	4a/	.	4ee\	.	4cc#\)	.	4ee\	.
.	.	.	.	16cc#\	.	16ee\	.	.	.	.	.	.	.	.	.
8AA/J	.	8A/J	.	16cc#\	.	16ee\	.	.	.	.	.	.	.	.	.
.	.	.	.	16cc#\JJ	.	16ee\JJ	.	.	.	.	.	.	.	.	.
*	*	*	*	*Xtremolo	*	*Xtremolo	*	*	*	*	*	*	*	*	*
!	!	!LO:LB:g=original	!	!	!	!	!	!	!	!	!	!	!	!	!
=159	=159	=159	=159	=159	=159	=159	=159	=159	=159	=159	=159	=159	=159	=159	=159
!	!	!	!LO:DY:t=p:	!	!	!	!	!	!	!	!	!	!	!	!
8D\L	pp	(8d\L	p	4f#/ 4dd	.	4dd\	.	4d/	.	4dd\	.	4dd\	.	4dd\)	.
8d\	.	8dd\)	.	.	.	.	.	.	.	.	.	.	.	.	.
8D\	.	(8d\	.	4r	.	4r	.	4r	.	4r	.	4r	.	4r	.
8d\J	.	8dd\J)	.	.	.	.	.	.	.	.	.	.	.	.	.
*tremolo	*	*tremolo	*	*	*	*	*	*	*	*	*	*	*	*	*
8D\L	.	(8d\L	.	4r	.	4r	.	2r	.	2r	.	2r	.	2r	.
8d\	.	8dd\)	.	.	.	.	.	.	.	.	.	.	.	.	.
!	!	!	!	!	!LO:DY:t=p	!	!	!	!	!	!	!	!	!	!
8D\	.	(8d\	.	4ggn\	p	4bb\	.	.	.	.	.	.	.	.	.
8d\J	.	8dd\J)	.	.	.	.	.	.	.	.	.	.	.	.	.
!	!	!	!	!	!	!	!	!	!	!	!	!	!	!LO:LB:g=original	!
=160	=160	=160	=160	=160	=160	=160	=160	=160	=160	=160	=160	=160	=160	=160	=160
!	!	!	!	!	!	!	!	!LO:TX:a:t=1	!	!LO:TX:A:t=1	!	!LO:TX:a:t=1	!	!LO:TX:a:t=1	!
8D\L	.	8d\L	.	4.ff#\	.	4.aa\	p	1r	.	1r	.	1r	.	1r	.
8d\	.	8dd\	.	.	.	.	.	.	.	.	.	.	.	.	.
8D\	.	8d\	.	.	.	.	.	.	.	.	.	.	.	.	.
8d\J	.	8dd\J	.	8gg\	.	8bb\	.	.	.	.	.	.	.	.	.
8D\L	.	8d\L	.	4ff#\	.	4aa\	.	.	.	.	.	.	.	.	.
8d\	.	8dd\	.	.	.	.	.	.	.	.	.	.	.	.	.
!	!	!	!	!LO:TX:a:t=t	!	!LO:TX:a:t=t	!	!	!	!	!	!	!	!	!
8D\	.	8d\	.	4ee\	.	4gg\	.	.	.	.	.	.	.	.	.
8d\J	.	8dd\J	.	.	.	.	.	.	.	.	.	.	.	.	.
=161	=161	=161	=161	=161	=161	=161	=161	=161	=161	=161	=161	=161	=161	=161	=161
!	!	!	!	!	!	!	!	!	!	!	!LO:DY:t=p	!	!	!	!
8D\L	pp	(8d\L	.	4dd\	.	4ff#\	.	[1d	p	[1dd	p	2r	p	2r	.
8d\	.	8dd\)	.	.	.	.	.	.	.	.	.	.	.	.	.
8D\	.	(8d\	.	4r	.	4r	.	.	.	.	.	.	.	.	.
8d\J	.	8dd\J)	.	.	.	.	.	.	.	.	.	.	.	.	.
8D\L	.	(8d\L	.	4r	.	4r	.	.	.	.	.	4r	.	4r	.
8d\	.	8dd\)	.	.	.	.	.	.	.	.	.	.	.	.	.
8D\	.	(8d\	.	4g/	.	4b\	pp	.	.	.	.	4ggn\	.	4bb\	.
8d\J	.	8dd\J)	.	.	.	.	.	.	.	.	.	.	.	.	.
!	!	!	!	!	!	!	!	!LO:LB:g=original	!	!	!	!	!	!	!
=162	=162	=162	=162	=162	=162	=162	=162	=162	=162	=162	=162	=162	=162	=162	=162
8D\L	.	8d\L	.	4.f#/	.	4.a/	.	1d_	.	1dd_	pp	4.ff#\	.	4.aa\	.
8d\	.	8dd\	.	.	.	.	.	.	.	.	.	.	.	.	.
8D\	.	8d\	.	.	.	.	.	.	.	.	.	.	.	.	.
8d\J	.	8dd\J	.	8g/	.	8b/	.	.	.	.	.	8gg\	.	8bb\	.
8D\L	.	8d\L	.	4f#/	.	4a/	.	.	.	.	.	4ff#\	.	4aa\	.
8d\	.	8dd\	.	.	.	.	.	.	.	.	.	.	.	.	.
!	!	!	!	!LO:TX:a:t=t	!	!LO:TX:a:t=t	!	!	!	!	!	!	!	!LO:TX:a:t=t	!
8D\	.	8d\	.	4e/	.	4g/	.	.	.	.	.	4eeT\	.	4gg\	.
8d\J	.	8dd\J	.	.	.	.	.	.	.	.	.	.	.	.	.
!	!	!	!	!	!	!LO:LB:g=original	!	!	!	!	!	!	!	!	!
=163	=163	=163	=163	=163	=163	=163	=163	=163	=163	=163	=163	=163	=163	=163	=163
8D\L	f	8d\L	f	4d/	.	4f#/	.	4d/]	.	4dd\]	.	4dd\	.	4ff#\	.
8d\	.	8dd\	.	.	.	.	.	.	.	.	.	.	.	.	.
8A\	.	8a\	.	4f#/ 4dd	f	4d/ 4a 4ff#	f	4d/	.	4dd\	f	4dd\	f	4ff#\	f
8F#\J	.	8f#\J	.	.	.	.	.	.	.	.	.	.	.	.	.
4D\	.	4d\	.	4f#/ 4dd	.	4d/ 4a 4ff#	.	4d/	.	4dd\	.	4dd\	.	4ff#\	.
!	!	!	!	!LO:TX:a:t=Volti Sub	!	!	!	!	!	!	!	!	!	!	!
4r	.	4r	.	4r	.	4r	.	4r	.	4r	.	4r	.	4r	.
=:|!	=:|!	=:|!	=:|!	=:|!	=:|!	=:|!	=:|!	=:|!	=:|!	=:|!	=:|!	=:|!	=:|!	=:|!	=:|!
*-	*-	*-	*-	*-	*-	*-	*-	*-	*-	*-	*-	*-	*-	*-	*-
!!!system-decoration: [(g1)][(g2)][(g3)]{g4}
!!!RDF**kern: i = editorial accidental
!!!RDF**kern: >= above
!!!RDF**kern: <= below
!!!RDF**dynam: f=for
!!!RDF**dynam: p=pia
!!!RDF**dynam: cresc. = cres.
!!!AIN: 3 empty 2 oboe 1 viola 2 violn
!!!ENC: Anna Matuszewska
!!!END: 2020-07-12
